;FLAVOR:Marlin
;TIME:16996
;Filament used: 19.937m
;Layer height: 0.2
;MINX:29.108
;MINY:39.281
;MINZ:0.2
;MAXX:197.356
;MAXY:187.733
;MAXZ:3.4
;TARGET_MACHINE.NAME:ELEGOO NEPTUNE 4 Pro
;Generated with Cura_SteamEngine 5.7.2
M104 S260
M105
M109 S260
M82 ;absolute extrusion mode
;ELEGOO NEPTUNE 4 / 4 PRO
M220 S100 ;Set the feed speed to 100%
M221 S100 ;Set the flow rate to 100%
M104 S140 ;Start heating extruder
M190 S70 ;Wait for the bed to reach print temp
G90
G28 ;home
G1 Z10 F300
G1 X67.5 Y0 F6000
G1 Z0 F300
M109 S260 ;Wait for extruder to reach print temp
G92 E0 ;Reset Extruder
G1 X67.5 Y0 Z0.4 F300 ;Move to start position
G1 X167.5 E30 F400 ;Draw the first line
G1 Z0.6 F120.0 ;Move to side a little
G1 X162.5 F3000
G92 E0 ;Reset Extruder
G92 E0
G92 E0
G1 F2700 E-0.5
;LAYER_COUNT:17
;LAYER:0
M107
M204 S500
G0 F4200 X34.771 Y74.392 Z0.2
;TYPE:SKIRT
G1 F2700 E0
G1 F3600 X36.856 Y73.591 E0.0975
G1 X38.43 Y73.412 E0.16666
G1 X95.313 Y73.376 E2.64983
G1 X95.325 Y63.944 E3.06157
G1 X95.603 Y62.418 E3.12928
G1 X95.967 Y61.15 E3.18687
G1 X96.744 Y59.639 E3.26104
G1 X97.375 Y58.707 E3.31017
G1 X98.291 Y57.616 E3.37236
G1 X99.78 Y56.391 E3.45653
G1 X101.351 Y55.525 E3.53484
G1 X103.209 Y54.908 E3.62031
G1 X107.51 Y54.257 E3.8102
G1 X109.467 Y53.987 E3.89644
G1 X112.977 Y53.549 E4.05085
G1 X121.308 Y52.601 E4.41688
G1 X123.664 Y52.307 E4.52053
G1 X125.843 Y52.005 E4.61656
G1 X128.272 Y51.629 E4.72386
G1 X129.314 Y51.451 E4.77
G1 X130.462 Y51.241 E4.82095
G1 X131.614 Y51.014 E4.87221
G1 X132.834 Y50.759 E4.92662
G1 X133.903 Y50.516 E4.97447
G1 X135.144 Y50.219 E5.03018
G1 X136.204 Y49.95 E5.07792
G1 X137.487 Y49.605 E5.13591
G1 X138.576 Y49.29 E5.1854
G1 X139.855 Y48.897 E5.24381
G1 X140.96 Y48.539 E5.29452
G1 X142.241 Y48.096 E5.35369
G1 X143.351 Y47.692 E5.40525
G1 X145.317 Y46.924 E5.49739
G1 X146.444 Y46.451 E5.55075
G1 X148.432 Y45.566 E5.64574
G1 X150.404 Y44.624 E5.74115
G1 X151.63 Y44.002 E5.80116
G1 X152.949 Y43.298 E5.86643
G1 X154.328 Y42.537 E5.93518
G1 X158 Y40.437 E6.11984
G1 X159.696 Y39.753 E6.19968
G1 X160.929 Y39.429 E6.25533
G1 X162.841 Y39.281 E6.33904
G1 X164.665 Y39.516 E6.41933
G1 X166.278 Y39.981 E6.49261
G1 X167.512 Y40.549 E6.55191
G1 X168.9 Y41.391 E6.62278
G1 X170.437 Y42.932 E6.71779
G1 X171.059 Y43.743 E6.76241
G1 X196.303 Y87.501 E8.9677
G1 X196.699 Y88.413 E9.0111
G1 X197.267 Y90.363 E9.09976
G1 X197.356 Y92.33 E9.18572
G1 X197.258 Y93.688 E9.24515
G1 X196.818 Y95.401 E9.32236
G1 X196.072 Y97.036 E9.40081
G1 X195.057 Y98.512 E9.47901
G1 X193.759 Y99.816 E9.55933
G1 X192.369 Y100.773 E9.633
G1 X189.117 Y102.65 E9.79691
G1 X186.456 Y104.207 E9.9315
G1 X184.408 Y105.428 E10.03559
G1 X182.593 Y106.535 E10.12839
G1 X180.785 Y107.668 E10.22154
G1 X179.252 Y108.661 E10.30127
G1 X177.692 Y109.71 E10.38333
G1 X176.436 Y110.593 E10.45036
G1 X175.012 Y111.657 E10.52796
G1 X174.448 Y112.101 E10.55929
G1 X173.851 Y112.591 E10.59301
G1 X172.92 Y113.402 E10.64691
G1 X172.279 Y114.013 E10.68556
G1 X171.715 Y114.613 E10.72151
G1 X171.332 Y115.058 E10.74714
G1 X171.02 Y115.451 E10.76905
G1 X170.696 Y115.91 E10.79357
G1 X170.293 Y116.697 E10.83217
G1 X170.144 Y117.303 E10.85941
G1 X170.123 Y117.835 E10.88266
G1 X170.103 Y167.683 E13.05872
G1 X170.012 Y168.629 E13.1002
G1 X169.754 Y169.836 E13.15408
G1 X169.108 Y171.593 E13.2358
G1 X168.521 Y172.635 E13.28801
G1 X167.834 Y173.586 E13.33923
G1 X166.767 Y174.708 E13.40682
G1 X165.87 Y175.432 E13.45714
G1 X164.939 Y176.029 E13.50542
G1 X162.252 Y177.48 E13.63873
G1 X161.311 Y177.962 E13.68488
G1 X160.36 Y178.434 E13.73123
G1 X159.399 Y178.895 E13.77776
G1 X158.427 Y179.345 E13.82452
G1 X157.443 Y179.785 E13.87157
G1 X156.426 Y180.223 E13.91991
G1 X154.464 Y181.024 E14.01242
G1 X153.406 Y181.431 E14.06191
G1 X151.392 Y182.155 E14.15533
G1 X150.356 Y182.506 E14.20308
G1 X149.309 Y182.847 E14.25115
G1 X148.252 Y183.177 E14.29949
G1 X147.145 Y183.508 E14.34993
G1 X144.989 Y184.104 E14.44758
G1 X142.799 Y184.656 E14.54617
G1 X140.62 Y185.152 E14.64372
G1 X139.445 Y185.399 E14.69614
G1 X137.215 Y185.822 E14.79522
G1 X136.013 Y186.035 E14.84851
G1 X133.716 Y186.394 E14.95
G1 X132.513 Y186.564 E15.00304
G1 X130.156 Y186.861 E15.10675
G1 X128.879 Y187.002 E15.16283
G1 X126.477 Y187.224 E15.26813
G1 X124.891 Y187.355 E15.33761
G1 X123.318 Y187.457 E15.40642
G1 X120.199 Y187.621 E15.54276
G1 X118.65 Y187.672 E15.61042
G1 X117.088 Y187.709 E15.67863
G1 X115.525 Y187.73 E15.74686
G1 X112.783 Y187.733 E15.86656
G1 X110.426 Y187.699 E15.96946
G1 X109.225 Y187.672 E16.02191
G1 X105.447 Y187.516 E16.18697
G1 X103.544 Y187.417 E16.27016
G1 X101.608 Y187.293 E16.35484
G1 X97.705 Y186.987 E16.52575
G1 X93.722 Y186.6 E16.70044
G1 X89.656 Y186.133 E16.8791
G1 X85.514 Y185.587 E17.06148
G1 X83.403 Y185.28 E17.15461
G1 X81.279 Y184.958 E17.24839
G1 X79.115 Y184.615 E17.34403
G1 X74.739 Y183.87 E17.53781
G1 X72.506 Y183.464 E17.63689
G1 X68.005 Y182.6 E17.83696
G1 X65.698 Y182.132 E17.93972
G1 X61.044 Y181.148 E18.14738
G1 X58.672 Y180.621 E18.25345
G1 X55.08 Y179.798 E18.41432
G1 X52.639 Y179.221 E18.52382
G1 X46.459 Y177.697 E18.80168
G1 X42.681 Y176.727 E18.97195
G1 X40.12 Y176.049 E19.0876
G1 X36.285 Y175.01 E19.26105
G1 X34.654 Y174.339 E19.33804
G1 X33.501 Y173.658 E19.3965
G1 X32.198 Y172.637 E19.46876
G1 X30.889 Y171.022 E19.55951
G1 X30.137 Y169.739 E19.62443
G1 X29.603 Y168.521 E19.68249
G1 X29.253 Y166.944 E19.753
G1 X29.108 Y165.307 E19.82475
G1 X29.157 Y82.629 E23.43397
G1 X29.317 Y81.516 E23.48305
G1 X29.698 Y80.022 E23.55036
G1 X30.686 Y78.098 E23.64477
G1 X31.083 Y77.523 E23.67528
G1 X31.984 Y76.419 E23.73748
G1 X33.411 Y75.227 E23.81865
G1 X34.771 Y74.392 E23.88832
G0 F4200 X35.003 Y74.866
G1 F3600 X36.981 Y74.105 E23.98084
G1 X38.489 Y73.934 E24.04709
G1 X95.837 Y73.901 E26.55055
G1 X95.85 Y63.993 E26.98308
G1 X96.108 Y62.563 E27.04651
G1 X96.458 Y61.345 E27.10183
G1 X97.18 Y59.932 E27.1711
G1 X97.777 Y59.045 E27.21778
G1 X98.665 Y57.987 E27.27807
G1 X100.073 Y56.829 E27.35766
G1 X101.562 Y56.008 E27.43188
G1 X103.332 Y55.42 E27.5133
G1 X107.582 Y54.777 E27.70094
G1 X109.532 Y54.508 E27.78687
G1 X113.036 Y54.071 E27.94102
G1 X121.367 Y53.123 E28.30705
G1 X123.729 Y52.828 E28.41096
G1 X125.923 Y52.524 E28.50765
G1 X128.352 Y52.148 E28.61495
G1 X129.403 Y51.968 E28.6615
G1 X130.563 Y51.756 E28.71298
G1 X131.721 Y51.528 E28.7645
G1 X132.941 Y51.273 E28.81891
G1 X134.025 Y51.027 E28.86743
G1 X135.266 Y50.73 E28.92314
G1 X136.341 Y50.457 E28.97155
G1 X137.624 Y50.111 E29.02956
G1 X138.73 Y49.792 E29.07981
G1 X140.009 Y49.399 E29.13822
G1 X141.132 Y49.035 E29.18976
G1 X142.413 Y48.592 E29.24893
G1 X143.542 Y48.181 E29.30138
G1 X145.508 Y47.413 E29.39352
G1 X146.658 Y46.931 E29.44795
G1 X148.646 Y46.046 E29.54294
G1 X150.63 Y45.098 E29.63893
G1 X151.868 Y44.47 E29.69953
G1 X153.203 Y43.758 E29.76558
G1 X154.582 Y42.997 E29.83434
G1 X158.261 Y40.893 E30.01935
G1 X159.829 Y40.261 E30.09315
G1 X161.02 Y39.948 E30.14691
G1 X162.824 Y39.808 E30.22589
G1 X164.598 Y40.037 E30.30398
G1 X166.06 Y40.459 E30.37041
G1 X167.24 Y40.998 E30.42704
G1 X168.574 Y41.807 E30.49514
G1 X170.02 Y43.252 E30.58438
G1 X170.642 Y44.063 E30.629
G1 X195.848 Y87.763 E32.83127
G1 X196.195 Y88.56 E32.86921
G1 X196.746 Y90.451 E32.9552
G1 X196.832 Y92.292 E33.03565
G1 X196.737 Y93.602 E33.09299
G1 X196.32 Y95.226 E33.16618
G1 X195.612 Y96.778 E33.24065
G1 X194.65 Y98.177 E33.31477
G1 X193.422 Y99.411 E33.39076
G1 X192.107 Y100.318 E33.4605
G1 X188.855 Y102.195 E33.62441
G1 X186.187 Y103.756 E33.75935
G1 X184.139 Y104.977 E33.86344
G1 X182.314 Y106.09 E33.95675
G1 X180.506 Y107.223 E34.0499
G1 X178.959 Y108.225 E34.13036
G1 X177.399 Y109.274 E34.21242
G1 X176.134 Y110.163 E34.27992
G1 X174.698 Y111.236 E34.35817
G1 X174.115 Y111.695 E34.39056
G1 X173.506 Y112.195 E34.42496
G1 X172.575 Y113.006 E34.47886
G1 X171.896 Y113.653 E34.5198
G1 X171.332 Y114.253 E34.55575
G1 X170.934 Y114.715 E34.58237
G1 X170.599 Y115.137 E34.60589
G1 X170.251 Y115.631 E34.63227
G1 X169.999 Y116.072 E34.65444
G1 X169.795 Y116.524 E34.67609
G1 X169.621 Y117.229 E34.70779
G1 X169.598 Y117.814 E34.73335
G1 X169.58 Y167.635 E36.90823
G1 X169.498 Y168.522 E36.94711
G1 X169.261 Y169.655 E36.99764
G1 X168.63 Y171.372 E37.0775
G1 X168.094 Y172.329 E37.12538
G1 X167.452 Y173.225 E37.1735
G1 X166.437 Y174.299 E37.23801
G1 X165.54 Y175.023 E37.28833
G1 X164.69 Y175.567 E37.33239
G1 X162.012 Y177.013 E37.46524
G1 X161.078 Y177.492 E37.51107
G1 X160.133 Y177.961 E37.55712
G1 X159.179 Y178.419 E37.60332
G1 X158.213 Y178.866 E37.64978
G1 X157.236 Y179.303 E37.6965
G1 X156.227 Y179.737 E37.74445
G1 X154.276 Y180.534 E37.83645
G1 X153.228 Y180.937 E37.88547
G1 X151.223 Y181.658 E37.97848
G1 X150.194 Y182.007 E38.02592
G1 X149.152 Y182.346 E38.07375
G1 X148.102 Y182.674 E38.12177
G1 X147.005 Y183.002 E38.17175
G1 X144.861 Y183.595 E38.26886
G1 X142.682 Y184.144 E38.36696
G1 X140.512 Y184.638 E38.46411
G1 X139.347 Y184.883 E38.51608
G1 X137.123 Y185.305 E38.6149
G1 X135.932 Y185.516 E38.6677
G1 X133.643 Y185.874 E38.76884
G1 X132.447 Y186.043 E38.82157
G1 X130.098 Y186.339 E38.92492
G1 X128.831 Y186.479 E38.98057
G1 X126.434 Y186.701 E39.08565
G1 X124.857 Y186.831 E39.15473
G1 X123.291 Y186.933 E39.22324
G1 X120.182 Y187.096 E39.35914
G1 X118.638 Y187.147 E39.42658
G1 X117.081 Y187.184 E39.49457
G1 X115.524 Y187.205 E39.56254
G1 X112.791 Y187.208 E39.68185
G1 X110.438 Y187.174 E39.78458
G1 X109.247 Y187.147 E39.83658
G1 X105.474 Y186.992 E40.00143
G1 X103.577 Y186.893 E40.08435
G1 X101.649 Y186.77 E40.16869
G1 X97.756 Y186.464 E40.33916
G1 X93.782 Y186.078 E40.51345
G1 X89.725 Y185.612 E40.69172
G1 X85.589 Y185.067 E40.87384
G1 X83.482 Y184.761 E40.96678
G1 X81.361 Y184.439 E41.06043
G1 X79.203 Y184.097 E41.15581
G1 X74.833 Y183.353 E41.34932
G1 X72.605 Y182.948 E41.44818
G1 X68.109 Y182.085 E41.64803
G1 X65.807 Y181.618 E41.75057
G1 X61.158 Y180.635 E41.958
G1 X58.789 Y180.109 E42.06394
G1 X55.201 Y179.287 E42.22463
G1 X52.765 Y178.711 E42.3339
G1 X46.59 Y177.188 E42.61154
G1 X42.815 Y176.219 E42.78168
G1 X40.257 Y175.542 E42.89719
G1 X36.485 Y174.524 E43.06774
G1 X34.854 Y173.853 E43.14473
G1 X33.77 Y173.207 E43.19982
G1 X32.57 Y172.262 E43.2665
G1 X31.341 Y170.755 E43.35139
G1 X30.618 Y169.528 E43.41356
G1 X30.105 Y168.358 E43.46933
G1 X29.766 Y166.83 E43.53765
G1 X29.633 Y165.307 E43.60439
G1 X29.682 Y82.629 E47.21361
G1 X29.826 Y81.646 E47.25698
G1 X30.193 Y80.206 E47.32185
G1 X31.119 Y78.395 E47.41064
G1 X31.49 Y77.855 E47.43924
G1 X32.359 Y76.79 E47.49925
G1 X33.686 Y75.674 E47.57494
G1 X35.003 Y74.866 E47.64239
G0 F4200 X35.235 Y75.339
G1 F3600 X37.105 Y74.62 E47.72985
G1 X38.548 Y74.456 E47.79324
G1 X96.361 Y74.426 E50.31701
G1 X96.375 Y64.041 E50.77036
G1 X96.613 Y62.708 E50.82947
G1 X96.949 Y61.539 E50.88256
G1 X97.648 Y60.171 E50.94963
G1 X98.179 Y59.383 E50.99111
G1 X99.037 Y58.361 E51.04936
G1 X100.367 Y57.267 E51.12454
G1 X101.776 Y56.49 E51.19478
G1 X103.455 Y55.932 E51.27202
G1 X107.654 Y55.297 E51.4574
G1 X109.597 Y55.029 E51.54303
G1 X113.095 Y54.593 E51.69691
G1 X121.426 Y53.645 E52.06294
G1 X123.794 Y53.349 E52.16711
G1 X126.003 Y53.043 E52.26447
G1 X128.432 Y52.667 E52.37176
G1 X129.5 Y52.484 E52.41907
G1 X130.664 Y52.271 E52.47072
G1 X131.828 Y52.042 E52.52251
G1 X133.048 Y51.787 E52.57692
G1 X134.147 Y51.538 E52.62611
G1 X135.388 Y51.241 E52.68181
G1 X136.48 Y50.964 E52.73099
G1 X137.761 Y50.618 E52.78892
G1 X138.884 Y50.294 E52.83994
G1 X140.163 Y49.901 E52.89835
G1 X141.304 Y49.531 E52.95071
G1 X142.585 Y49.088 E53.00988
G1 X143.733 Y48.67 E53.06322
G1 X145.699 Y47.902 E53.15536
G1 X146.871 Y47.411 E53.21083
G1 X148.873 Y46.52 E53.30649
G1 X150.857 Y45.571 E53.4025
G1 X152.115 Y44.933 E53.46407
G1 X153.457 Y44.218 E53.53045
G1 X154.836 Y43.457 E53.59921
G1 X158.522 Y41.349 E53.78457
G1 X159.962 Y40.769 E53.85234
G1 X161.111 Y40.467 E53.9042
G1 X162.808 Y40.335 E53.97851
G1 X164.454 Y40.542 E54.05093
G1 X165.843 Y40.937 E54.11397
G1 X166.968 Y41.447 E54.16789
G1 X168.249 Y42.224 E54.23329
G1 X169.603 Y43.572 E54.3167
G1 X170.225 Y44.383 E54.36131
G1 X195.393 Y88.025 E56.56056
G1 X195.691 Y88.707 E56.59305
G1 X196.225 Y90.54 E56.67639
G1 X196.308 Y92.254 E56.7513
G1 X196.216 Y93.521 E56.80676
G1 X195.824 Y95.046 E56.87549
G1 X195.152 Y96.52 E56.94621
G1 X194.243 Y97.842 E57.01625
G1 X193.085 Y99.006 E57.08792
G1 X191.844 Y99.863 E57.15376
G1 X188.592 Y101.741 E57.3177
G1 X185.918 Y103.305 E57.45293
G1 X183.87 Y104.526 E57.55701
G1 X182.035 Y105.645 E57.65084
G1 X180.227 Y106.778 E57.74398
G1 X178.666 Y107.789 E57.82517
G1 X177.106 Y108.838 E57.90723
G1 X175.82 Y109.742 E57.97585
G1 X174.384 Y110.815 E58.05411
G1 X173.782 Y111.289 E58.08756
G1 X173.161 Y111.799 E58.12264
G1 X172.23 Y112.61 E58.17654
G1 X171.513 Y113.293 E58.21976
G1 X170.949 Y113.893 E58.25571
G1 X170.536 Y114.373 E58.28335
G1 X170.17 Y114.834 E58.30905
G1 X169.809 Y115.346 E58.3364
G1 X169.528 Y115.838 E58.36113
G1 X169.297 Y116.351 E58.38569
G1 X169.098 Y117.155 E58.42185
G1 X169.073 Y117.793 E58.44972
G1 X169.057 Y167.587 E60.62342
G1 X168.975 Y168.474 E60.66231
G1 X168.768 Y169.474 E60.70689
G1 X168.151 Y171.152 E60.78494
G1 X167.667 Y172.023 E60.82843
G1 X167.025 Y172.919 E60.87655
G1 X166.106 Y173.891 E60.93495
G1 X165.256 Y174.581 E60.98274
G1 X164.44 Y175.105 E61.02507
G1 X161.773 Y176.546 E61.15741
G1 X160.844 Y177.022 E61.20297
G1 X159.906 Y177.488 E61.2487
G1 X158.958 Y177.943 E61.2946
G1 X157.999 Y178.387 E61.34073
G1 X157.029 Y178.821 E61.38712
G1 X156.029 Y179.251 E61.43464
G1 X154.087 Y180.044 E61.52621
G1 X153.05 Y180.443 E61.57472
G1 X151.055 Y181.161 E61.66728
G1 X150.031 Y181.508 E61.71447
G1 X148.996 Y181.845 E61.76199
G1 X147.952 Y182.171 E61.80973
G1 X146.865 Y182.496 E61.85926
G1 X144.733 Y183.086 E61.95583
G1 X142.566 Y183.632 E62.05339
G1 X140.404 Y184.124 E62.15018
G1 X139.249 Y184.367 E62.2017
G1 X137.031 Y184.788 E62.30026
G1 X135.851 Y184.997 E62.35257
G1 X133.57 Y185.354 E62.45336
G1 X132.381 Y185.522 E62.50578
G1 X130.04 Y185.817 E62.60878
G1 X128.782 Y185.956 E62.66403
G1 X126.391 Y186.178 E62.76885
G1 X124.823 Y186.307 E62.83753
G1 X123.264 Y186.409 E62.90574
G1 X120.165 Y186.571 E63.0412
G1 X118.625 Y186.622 E63.10847
G1 X117.074 Y186.659 E63.1762
G1 X115.523 Y186.68 E63.24391
G1 X112.799 Y186.683 E63.36282
G1 X110.45 Y186.649 E63.46538
G1 X109.268 Y186.622 E63.51699
G1 X105.501 Y186.468 E63.68157
G1 X103.61 Y186.369 E63.76423
G1 X101.69 Y186.247 E63.84822
G1 X97.807 Y185.941 E64.01825
G1 X93.842 Y185.556 E64.19215
G1 X89.794 Y185.091 E64.37003
G1 X85.664 Y184.547 E64.55187
G1 X83.561 Y184.242 E64.64464
G1 X81.443 Y183.92 E64.73816
G1 X79.291 Y183.579 E64.83328
G1 X74.927 Y182.837 E65.02652
G1 X72.704 Y182.432 E65.12516
G1 X68.213 Y181.57 E65.32478
G1 X65.916 Y181.104 E65.4271
G1 X61.272 Y180.123 E65.6343
G1 X58.906 Y179.597 E65.74011
G1 X55.322 Y178.776 E65.90062
G1 X52.89 Y178.201 E66.00971
G1 X49.222 Y177.303 E66.17456
G1 X46.721 Y176.68 E66.28708
G1 X42.949 Y175.711 E66.45709
G1 X40.394 Y175.035 E66.57246
G1 X36.622 Y174.017 E66.74301
G1 X35.121 Y173.401 E66.81384
G1 X34.095 Y172.794 E66.86588
G1 X32.939 Y171.884 E66.93011
G1 X31.793 Y170.487 E67.00898
G1 X31.099 Y169.317 E67.06837
G1 X30.607 Y168.195 E67.12185
G1 X30.279 Y166.716 E67.18798
G1 X30.158 Y165.307 E67.24972
G1 X30.202 Y82.703 E70.85571
G1 X30.335 Y81.775 E70.89663
G1 X30.687 Y80.392 E70.95893
G1 X31.553 Y78.691 E71.04225
G1 X31.897 Y78.187 E71.06889
G1 X32.735 Y77.16 E71.12676
G1 X34.024 Y76.076 E71.20028
G1 X35.235 Y75.339 E71.26216
G0 F4200 X35.471 Y75.811
G1 F3600 X37.229 Y75.135 E71.34439
G1 X38.607 Y74.978 E71.40493
G1 X96.885 Y74.951 E73.94899
G1 X96.9 Y64.088 E74.42321
G1 X97.118 Y62.853 E74.47795
G1 X97.44 Y61.733 E74.52883
G1 X98.116 Y60.41 E74.59368
G1 X98.581 Y59.721 E74.62997
G1 X99.409 Y58.735 E74.68618
G1 X100.663 Y57.703 E74.75707
G1 X101.989 Y56.972 E74.82317
G1 X103.576 Y56.445 E74.89617
G1 X107.726 Y55.817 E75.0794
G1 X109.662 Y55.55 E75.16471
G1 X113.154 Y55.115 E75.31833
G1 X121.485 Y54.167 E75.68436
G1 X123.859 Y53.87 E75.7888
G1 X126.083 Y53.562 E75.88681
G1 X128.512 Y53.186 E75.99411
G1 X129.597 Y53 E76.04216
