;FLAVOR:Marlin
;TIME:16943
;Filament used: 19.9372m
;Layer height: 0.2
;MINX:33.385
;MINY:40.797
;MINZ:0.2
;MAXX:201.63
;MAXY:189.217
;MAXZ:3.4
;TARGET_MACHINE.NAME:ELEGOO NEPTUNE 4 Pro
;Generated with Cura_SteamEngine 5.7.2
M104 S260
M105
M109 S260
M82 ;absolute extrusion mode
;ELEGOO NEPTUNE 4 / 4 PRO
M220 S100 ;Set the feed speed to 100%
M221 S100 ;Set the flow rate to 100%
M104 S140 ;Start heating extruder
M190 S70 ;Wait for the bed to reach print temp
G90
G28 ;home
G1 Z10 F300
G1 X67.5 Y0 F6000
G1 Z0 F300
M109 S260 ;Wait for extruder to reach print temp
G92 E0 ;Reset Extruder
G1 X67.5 Y0 Z0.4 F300 ;Move to start position
G1 X167.5 E30 F400 ;Draw the first line
G1 Z0.6 F120.0 ;Move to side a little
G1 X162.5 F3000
G92 E0 ;Reset Extruder
G92 E0
G92 E0
G1 F2700 E-0.5
;LAYER_COUNT:17
;LAYER:0
M107
M204 S500
G0 F4200 X60.451 Y44.194 Z0.2
;TYPE:SKIRT
G1 F2700 E0
G1 F3600 X61.861 Y42.862 E0.08467
G1 X63.576 Y41.794 E0.17287
G1 X65.506 Y41.086 E0.26261
G1 X67.227 Y40.797 E0.33879
G1 X68.97 Y40.798 E0.41488
G1 X70.755 Y41.12 E0.49406
G1 X72.541 Y41.793 E0.57738
G1 X76.409 Y44.017 E0.77215
G1 X77.788 Y44.779 E0.84093
G1 X79.11 Y45.481 E0.90627
G1 X80.384 Y46.125 E0.96859
G1 X81.033 Y46.442 E1.00012
G1 X82.377 Y47.078 E1.06503
G1 X83.599 Y47.628 E1.12353
G1 X84.857 Y48.168 E1.18329
G1 X86.111 Y48.676 E1.24236
G1 X87.374 Y49.164 E1.30146
G1 X88.54 Y49.591 E1.35567
G1 X89.741 Y50.005 E1.41112
G1 X90.91 Y50.383 E1.46476
G1 X92.133 Y50.761 E1.52064
G1 X93.281 Y51.091 E1.57278
G1 X94.425 Y51.401 E1.62452
G1 X95.602 Y51.702 E1.67756
G1 X96.818 Y51.993 E1.73214
G1 X99.16 Y52.504 E1.83678
G1 X101.358 Y52.915 E1.9344
G1 X103.728 Y53.31 E2.03928
G1 X104.767 Y53.468 E2.08516
G1 X107.073 Y53.788 E2.18679
G1 X109.394 Y54.076 E2.28889
G1 X119.1 Y55.19 E2.71538
G1 X121.944 Y55.558 E2.84056
G1 X123.099 Y55.716 E2.89145
G1 X127.411 Y56.397 E3.08202
G1 X128.98 Y56.873 E3.1536
G1 X130.357 Y57.489 E3.21945
G1 X131.794 Y58.54 E3.29717
G1 X132.714 Y59.415 E3.35259
G1 X133.581 Y60.427 E3.41077
G1 X134.469 Y61.956 E3.48795
G1 X135.222 Y63.932 E3.58027
G1 X135.393 Y65.431 E3.64613
G1 X135.424 Y74.856 E4.05757
G1 X192.118 Y74.89 E6.53248
G1 X193.802 Y75.13 E6.60674
G1 X194.674 Y75.377 E6.6463
G1 X195.833 Y75.811 E6.70033
G1 X197.354 Y76.702 E6.77728
G1 X198.812 Y77.95 E6.86106
G1 X200.013 Y79.526 E6.94756
G1 X200.572 Y80.514 E6.99711
G1 X201.126 Y81.892 E7.06195
G1 X201.501 Y83.437 E7.13135
G1 X201.6 Y84.304 E7.16945
G1 X201.63 Y167.475 E10.80019
G1 X201.316 Y169.395 E10.88512
G1 X200.624 Y171.166 E10.96812
G1 X199.817 Y172.687 E11.04328
G1 X198.408 Y174.186 E11.13309
G1 X197.112 Y175.27 E11.20685
G1 X195.343 Y176.163 E11.29335
G1 X194.394 Y176.504 E11.33737
G1 X189.294 Y177.877 E11.56794
G1 X184.243 Y179.184 E11.79569
G1 X181.734 Y179.813 E11.90861
G1 X178.043 Y180.712 E12.07445
G1 X174.418 Y181.565 E12.23702
G1 X172.014 Y182.112 E12.34464
G1 X167.31 Y183.136 E12.5548
G1 X164.975 Y183.624 E12.65893
G1 X160.43 Y184.528 E12.86123
G1 X158.172 Y184.955 E12.96155
G1 X153.736 Y185.74 E13.1582
G1 X149.42 Y186.444 E13.3491
G1 X147.271 Y186.771 E13.444
G1 X143.065 Y187.357 E13.62938
G1 X138.954 Y187.863 E13.81019
G1 X134.934 Y188.29 E13.98667
G1 X130.997 Y188.638 E14.1592
G1 X129.052 Y188.778 E14.24433
G1 X127.133 Y188.897 E14.32826
G1 X123.35 Y189.089 E14.49362
G1 X121.452 Y189.151 E14.57652
G1 X119.062 Y189.2 E14.68087
G1 X116.687 Y189.217 E14.78455
G1 X115.141 Y189.21 E14.85204
G1 X113.588 Y189.189 E14.91984
G1 X111.999 Y189.153 E14.98923
G1 X108.952 Y189.024 E15.12236
G1 X107.323 Y188.937 E15.19357
G1 X104.195 Y188.704 E15.3305
G1 X102.952 Y188.587 E15.385
G1 X100.488 Y188.329 E15.49316
G1 X98.14 Y188.032 E15.59647
G1 X96.914 Y187.856 E15.65054
G1 X94.629 Y187.492 E15.75155
G1 X93.427 Y187.284 E15.8048
G1 X91.144 Y186.844 E15.90629
G1 X88.943 Y186.367 E16.00461
G1 X87.799 Y186.101 E16.05588
G1 X85.631 Y185.557 E16.15346
G1 X84.506 Y185.251 E16.20435
G1 X82.401 Y184.63 E16.30016
G1 X80.273 Y183.953 E16.39764
G1 X78.236 Y183.243 E16.49181
G1 X77.199 Y182.859 E16.54008
G1 X76.165 Y182.458 E16.5885
G1 X74.204 Y181.66 E16.68092
G1 X73.186 Y181.222 E16.7293
G1 X71.228 Y180.327 E16.82328
G1 X69.34 Y179.403 E16.91504
G1 X68.37 Y178.902 E16.9627
G1 X65.774 Y177.497 E17.09156
G1 X64.467 Y176.67 E17.15907
G1 X62.946 Y175.208 E17.25117
G1 X61.876 Y173.549 E17.33735
G1 X61.241 Y172.306 E17.39828
G1 X60.793 Y170.489 E17.47998
G1 X60.624 Y169.029 E17.54414
G1 X60.615 Y119.072 E19.72496
G1 X60.585 Y118.673 E19.74242
G1 X60.475 Y118.23 E19.76235
G1 X60.237 Y117.736 E19.78629
G1 X59.801 Y117.014 E19.82311
G1 X59.184 Y116.266 E19.86543
G1 X58.553 Y115.6 E19.90548
G1 X57.927 Y114.987 E19.94373
G1 X57.117 Y114.26 E19.99124
G1 X56.304 Y113.59 E20.03723
G1 X55.667 Y113.092 E20.07253
G1 X54.918 Y112.523 E20.11359
G1 X53.74 Y111.67 E20.17708
G1 X52.238 Y110.638 E20.25664
G1 X51.508 Y110.152 E20.29492
G1 X49.882 Y109.101 E20.37944
G1 X48.147 Y108.015 E20.46879
G1 X46.328 Y106.907 E20.56177
G1 X44.279 Y105.686 E20.66589
G1 X37.856 Y101.924 E20.99084
G1 X36.484 Y100.919 E21.06508
G1 X35.142 Y99.277 E21.15765
G1 X34.226 Y97.637 E21.23966
G1 X33.668 Y96.037 E21.31363
G1 X33.385 Y94.343 E21.3886
G1 X33.387 Y92.587 E21.46526
G1 X33.617 Y91.305 E21.52212
G1 X34.155 Y89.61 E21.59975
G1 X34.532 Y88.8 E21.63875
G1 X59.691 Y45.223 E23.83534
G1 X60.451 Y44.194 E23.89119
G0 F4200 X60.843 Y44.547
G1 F3600 X62.184 Y43.28 E23.97172
G1 X63.809 Y42.268 E24.05529
G1 X65.641 Y41.596 E24.14048
G1 X67.272 Y41.322 E24.21267
G1 X68.921 Y41.323 E24.28466
G1 X70.618 Y41.629 E24.35993
G1 X72.314 Y42.268 E24.43905
G1 X76.155 Y44.477 E24.63248
G1 X77.534 Y45.239 E24.70126
G1 X78.873 Y45.95 E24.76744
G1 X80.147 Y46.594 E24.82975
G1 X80.808 Y46.917 E24.86187
G1 X82.152 Y47.553 E24.92678
G1 X83.384 Y48.107 E24.98575
G1 X84.66 Y48.655 E25.04637
G1 X85.914 Y49.163 E25.10543
G1 X87.193 Y49.657 E25.16529
G1 X88.359 Y50.084 E25.21949
G1 X89.579 Y50.505 E25.27583
G1 X90.748 Y50.883 E25.32947
G1 X91.988 Y51.266 E25.38612
G1 X93.136 Y51.596 E25.43826
G1 X94.295 Y51.91 E25.49068
G1 X95.48 Y52.213 E25.54408
G1 X96.696 Y52.504 E25.59866
G1 X99.054 Y53.018 E25.70401
G1 X101.272 Y53.433 E25.80252
G1 X103.642 Y53.828 E25.9074
G1 X104.695 Y53.988 E25.9539
G1 X107.008 Y54.309 E26.05584
G1 X109.334 Y54.598 E26.15816
G1 X119.033 Y55.711 E26.58434
G1 X121.873 Y56.078 E26.70934
G1 X123.017 Y56.235 E26.75975
G1 X127.329 Y56.916 E26.95032
G1 X128.766 Y57.352 E27.01588
G1 X130.089 Y57.944 E27.07915
G1 X131.484 Y58.964 E27.15459
G1 X132.315 Y59.757 E27.20473
G1 X133.152 Y60.734 E27.26089
G1 X133.993 Y62.182 E27.33399
G1 X134.708 Y64.058 E27.42163
G1 X134.871 Y65.49 E27.48455
G1 X134.901 Y75.381 E27.91633
G1 X192.046 Y75.41 E30.41094
G1 X193.66 Y75.635 E30.48207
G1 X194.49 Y75.869 E30.51972
G1 X195.609 Y76.288 E30.57188
G1 X197.048 Y77.131 E30.64468
G1 X198.427 Y78.311 E30.72391
G1 X199.595 Y79.844 E30.80805
G1 X200.086 Y80.712 E30.85158
G1 X200.616 Y82.017 E30.91307
G1 X200.979 Y83.497 E30.97959
G1 X201.078 Y84.364 E31.01768
G1 X201.105 Y167.433 E34.64397
G1 X200.807 Y169.257 E34.72465
G1 X200.16 Y170.92 E34.80255
G1 X199.386 Y172.379 E34.87465
G1 X198.071 Y173.783 E34.95862
G1 X196.822 Y174.828 E35.02971
G1 X195.106 Y175.694 E35.11362
G1 X194.258 Y175.997 E35.15293
G1 X189.162 Y177.369 E35.38332
G1 X184.115 Y178.675 E35.61089
G1 X181.61 Y179.303 E35.72363
G1 X177.923 Y180.201 E35.88929
G1 X174.301 Y181.053 E36.05172
G1 X171.902 Y181.599 E36.15912
G1 X167.203 Y182.622 E36.36906
G1 X164.873 Y183.109 E36.47297
G1 X160.332 Y184.012 E36.67508
G1 X158.08 Y184.438 E36.77513
G1 X153.651 Y185.222 E36.97148
G1 X149.341 Y185.925 E37.16212
G1 X147.199 Y186.251 E37.2567
G1 X143.001 Y186.836 E37.44173
G1 X138.899 Y187.341 E37.62215
G1 X134.888 Y187.767 E37.79823
G1 X130.959 Y188.114 E37.97042
G1 X129.019 Y188.254 E38.05533
G1 X127.106 Y188.373 E38.139
G1 X123.333 Y188.564 E38.30391
G1 X121.441 Y188.626 E38.38655
G1 X119.058 Y188.675 E38.4906
G1 X116.689 Y188.692 E38.59402
G1 X115.148 Y188.685 E38.66129
G1 X113.6 Y188.664 E38.72887
G1 X112.021 Y188.628 E38.79782
G1 X108.98 Y188.5 E38.93069
G1 X107.362 Y188.413 E39.00142
G1 X104.244 Y188.181 E39.13791
G1 X103.007 Y188.065 E39.19215
G1 X100.554 Y187.808 E39.29982
G1 X98.214 Y187.512 E39.40278
G1 X96.997 Y187.338 E39.45645
G1 X94.718 Y186.975 E39.55719
G1 X93.526 Y186.769 E39.61
G1 X91.255 Y186.331 E39.71096
G1 X89.062 Y185.856 E39.80892
G1 X87.927 Y185.592 E39.85979
G1 X85.769 Y185.05 E39.95692
G1 X84.655 Y184.747 E40.00731
G1 X82.55 Y184.126 E40.10312
G1 X80.446 Y183.457 E40.1995
G1 X78.418 Y182.751 E40.29324
G1 X77.389 Y182.37 E40.34114
G1 X76.363 Y181.972 E40.38918
G1 X74.411 Y181.178 E40.48118
G1 X73.404 Y180.745 E40.52903
G1 X71.459 Y179.855 E40.6224
G1 X69.581 Y178.936 E40.71367
G1 X68.62 Y178.44 E40.76088
G1 X66.024 Y177.035 E40.88974
G1 X64.796 Y176.257 E40.9532
G1 X63.353 Y174.87 E41.04057
G1 X62.344 Y173.31 E41.12168
G1 X61.735 Y172.118 E41.18011
G1 X61.315 Y170.429 E41.25609
G1 X61.146 Y168.969 E41.32025
G1 X61.14 Y119.046 E43.49958
G1 X61.106 Y118.594 E43.51937
G1 X60.971 Y118.051 E43.5438
G1 X60.698 Y117.483 E43.57131
G1 X60.362 Y116.927 E43.59967
G1 X60.072 Y116.518 E43.62155
G1 X59.578 Y115.919 E43.65545
G1 X58.934 Y115.239 E43.69633
G1 X58.278 Y114.596 E43.73643
G1 X57.468 Y113.869 E43.78394
G1 X56.627 Y113.176 E43.83152
G1 X55.99 Y112.678 E43.86681
G1 X55.226 Y112.098 E43.90869
G1 X54.037 Y111.237 E43.97277
G1 X52.535 Y110.205 E44.05232
G1 X51.799 Y109.715 E44.09092
G1 X50.167 Y108.66 E44.17575
G1 X48.425 Y107.57 E44.26546
G1 X46.597 Y106.456 E44.35891
G1 X44.548 Y105.235 E44.46303
G1 X38.166 Y101.5 E44.78584
G1 X36.846 Y100.533 E44.85727
G1 X35.578 Y98.982 E44.94472
G1 X34.708 Y97.424 E45.02262
G1 X34.178 Y95.905 E45.09285
G1 X33.91 Y94.299 E45.16393
G1 X33.912 Y92.636 E45.23653
G1 X34.134 Y91.398 E45.29143
G1 X34.631 Y89.832 E45.36315
G1 X35.008 Y89.022 E45.40216
G1 X60.113 Y45.535 E47.59417
G1 X60.843 Y44.547 E47.64779
G0 F4200 X61.235 Y44.9
G1 F3600 X62.507 Y43.698 E47.72419
G1 X64.042 Y42.742 E47.80313
G1 X65.776 Y42.106 E47.88376
G1 X67.317 Y41.847 E47.95197
G1 X68.872 Y41.848 E48.01985
G1 X70.481 Y42.138 E48.09123
G1 X72.087 Y42.743 E48.16614
G1 X75.901 Y44.937 E48.35822
G1 X77.28 Y45.699 E48.427
G1 X78.636 Y46.419 E48.49402
G1 X79.916 Y47.066 E48.55663
G1 X80.583 Y47.392 E48.58904
G1 X81.927 Y48.028 E48.65395
G1 X83.177 Y48.59 E48.71378
G1 X84.453 Y49.137 E48.77438
G1 X85.725 Y49.653 E48.8343
G1 X87.012 Y50.15 E48.89453
G1 X88.178 Y50.577 E48.94874
G1 X89.417 Y51.005 E49.00596
G1 X90.586 Y51.383 E49.05959
G1 X91.843 Y51.771 E49.11702
G1 X92.991 Y52.101 E49.16917
G1 X94.165 Y52.419 E49.22226
G1 X95.358 Y52.724 E49.27602
G1 X96.574 Y53.015 E49.3306
G1 X98.942 Y53.531 E49.4364
G1 X100.051 Y53.745 E49.4857
G1 X101.178 Y53.95 E49.53571
G1 X103.556 Y54.346 E49.64095
G1 X104.623 Y54.508 E49.68806
G1 X106.943 Y54.83 E49.79031
G1 X109.274 Y55.12 E49.89285
G1 X118.966 Y56.232 E50.31872
G1 X121.801 Y56.598 E50.4435
G1 X122.935 Y56.754 E50.49347
G1 X127.247 Y57.435 E50.68404
G1 X128.551 Y57.831 E50.74353
G1 X129.822 Y58.4 E50.80432
G1 X131.122 Y59.345 E50.87448
G1 X131.916 Y60.099 E50.92228
G1 X132.723 Y61.041 E50.97643
G1 X133.517 Y62.408 E51.04544
G1 X134.193 Y64.183 E51.12836
G1 X134.349 Y65.55 E51.18842
G1 X134.377 Y75.906 E51.6405
G1 X191.975 Y75.93 E54.15488
G1 X193.519 Y76.141 E54.22291
G1 X194.306 Y76.361 E54.25858
G1 X195.385 Y76.765 E54.30888
G1 X196.742 Y77.56 E54.37753
G1 X198.042 Y78.672 E54.45221
G1 X199.177 Y80.162 E54.53398
G1 X199.6 Y80.911 E54.57153
G1 X200.106 Y82.144 E54.62971
G1 X200.457 Y83.557 E54.69327
G1 X200.556 Y84.424 E54.73136
G1 X200.58 Y167.391 E58.3532
G1 X200.298 Y169.117 E58.42954
G1 X199.696 Y170.674 E58.50242
G1 X198.955 Y172.072 E58.57149
G1 X197.734 Y173.38 E58.6496
G1 X196.53 Y174.387 E58.71812
G1 X194.928 Y175.2 E58.79654
G1 X194.121 Y175.49 E58.83398
G1 X189.031 Y176.861 E59.06409
G1 X183.987 Y178.166 E59.29153
G1 X181.486 Y178.793 E59.40409
G1 X177.803 Y179.69 E59.56957
G1 X174.185 Y180.541 E59.73182
G1 X171.79 Y181.086 E59.83904
G1 X167.096 Y182.108 E60.04875
G1 X164.771 Y182.594 E60.15244
G1 X160.234 Y183.496 E60.35438
G1 X157.988 Y183.921 E60.45416
G1 X153.566 Y184.704 E60.65021
G1 X149.262 Y185.406 E60.84057
G1 X147.127 Y185.731 E60.93485
G1 X142.937 Y186.315 E61.11953
G1 X138.844 Y186.819 E61.29955
G1 X134.842 Y187.244 E61.47524
G1 X130.921 Y187.59 E61.64707
G1 X128.986 Y187.73 E61.73176
G1 X127.08 Y187.849 E61.81513
G1 X123.316 Y188.039 E61.97965
G1 X121.43 Y188.101 E62.06203
G1 X119.054 Y188.15 E62.16577
G1 X116.691 Y188.167 E62.26893
G1 X115.155 Y188.16 E62.33598
G1 X113.612 Y188.139 E62.40334
G1 X112.043 Y188.103 E62.47185
G1 X109.008 Y187.976 E62.60446
G1 X107.401 Y187.889 E62.67472
G1 X104.293 Y187.658 E62.81077
G1 X103.062 Y187.543 E62.86474
G1 X100.62 Y187.287 E62.97192
G1 X98.288 Y186.992 E63.07454
G1 X97.08 Y186.82 E63.1278
G1 X94.807 Y186.458 E63.22828
G1 X93.625 Y186.254 E63.28064
G1 X91.366 Y185.818 E63.38107
G1 X89.181 Y185.345 E63.47867
G1 X88.055 Y185.083 E63.52914
G1 X85.907 Y184.544 E63.62581
G1 X84.804 Y184.243 E63.67572
G1 X82.699 Y183.622 E63.77153
G1 X80.618 Y182.961 E63.86685
G1 X78.6 Y182.259 E63.96012
G1 X77.579 Y181.881 E64.00764
G1 X76.561 Y181.486 E64.05531
G1 X74.618 Y180.696 E64.14687
G1 X73.622 Y180.268 E64.1942
G1 X71.69 Y179.384 E64.28695
G1 X69.822 Y178.469 E64.37775
G1 X68.87 Y177.978 E64.42451
G1 X66.274 Y176.573 E64.55337
G1 X65.122 Y175.843 E64.6129
G1 X63.761 Y174.534 E64.69534
G1 X62.812 Y173.071 E64.77146
G1 X62.229 Y171.93 E64.8274
G1 X61.837 Y170.369 E64.89766
G1 X61.668 Y168.909 E64.96182
G1 X61.665 Y119.02 E67.13967
G1 X61.627 Y118.515 E67.16178
G1 X61.467 Y117.872 E67.1907
G1 X61.157 Y117.227 E67.22194
G1 X60.804 Y116.642 E67.25177
G1 X60.489 Y116.199 E67.2755
G1 X59.972 Y115.572 E67.31097
G1 X59.302 Y114.864 E67.35353
G1 X58.637 Y114.212 E67.39418
G1 X57.819 Y113.478 E67.44216
G1 X56.95 Y112.762 E67.49131
G1 X56.313 Y112.264 E67.52661
G1 X55.544 Y111.68 E67.56876
G1 X54.334 Y110.804 E67.63397
G1 X52.832 Y109.772 E67.71352
G1 X52.09 Y109.278 E67.75244
G1 X50.452 Y108.219 E67.83759
G1 X48.704 Y107.125 E67.92761
G1 X46.866 Y106.005 E68.02156
G1 X44.817 Y104.784 E68.12569
G1 X38.476 Y101.076 E68.44635
G1 X37.21 Y100.149 E68.51485
G1 X36.012 Y98.683 E68.5975
G1 X35.19 Y97.211 E68.6711
G1 X34.689 Y95.774 E68.73753
G1 X34.435 Y94.254 E68.8048
G1 X34.437 Y92.685 E68.8733
G1 X34.651 Y91.491 E68.92625
G1 X35.107 Y90.054 E68.99206
G1 X35.484 Y89.244 E69.03107
G1 X60.535 Y45.847 E71.21849
G1 X61.235 Y44.9 E71.2699
G0 F4200 X61.626 Y45.254
G1 F3600 X62.83 Y44.116 E71.34222
G1 X64.275 Y43.216 E71.41654
G1 X65.911 Y42.616 E71.49261
G1 X67.362 Y42.372 E71.55684
G1 X68.823 Y42.373 E71.62062
G1 X70.344 Y42.647 E71.68808
G1 X71.86 Y43.218 E71.7588
G1 X75.647 Y45.397 E71.94953
G1 X77.026 Y46.159 E72.01831
G1 X78.399 Y46.888 E72.08617
G1 X79.685 Y47.538 E72.14907
G1 X80.358 Y47.867 E72.18178
G1 X81.702 Y48.503 E72.24668
G1 X82.97 Y49.073 E72.30737
G1 X84.246 Y49.62 E72.36798
G1 X85.528 Y50.14 E72.42837
G1 X86.831 Y50.643 E72.48934
G1 X87.997 Y51.07 E72.54355
G1 X89.255 Y51.505 E72.60166
G1 X90.424 Y51.883 E72.65529
G1 X91.698 Y52.276 E72.71349
G1 X92.846 Y52.606 E72.76563
G1 X94.035 Y52.928 E72.81941
G1 X95.236 Y53.235 E72.87352
G1 X96.452 Y53.526 E72.9281
G1 X98.83 Y54.044 E73.03435
G1 X99.957 Y54.262 E73.08446
G1 X101.084 Y54.467 E73.13446
G1 X103.47 Y54.864 E73.24005
G1 X104.551 Y55.028 E73.28778
G1 X106.878 Y55.351 E73.39034
G1 X109.214 Y55.642 E73.4931
G1 X118.899 Y56.753 E73.91866
G1 X121.729 Y57.118 E74.04323
G1 X122.853 Y57.273 E74.09276
G1 X127.165 Y57.954 E74.28333
G1 X128.336 Y58.31 E74.33676
G1 X129.557 Y58.857 E74.39516
G1 X130.761 Y59.726 E74.45998
G1 X131.517 Y60.441 E74.50541
G1 X132.294 Y61.348 E74.55754
G1 X133.041 Y62.634 E74.62247
G1 X133.679 Y64.309 E74.70071
G1 X133.827 Y65.609 E74.75783
G1 X133.853 Y76.431 E75.23025
G1 X191.905 Y76.45 E77.76445
G1 X193.379 Y76.647 E77.82937
G1 X194.122 Y76.853 E77.86303
G1 X195.161 Y77.242 E77.91146
G1 X196.436 Y77.989 E77.97597
G1 X197.658 Y79.034 E78.04616
G1 X198.721 Y80.422 E78.12248
G1 X199.115 Y81.113 E78.1572
