;FLAVOR:Marlin
;TIME:16968
;Filament used: 19.9387m
;Layer height: 0.2
;MINX:33.369
;MINY:40.797
;MINZ:0.2
;MAXX:201.619
;MAXY:189.217
;MAXZ:3.4
;TARGET_MACHINE.NAME:ELEGOO NEPTUNE 4 Pro
;Generated with Cura_SteamEngine 5.7.2
M104 S260
M105
M109 S260
M82 ;absolute extrusion mode
;ELEGOO NEPTUNE 4 / 4 PRO
M220 S100 ;Set the feed speed to 100%
M221 S100 ;Set the flow rate to 100%
M104 S140 ;Start heating extruder
M190 S70 ;Wait for the bed to reach print temp
G90
G28 ;home
G1 Z10 F300
G1 X67.5 Y0 F6000
G1 Z0 F300
M109 S260 ;Wait for extruder to reach print temp
G92 E0 ;Reset Extruder
G1 X67.5 Y0 Z0.4 F300 ;Move to start position
G1 X167.5 E30 F400 ;Draw the first line
G1 Z0.6 F120.0 ;Move to side a little
G1 X162.5 F3000
G92 E0 ;Reset Extruder
G92 E0
G92 E0
G1 F2700 E-0.5
;LAYER_COUNT:17
;LAYER:0
M107
M204 S500
G0 F4200 X39.12 Y75.831 Z0.2
;TYPE:SKIRT
G1 F2700 E0
G1 F3600 X40.744 Y75.22 E0.07575
G1 X42.604 Y74.862 E0.15843
G1 X99.575 Y74.856 E2.64544
G1 X99.606 Y65.445 E3.05627
G1 X99.775 Y63.936 E3.12255
G1 X100.574 Y61.865 E3.21946
G1 X101.433 Y60.419 E3.29288
G1 X102.647 Y59.006 E3.3742
G1 X103.934 Y57.948 E3.44693
G1 X105.89 Y56.83 E3.54528
G1 X107.897 Y56.331 E3.63556
G1 X111.795 Y55.737 E3.80769
G1 X114.678 Y55.346 E3.9347
G1 X116.928 Y55.066 E4.03368
G1 X125.569 Y54.081 E4.41333
G1 X127.925 Y53.787 E4.51698
G1 X130.105 Y53.485 E4.61305
G1 X132.534 Y53.109 E4.72035
G1 X133.574 Y52.931 E4.76641
G1 X134.723 Y52.721 E4.8174
G1 X135.876 Y52.494 E4.8687
G1 X137.095 Y52.239 E4.92307
G1 X138.165 Y51.996 E4.97096
G1 X139.406 Y51.699 E5.02667
G1 X140.466 Y51.43 E5.07441
G1 X141.749 Y51.085 E5.13241
G1 X142.838 Y50.77 E5.18189
G1 X144.116 Y50.377 E5.24026
G1 X145.221 Y50.019 E5.29097
G1 X146.475 Y49.585 E5.3489
G1 X147.652 Y49.154 E5.40361
G1 X148.959 Y48.649 E5.46478
G1 X150.093 Y48.185 E5.51827
G1 X151.45 Y47.604 E5.58271
G1 X152.714 Y47.034 E5.64324
G1 X153.987 Y46.435 E5.70465
G1 X154.628 Y46.123 E5.73577
G1 X155.88 Y45.485 E5.79712
G1 X157.222 Y44.772 E5.86345
G1 X158.616 Y44.004 E5.93293
G1 X162.504 Y41.773 E6.12862
G1 X164.227 Y41.123 E6.20901
G1 X166.098 Y40.797 E6.29191
G1 X167.921 Y40.804 E6.37149
G1 X169.667 Y41.138 E6.4491
G1 X171.425 Y41.798 E6.53107
G1 X173.139 Y42.869 E6.6193
G1 X174.606 Y44.257 E6.70746
G1 X175.538 Y45.565 E6.77757
G1 X200.58 Y89.018 E8.96692
G1 X201.058 Y90.082 E9.01784
G1 X201.528 Y91.86 E9.09812
G1 X201.619 Y93.258 E9.15928
G1 X201.507 Y94.983 E9.23474
G1 X201.21 Y96.361 E9.29628
G1 X200.774 Y97.635 E9.35506
G1 X199.846 Y99.294 E9.43804
G1 X198.719 Y100.65 E9.51501
G1 X197.212 Y101.921 E9.60107
G1 X192.835 Y104.447 E9.82168
G1 X190.7 Y105.699 E9.92973
G1 X188.668 Y106.909 E10.03297
G1 X186.855 Y108.015 E10.12568
G1 X185.047 Y109.148 E10.21882
G1 X183.513 Y110.141 E10.29859
G1 X181.954 Y111.19 E10.38062
G1 X180.697 Y112.074 E10.4477
G1 X179.29 Y113.122 E10.52429
G1 X178.717 Y113.573 E10.55612
G1 X177.991 Y114.172 E10.59721
G1 X177.102 Y114.966 E10.64924
G1 X176.444 Y115.594 E10.68895
G1 X176.036 Y116.028 E10.71496
G1 X175.387 Y116.777 E10.75822
G1 X174.865 Y117.518 E10.79779
G1 X174.553 Y118.17 E10.82934
G1 X174.444 Y118.539 E10.84614
G1 X174.384 Y119.059 E10.86899
G1 X174.384 Y169.719 E13.0805
G1 X173.885 Y171.784 E13.17324
G1 X173.593 Y172.575 E13.21004
G1 X172.818 Y174.064 E13.28332
G1 X172.024 Y175.234 E13.34505
G1 X170.53 Y176.685 E13.43596
G1 X169.24 Y177.488 E13.5023
G1 X166.514 Y178.96 E13.63754
G1 X165.573 Y179.442 E13.68369
G1 X164.622 Y179.914 E13.73004
G1 X163.661 Y180.375 E13.77657
G1 X162.689 Y180.825 E13.82332
G1 X161.705 Y181.265 E13.87038
G1 X160.688 Y181.703 E13.91872
G1 X158.726 Y182.504 E14.01123
G1 X157.668 Y182.911 E14.06071
G1 X155.653 Y183.635 E14.15418
G1 X154.578 Y183.999 E14.20373
G1 X152.477 Y184.669 E14.3
G1 X150.365 Y185.285 E14.39603
G1 X149.251 Y185.584 E14.44639
G1 X147.06 Y186.136 E14.54502
G1 X144.881 Y186.632 E14.64258
G1 X143.706 Y186.879 E14.69499
G1 X141.477 Y187.302 E14.79403
G1 X140.274 Y187.515 E14.84736
G1 X137.951 Y187.875 E14.94998
G1 X135.626 Y188.191 E15.05241
G1 X134.418 Y188.341 E15.10555
G1 X133.141 Y188.482 E15.16163
G1 X130.738 Y188.704 E15.26698
G1 X129.153 Y188.835 E15.33641
G1 X127.58 Y188.937 E15.40522
G1 X124.466 Y189.101 E15.54135
G1 X122.905 Y189.153 E15.60953
G1 X121.349 Y189.189 E15.67747
G1 X119.8 Y189.21 E15.7451
G1 X118.241 Y189.217 E15.81316
G1 X115.855 Y189.2 E15.91732
G1 X113.439 Y189.15 E16.02281
G1 X109.706 Y188.997 E16.1859
G1 X107.807 Y188.897 E16.26892
G1 X105.865 Y188.772 E16.35387
G1 X101.97 Y188.468 E16.52442
G1 X97.984 Y188.08 E16.69925
G1 X93.929 Y187.613 E16.87743
G1 X89.775 Y187.067 E17.06033
G1 X87.665 Y186.76 E17.15341
G1 X85.54 Y186.438 E17.24723
G1 X83.376 Y186.095 E17.34288
G1 X79.001 Y185.351 E17.53661
G1 X76.764 Y184.944 E17.63586
G1 X72.263 Y184.08 E17.83594
G1 X69.957 Y183.612 E17.93866
G1 X65.303 Y182.627 E18.14632
G1 X62.934 Y182.101 E18.25226
G1 X59.345 Y181.279 E18.41299
G1 X57.15 Y180.759 E18.51146
G1 X53.219 Y179.801 E18.68809
G1 X50.72 Y179.172 E18.80058
G1 X45.649 Y177.866 E19.02917
G1 X40.602 Y176.5 E19.25742
G1 X39.07 Y175.898 E19.32928
G1 X37.829 Y175.223 E19.39095
G1 X36.38 Y173.984 E19.47417
G1 X35.136 Y172.631 E19.55441
G1 X34.056 Y170.433 E19.66132
G1 X33.629 Y169.183 E19.71898
G1 X33.369 Y167.04 E19.81322
G1 X33.423 Y84.066 E23.43536
G1 X33.618 Y82.828 E23.49007
G1 X34.048 Y81.388 E23.55567
G1 X34.529 Y80.318 E23.60688
G1 X35.212 Y79.143 E23.66621
G1 X36.356 Y77.786 E23.74369
G1 X37.66 Y76.688 E23.81811
G1 X39.12 Y75.831 E23.89201
G0 F4200 X39.35 Y76.305
G1 F3600 X40.883 Y75.728 E23.96352
G1 X42.656 Y75.387 E24.04234
G1 X100.098 Y75.381 E26.5499
G1 X100.128 Y65.504 E26.98108
G1 X100.29 Y64.061 E27.04447
G1 X101.049 Y62.092 E27.13658
G1 X101.86 Y60.727 E27.2059
G1 X103.014 Y59.384 E27.28319
G1 X104.232 Y58.383 E27.35202
G1 X106.09 Y57.321 E27.44544
G1 X107.976 Y56.85 E27.5303
G1 X111.865 Y56.257 E27.70203
G1 X114.743 Y55.867 E27.82882
G1 X116.987 Y55.588 E27.92753
G1 X125.628 Y54.603 E28.30719
G1 X127.99 Y54.308 E28.4111
G1 X130.185 Y54.004 E28.50783
G1 X132.614 Y53.628 E28.61513
G1 X133.671 Y53.447 E28.66195
G1 X134.824 Y53.236 E28.71311
G1 X135.983 Y53.008 E28.76468
G1 X137.202 Y52.753 E28.81905
G1 X138.287 Y52.507 E28.86761
G1 X139.528 Y52.21 E28.92332
G1 X140.603 Y51.937 E28.97173
G1 X141.886 Y51.591 E29.02974
G1 X142.992 Y51.272 E29.07999
G1 X144.27 Y50.879 E29.13836
G1 X145.393 Y50.515 E29.18989
G1 X146.656 Y50.078 E29.24824
G1 X147.833 Y49.647 E29.30295
G1 X149.148 Y49.139 E29.36449
G1 X150.3 Y48.668 E29.41882
G1 X151.657 Y48.087 E29.48326
G1 X152.93 Y47.513 E29.54422
G1 X154.211 Y46.91 E29.60603
G1 X154.858 Y46.595 E29.63744
G1 X156.118 Y45.953 E29.69917
G1 X157.468 Y45.236 E29.7659
G1 X158.869 Y44.464 E29.83573
G1 X162.728 Y42.249 E30.02997
G1 X164.365 Y41.632 E30.10634
G1 X166.141 Y41.322 E30.18504
G1 X167.868 Y41.329 E30.26043
G1 X169.525 Y41.646 E30.33408
G1 X171.194 Y42.272 E30.41189
G1 X172.816 Y43.286 E30.4954
G1 X174.206 Y44.601 E30.57893
G1 X175.11 Y45.87 E30.64694
G1 X200.101 Y89.233 E32.83178
G1 X200.561 Y90.256 E32.88074
G1 X201.007 Y91.946 E32.95704
G1 X201.095 Y93.226 E33.01305
G1 X200.993 Y94.874 E33.08513
G1 X200.713 Y96.191 E33.14391
G1 X200.291 Y97.423 E33.20076
G1 X199.414 Y98.992 E33.27923
G1 X198.341 Y100.283 E33.35251
G1 X196.914 Y101.486 E33.43398
G1 X192.572 Y103.993 E33.65286
G1 X190.431 Y105.248 E33.76119
G1 X188.399 Y106.458 E33.86443
G1 X186.576 Y107.57 E33.95765
G1 X184.768 Y108.703 E34.05079
G1 X183.22 Y109.705 E34.13129
G1 X181.661 Y110.754 E34.21332
G1 X180.383 Y111.653 E34.28153
G1 X178.965 Y112.709 E34.35871
G1 X178.392 Y113.16 E34.39054
G1 X177.641 Y113.78 E34.43306
G1 X176.752 Y114.574 E34.48509
G1 X176.07 Y115.226 E34.52628
G1 X175.639 Y115.684 E34.55373
G1 X174.977 Y116.448 E34.59786
G1 X174.409 Y117.254 E34.64091
G1 X174.061 Y117.982 E34.67613
G1 X173.929 Y118.43 E34.69652
G1 X173.859 Y119.032 E34.72298
G1 X173.859 Y169.658 E36.933
G1 X173.392 Y171.602 E37.02028
G1 X173.1 Y172.393 E37.05709
G1 X172.384 Y173.769 E37.1248
G1 X171.622 Y174.892 E37.18404
G1 X170.205 Y176.268 E37.27027
G1 X168.962 Y177.042 E37.33419
G1 X166.274 Y178.493 E37.46753
G1 X165.34 Y178.972 E37.51336
G1 X164.395 Y179.441 E37.55941
G1 X163.441 Y179.899 E37.60561
G1 X162.475 Y180.346 E37.65207
G1 X161.498 Y180.783 E37.69879
G1 X160.489 Y181.217 E37.74674
G1 X158.538 Y182.014 E37.83874
G1 X157.49 Y182.417 E37.88776
G1 X155.484 Y183.138 E37.98081
G1 X154.419 Y183.499 E38.0299
G1 X152.33 Y184.165 E38.12562
G1 X150.229 Y184.778 E38.22116
G1 X149.123 Y185.075 E38.27115
G1 X146.944 Y185.624 E38.36925
G1 X144.773 Y186.118 E38.46644
G1 X143.608 Y186.363 E38.51841
G1 X141.385 Y186.785 E38.61719
G1 X140.194 Y186.996 E38.66999
G1 X137.88 Y187.355 E38.77221
G1 X135.561 Y187.67 E38.87437
G1 X134.36 Y187.819 E38.9272
G1 X133.093 Y187.959 E38.98285
G1 X130.695 Y188.181 E39.08798
G1 X129.119 Y188.311 E39.15701
G1 X127.552 Y188.413 E39.22556
G1 X124.448 Y188.576 E39.36125
G1 X122.893 Y188.628 E39.42917
G1 X121.342 Y188.664 E39.4969
G1 X119.798 Y188.685 E39.5643
G1 X118.245 Y188.692 E39.6321
G1 X115.866 Y188.675 E39.73596
G1 X113.46 Y188.625 E39.84101
G1 X109.734 Y188.473 E40.0038
G1 X107.841 Y188.373 E40.08655
G1 X105.906 Y188.249 E40.17119
G1 X102.021 Y187.945 E40.34131
G1 X98.044 Y187.558 E40.51574
G1 X93.997 Y187.092 E40.69358
G1 X89.85 Y186.547 E40.87616
G1 X87.744 Y186.241 E40.96907
G1 X85.622 Y185.919 E41.06276
G1 X83.464 Y185.577 E41.15814
G1 X79.095 Y184.834 E41.3516
G1 X76.863 Y184.428 E41.45064
G1 X72.367 Y183.565 E41.65049
G1 X70.066 Y183.098 E41.75298
G1 X65.417 Y182.115 E41.96042
G1 X63.051 Y181.589 E42.06622
G1 X59.466 Y180.768 E42.22678
G1 X57.274 Y180.249 E42.32511
G1 X53.347 Y179.292 E42.50156
G1 X50.851 Y178.664 E42.61391
G1 X45.786 Y177.359 E42.84224
G1 X40.739 Y175.993 E43.07049
G1 X39.263 Y175.41 E43.13977
G1 X38.13 Y174.789 E43.19617
G1 X36.721 Y173.585 E43.27707
G1 X35.576 Y172.334 E43.35111
G1 X34.553 Y170.263 E43.45194
G1 X34.143 Y169.064 E43.50726
G1 X33.894 Y167.04 E43.59628
G1 X33.942 Y84.148 E47.21484
G1 X34.137 Y82.91 E47.26955
G1 X34.527 Y81.602 E47.32914
G1 X34.983 Y80.582 E47.37791
G1 X35.645 Y79.443 E47.43542
G1 X36.725 Y78.162 E47.50856
G1 X37.964 Y77.119 E47.57926
G1 X39.35 Y76.305 E47.64943
G0 F4200 X39.58 Y76.779
G1 F3600 X41.022 Y76.236 E47.71669
G1 X42.708 Y75.912 E47.79164
G1 X100.622 Y75.906 E50.31981
G1 X100.65 Y65.562 E50.77137
G1 X100.804 Y64.187 E50.83177
G1 X101.524 Y62.319 E50.91917
G1 X102.287 Y61.035 E50.98437
G1 X103.381 Y59.762 E51.05764
G1 X104.53 Y58.818 E51.12256
G1 X106.29 Y57.812 E51.21105
G1 X108.055 Y57.369 E51.29049
G1 X111.935 Y56.777 E51.46183
G1 X114.808 Y56.388 E51.58839
G1 X117.046 Y56.11 E51.68684
G1 X125.687 Y55.125 E52.0665
G1 X128.055 Y54.829 E52.17067
G1 X130.265 Y54.523 E52.26807
G1 X132.694 Y54.147 E52.37537
G1 X133.76 Y53.964 E52.42258
G1 X134.925 Y53.751 E52.47428
G1 X136.09 Y53.522 E52.52611
G1 X137.309 Y53.267 E52.58048
G1 X138.409 Y53.018 E52.62971
G1 X139.65 Y52.721 E52.68542
G1 X140.742 Y52.444 E52.7346
G1 X142.023 Y52.098 E52.79252
G1 X143.146 Y51.774 E52.84354
G1 X144.424 Y51.381 E52.90191
G1 X145.565 Y51.011 E52.95427
G1 X146.837 Y50.571 E53.01303
G1 X148.014 Y50.14 E53.06775
G1 X149.337 Y49.629 E53.12966
G1 X150.507 Y49.151 E53.18483
G1 X151.864 Y48.57 E53.24927
G1 X153.146 Y47.992 E53.31066
G1 X154.435 Y47.385 E53.37286
G1 X155.088 Y47.067 E53.40457
G1 X156.365 Y46.417 E53.46712
G1 X157.715 Y45.699 E53.53387
G1 X159.122 Y44.924 E53.60399
G1 X162.952 Y42.725 E53.79678
G1 X164.503 Y42.141 E53.86913
G1 X166.184 Y41.847 E53.94363
G1 X167.816 Y41.854 E54.01487
G1 X169.382 Y42.153 E54.08447
G1 X170.963 Y42.746 E54.15818
G1 X172.493 Y43.703 E54.23696
G1 X173.806 Y44.945 E54.31586
G1 X174.682 Y46.175 E54.38178
G1 X199.622 Y89.448 E56.5621
G1 X200.064 Y90.43 E56.60911
G1 X200.486 Y92.033 E56.68147
G1 X200.571 Y93.262 E56.73525
G1 X200.479 Y94.765 E56.80098
G1 X200.199 Y96.082 E56.85976
G1 X199.809 Y97.21 E56.91186
G1 X198.982 Y98.69 E56.98587
G1 X197.963 Y99.916 E57.05546
G1 X196.616 Y101.051 E57.13236
G1 X192.309 Y103.538 E57.34947
G1 X190.165 Y104.795 E57.45796
G1 X188.13 Y106.007 E57.56136
G1 X186.297 Y107.125 E57.65509
G1 X184.489 Y108.258 E57.74823
G1 X182.927 Y109.269 E57.82945
G1 X181.368 Y110.318 E57.91148
G1 X180.069 Y111.232 E57.98082
G1 X178.64 Y112.296 E58.05859
G1 X178.067 Y112.747 E58.09043
G1 X177.291 Y113.388 E58.13436
G1 X176.402 Y114.182 E58.1864
G1 X175.695 Y114.857 E58.22907
G1 X175.256 Y115.324 E58.25705
G1 X174.567 Y116.119 E58.30297
G1 X173.953 Y116.99 E58.34949
G1 X173.569 Y117.794 E58.38839
G1 X173.414 Y118.321 E58.41237
G1 X173.334 Y119.005 E58.44243
G1 X173.334 Y169.594 E60.65084
G1 X172.899 Y171.42 E60.73278
G1 X172.607 Y172.211 E60.76959
G1 X171.95 Y173.474 E60.83174
G1 X171.22 Y174.55 E60.8885
G1 X169.88 Y175.851 E60.97003
G1 X168.684 Y176.596 E61.03154
G1 X166.035 Y178.026 E61.16296
G1 X165.106 Y178.502 E61.20852
G1 X164.168 Y178.968 E61.25425
G1 X163.22 Y179.423 E61.30015
G1 X162.261 Y179.867 E61.34628
G1 X161.291 Y180.301 E61.39267
G1 X160.291 Y180.731 E61.44019
G1 X158.349 Y181.524 E61.53176
G1 X157.312 Y181.923 E61.58027
G1 X155.315 Y182.641 E61.67291
G1 X154.259 Y182.999 E61.72158
G1 X152.183 Y183.661 E61.8167
G1 X150.093 Y184.271 E61.91175
G1 X148.995 Y184.566 E61.96138
G1 X146.828 Y185.112 E62.05893
G1 X144.665 Y185.604 E62.15577
G1 X143.51 Y185.847 E62.20729
G1 X141.293 Y186.268 E62.3058
G1 X140.113 Y186.477 E62.35812
G1 X137.809 Y186.835 E62.4599
G1 X135.496 Y187.149 E62.5618
G1 X134.302 Y187.297 E62.61432
G1 X133.044 Y187.436 E62.66957
G1 X130.652 Y187.658 E62.77444
G1 X129.085 Y187.787 E62.84308
G1 X127.525 Y187.889 E62.91132
G1 X124.43 Y188.051 E63.04662
G1 X122.881 Y188.103 E63.11428
G1 X121.335 Y188.139 E63.18178
G1 X119.796 Y188.16 E63.24897
G1 X118.249 Y188.167 E63.31651
G1 X115.877 Y188.15 E63.42006
G1 X113.48 Y188.1 E63.52472
G1 X111.629 Y188.031 E63.60558
G1 X109.762 Y187.949 E63.68716
G1 X107.874 Y187.849 E63.76969
G1 X105.947 Y187.726 E63.85398
G1 X102.072 Y187.422 E64.02366
G1 X98.104 Y187.036 E64.1977
G1 X94.065 Y186.571 E64.37518
G1 X89.925 Y186.027 E64.55746
G1 X87.823 Y185.722 E64.65018
G1 X85.704 Y185.4 E64.74375
G1 X83.552 Y185.059 E64.83886
G1 X79.189 Y184.317 E65.03206
G1 X76.962 Y183.912 E65.13087
G1 X72.471 Y183.05 E65.3305
G1 X70.175 Y182.584 E65.43277
G1 X65.531 Y181.602 E65.63999
G1 X63.168 Y181.077 E65.74566
G1 X59.587 Y180.257 E65.90603
G1 X57.398 Y179.739 E66.00422
G1 X53.475 Y178.783 E66.18049
G1 X50.982 Y178.156 E66.29271
G1 X45.923 Y176.852 E66.52077
G1 X40.876 Y175.486 E66.74902
G1 X39.515 Y174.95 E66.81287
G1 X38.432 Y174.356 E66.8668
G1 X37.108 Y173.23 E66.94267
G1 X36.012 Y172.033 E67.01352
G1 X35.05 Y170.093 E67.10805
G1 X34.657 Y168.945 E67.16102
G1 X34.419 Y167.04 E67.24482
G1 X34.461 Y84.228 E70.85989
G1 X34.641 Y83.058 E70.91157
G1 X35.007 Y81.815 E70.96814
G1 X35.437 Y80.846 E71.01441
G1 X36.078 Y79.743 E71.0701
G1 X37.094 Y78.538 E71.13891
G1 X38.268 Y77.55 E71.20589
G1 X39.58 Y76.779 E71.27232
G0 F4200 X39.811 Y77.253
G1 F3600 X41.161 Y76.744 E71.33531
G1 X42.76 Y76.437 E71.40638
G1 X101.146 Y76.431 E73.95516
G1 X101.172 Y65.621 E74.42706
G1 X101.319 Y64.312 E74.48456
G1 X101.999 Y62.546 E74.56718
G1 X102.714 Y61.343 E74.62827
G1 X103.748 Y60.14 E74.69751
G1 X104.828 Y59.253 E74.75852
G1 X106.49 Y58.303 E74.84209
G1 X108.134 Y57.888 E74.91611
G1 X112.005 Y57.297 E75.08705
G1 X114.873 Y56.909 E75.21339
G1 X117.105 Y56.632 E75.31158
G1 X125.746 Y55.647 E75.69123
G1 X128.12 Y55.35 E75.79568
G1 X130.345 Y55.042 E75.89373
G1 X132.774 Y54.666 E76.00103
G1 X133.858 Y54.48 E76.04904
G1 X135.026 Y54.266 E76.10088
G1 X136.197 Y54.036 E76.15297
G1 X137.416 Y53.781 E76.20734
G1 X138.531 Y53.529 E76.25724
G1 X139.772 Y53.232 E76.31295
G1 X140.879 Y52.951 E76.3628
G1 X142.16 Y52.605 E76.42073
G1 X143.3 Y52.276 E76.47252
G1 X144.578 Y51.883 E76.53089
G1 X145.737 Y51.507 E76.58408
G1 X147.018 Y51.064 E76.64325
G1 X148.195 Y50.633 E76.69797
G1 X149.526 Y50.119 E76.76026
G1 X150.714 Y49.634 E76.81627
G1 X152.071 Y49.053 E76.88071
G1 X153.362 Y48.471 E76.94253
G1 X154.659 Y47.86 E77.00512
G1 X155.318 Y47.539 E77.03712
