;FLAVOR:Marlin
;TIME:2281
;Filament used: 5.27433m
;Layer height: 0.3
;MINX:69.244
;MINY:66.795
;MINZ:0.2
;MAXX:165.756
;MAXY:163.204
;MAXZ:13.4
;TARGET_MACHINE.NAME:ELEGOO NEPTUNE 4 Pro
;Generated with Cura_SteamEngine 5.7.2
M104 S260
M105
M109 S260
M82 ;absolute extrusion mode
;ELEGOO NEPTUNE 4 / 4 PRO
M220 S100 ;Set the feed speed to 100%
M221 S100 ;Set the flow rate to 100%
M104 S140 ;Start heating extruder
M190 S70 ;Wait for the bed to reach print temp
G90
G28 ;home
G1 Z10 F300
G1 X67.5 Y0 F6000
G1 Z0 F300
M109 S260 ;Wait for extruder to reach print temp
G92 E0 ;Reset Extruder
G1 X67.5 Y0 Z0.4 F300 ;Move to start position
G1 X167.5 E30 F400 ;Draw the first line
G1 Z0.6 F120.0 ;Move to side a little
G1 X162.5 F3000
G92 E0 ;Reset Extruder
G92 E0
G92 E0
G1 F2700 E-0.5
;LAYER_COUNT:45
;LAYER:0
M107
M204 S500
G0 F6000 X72.265 Y69.113 Z0.2
;TYPE:SKIRT
G1 F2700 E0
G1 F3600 X73.855 Y67.964 E0.08564
G1 X75.56 Y67.207 E0.16707
G1 X77.477 Y66.795 E0.25267
G1 X79.374 Y66.796 E0.33548
G1 X81.291 Y67.207 E0.42107
G1 X83.017 Y67.974 E0.50352
G1 X84.129 Y68.783 E0.56355
G1 X150.876 Y68.783 E3.47732
G1 X152.008 Y67.965 E3.53828
G1 X153.719 Y67.207 E3.61998
G1 X155.633 Y66.795 E3.70544
G1 X157.53 Y66.796 E3.78826
G1 X159.447 Y67.207 E3.87384
G1 X161.168 Y67.972 E3.95606
G1 X162.731 Y69.11 E4.04046
G1 X163.988 Y70.509 E4.12256
G1 X164.97 Y72.199 E4.20789
G1 X165.549 Y74.002 E4.29055
G1 X165.756 Y75.919 E4.37473
G1 X165.549 Y77.84 E4.45907
G1 X164.971 Y79.639 E4.54156
G1 X164.042 Y81.238 E4.62229
G1 X163.717 Y81.627 E4.64441
G1 X163.717 Y148.372 E7.5581
G1 X164.028 Y148.734 E7.57893
G1 X164.969 Y150.356 E7.66079
G1 X165.549 Y152.163 E7.74363
G1 X165.756 Y154.075 E7.82759
G1 X165.549 Y155.996 E7.91193
G1 X164.971 Y157.795 E7.99442
G1 X163.985 Y159.493 E8.08014
G1 X162.731 Y160.89 E8.16209
G1 X161.151 Y162.032 E8.24719
G1 X159.441 Y162.792 E8.32888
G1 X157.522 Y163.204 E8.41456
G1 X155.613 Y163.203 E8.49789
G1 X153.729 Y162.804 E8.58196
G1 X151.994 Y162.023 E8.66502
G1 X150.88 Y161.217 E8.72505
G1 X84.121 Y161.217 E11.63934
G1 X82.992 Y162.033 E11.70015
G1 X81.285 Y162.792 E11.7817
G1 X79.366 Y163.204 E11.86738
G1 X77.457 Y163.203 E11.95072
G1 X75.57 Y162.803 E12.03492
G1 X73.837 Y162.023 E12.11788
G1 X72.28 Y160.896 E12.20179
G1 X70.998 Y159.474 E12.28537
G1 X70.047 Y157.813 E12.36892
G1 X69.45 Y155.972 E12.45341
G1 X69.244 Y154.09 E12.53606
G1 X69.45 Y152.159 E12.62083
G1 X70.028 Y150.365 E12.70311
G1 X71.011 Y148.669 E12.78868
G1 X71.283 Y148.366 E12.80646
G1 X71.283 Y81.636 E15.71949
G1 X70.98 Y81.281 E15.73986
G1 X70.045 Y79.649 E15.82197
G1 X69.45 Y77.816 E15.90609
G1 X69.244 Y75.934 E15.98874
G1 X69.45 Y74.004 E16.07347
G1 X70.031 Y72.207 E16.15592
G1 X71.019 Y70.501 E16.24198
G1 X72.265 Y69.113 E16.3234
G0 F6000 X72.62 Y69.504
G1 F3600 X74.117 Y68.422 E16.40404
G1 X75.726 Y67.708 E16.48088
G1 X77.531 Y67.32 E16.56147
G1 X79.32 Y67.321 E16.63957
G1 X81.125 Y67.708 E16.72016
G1 X82.752 Y68.431 E16.79788
G1 X83.958 Y69.308 E16.86297
G1 X151.047 Y69.308 E19.79167
G1 X152.273 Y68.422 E19.85771
G1 X153.884 Y67.708 E19.93463
G1 X155.687 Y67.32 E20.01514
G1 X157.476 Y67.321 E20.09324
G1 X159.281 Y67.708 E20.17382
G1 X160.906 Y68.43 E20.25145
G1 X162.375 Y69.499 E20.33076
G1 X163.562 Y70.821 E20.40832
G1 X164.487 Y72.413 E20.48869
G1 X165.033 Y74.113 E20.56664
G1 X165.228 Y75.919 E20.64594
G1 X165.033 Y77.729 E20.72541
G1 X164.488 Y79.425 E20.80317
G1 X163.588 Y80.974 E20.88138
G1 X163.192 Y81.432 E20.90781
G1 X163.192 Y148.573 E23.83878
G1 X163.574 Y148.997 E23.86369
G1 X164.486 Y150.569 E23.94303
G1 X165.033 Y152.273 E24.02115
G1 X165.228 Y154.075 E24.10027
G1 X165.033 Y155.885 E24.17975
G1 X164.488 Y157.581 E24.25751
G1 X163.559 Y159.181 E24.33828
G1 X162.378 Y160.496 E24.41544
G1 X160.885 Y161.575 E24.49585
G1 X159.275 Y162.291 E24.57277
G1 X157.468 Y162.679 E24.65345
G1 X155.67 Y162.678 E24.73194
G1 X153.891 Y162.301 E24.81132
G1 X152.258 Y161.566 E24.8895
G1 X151.05 Y160.692 E24.95459
G1 X83.951 Y160.692 E27.88372
G1 X82.729 Y161.575 E27.94954
G1 X81.119 Y162.291 E28.02646
G1 X79.312 Y162.679 E28.10714
G1 X77.514 Y162.678 E28.18563
G1 X75.732 Y162.3 E28.26515
G1 X74.101 Y161.566 E28.34323
G1 X72.635 Y160.505 E28.42223
G1 X71.426 Y159.164 E28.50104
G1 X70.528 Y157.596 E28.57992
G1 X69.966 Y155.864 E28.65941
G1 X69.772 Y154.089 E28.73736
G1 X69.966 Y152.27 E28.81722
G1 X70.512 Y150.577 E28.89487
G1 X71.436 Y148.982 E28.97534
G1 X71.808 Y148.568 E28.99964
G1 X71.808 Y81.433 E31.93034
G1 X71.435 Y81.02 E31.95464
G1 X70.527 Y79.436 E32.03434
G1 X69.966 Y77.708 E32.11365
G1 X69.772 Y75.933 E32.1916
G1 X69.966 Y74.112 E32.27154
G1 X70.513 Y72.422 E32.34908
G1 X71.444 Y70.814 E32.4302
G1 X72.62 Y69.504 E32.50705
G0 F6000 X72.974 Y69.896
G1 F3600 X74.38 Y68.88 E32.58277
G1 X75.892 Y68.209 E32.65498
G1 X77.585 Y67.845 E32.73058
G1 X79.266 Y67.846 E32.80396
G1 X80.959 Y68.209 E32.87955
G1 X82.487 Y68.888 E32.95254
G1 X83.787 Y69.833 E33.0227
G1 X151.217 Y69.833 E35.96628
G1 X152.535 Y68.88 E36.03728
G1 X154.049 Y68.209 E36.10958
G1 X155.741 Y67.845 E36.18513
G1 X157.422 Y67.846 E36.25851
G1 X159.115 Y68.209 E36.3341
G1 X160.641 Y68.887 E36.40699
G1 X162.021 Y69.891 E36.48149
G1 X163.136 Y71.133 E36.55435
G1 X164.004 Y72.627 E36.62978
G1 X164.517 Y74.224 E36.703
G1 X164.7 Y75.919 E36.77743
G1 X164.517 Y77.618 E36.85202
G1 X164.005 Y79.211 E36.92507
G1 X163.134 Y80.71 E37.00075
G1 X162.667 Y81.232 E37.03132
G1 X162.667 Y148.774 E39.9798
G1 X163.146 Y149.306 E40.01105
G1 X164.004 Y150.784 E40.08565
G1 X164.517 Y152.382 E40.15892
G1 X164.7 Y154.075 E40.23325
G1 X164.517 Y155.774 E40.30785
G1 X164.005 Y157.367 E40.3809
G1 X163.133 Y158.869 E40.45671
G1 X162.023 Y160.105 E40.52923
G1 X160.623 Y161.117 E40.60464
G1 X159.109 Y161.79 E40.67697
G1 X157.414 Y162.154 E40.75265
G1 X155.727 Y162.153 E40.8263
G1 X154.053 Y161.798 E40.901
G1 X152.522 Y161.109 E40.97429
G1 X151.22 Y160.167 E41.04444
G1 X83.781 Y160.167 E43.98842
G1 X82.467 Y161.117 E44.0592
G1 X80.953 Y161.79 E44.13153
G1 X79.258 Y162.154 E44.20721
G1 X77.571 Y162.153 E44.28085
G1 X75.894 Y161.797 E44.35569
G1 X74.365 Y161.109 E44.42889
G1 X72.987 Y160.112 E44.50314
G1 X71.856 Y158.857 E44.57689
G1 X71.009 Y157.379 E44.65125
G1 X70.482 Y155.756 E44.72574
G1 X70.3 Y154.088 E44.79899
G1 X70.482 Y152.381 E44.87393
G1 X70.996 Y150.789 E44.94696
G1 X71.863 Y149.292 E45.02248
G1 X72.333 Y148.769 E45.05317
G1 X72.333 Y81.231 E48.00147
G1 X71.86 Y80.707 E48.03229
G1 X71.009 Y79.223 E48.10696
G1 X70.482 Y77.6 E48.18146
G1 X70.3 Y75.932 E48.2547
G1 X70.482 Y74.225 E48.32964
G1 X70.997 Y72.633 E48.40269
G1 X71.869 Y71.127 E48.47865
G1 X72.974 Y69.896 E48.55087
G0 F6000 X73.329 Y70.287
G1 F3600 X74.642 Y69.338 E48.62159
G1 X76.058 Y68.71 E48.68921
G1 X77.639 Y68.37 E48.7598
G1 X79.212 Y68.371 E48.82847
G1 X80.793 Y68.71 E48.89906
G1 X82.222 Y69.345 E48.96732
G1 X83.371 Y70.18 E49.02932
G1 X83.556 Y70.358 E49.04053
G1 X151.446 Y70.358 E52.0042
G1 X151.629 Y70.183 E52.01525
G1 X152.797 Y69.338 E52.07818
G1 X154.214 Y68.71 E52.14584
G1 X155.795 Y68.37 E52.21644
G1 X157.368 Y68.371 E52.2851
G1 X158.949 Y68.71 E52.35569
G1 X160.376 Y69.344 E52.42386
G1 X161.667 Y70.283 E52.49354
G1 X162.71 Y71.445 E52.56171
G1 X163.521 Y72.841 E52.63219
G1 X164.001 Y74.335 E52.70069
G1 X164.172 Y75.919 E52.77024
G1 X164.001 Y77.507 E52.83996
G1 X163.522 Y78.997 E52.90828
G1 X162.708 Y80.399 E52.97905
G1 X162.142 Y81.03 E53.01606
G1 X162.142 Y148.975 E55.98212
G1 X162.718 Y149.615 E56.01971
G1 X163.522 Y150.999 E56.08958
G1 X164.001 Y152.491 E56.15799
G1 X164.172 Y154.075 E56.22754
G1 X164.001 Y155.663 E56.29726
G1 X163.522 Y157.153 E56.36558
G1 X162.707 Y158.557 E56.43645
G1 X161.668 Y159.714 E56.50434
G1 X160.361 Y160.659 E56.57474
G1 X158.943 Y161.289 E56.64248
G1 X157.36 Y161.629 E56.71316
G1 X155.784 Y161.628 E56.78196
G1 X154.215 Y161.295 E56.85198
G1 X152.786 Y160.652 E56.92038
G1 X151.639 Y159.822 E56.98219
G1 X151.451 Y159.642 E56.99355
G1 X83.551 Y159.642 E59.95765
G1 X83.365 Y159.82 E59.96889
G1 X82.205 Y160.659 E60.03139
G1 X80.787 Y161.289 E60.09912
G1 X79.204 Y161.629 E60.1698
G1 X77.628 Y161.628 E60.2386
G1 X76.056 Y161.294 E60.30876
G1 X74.629 Y160.652 E60.37706
G1 X73.342 Y159.721 E60.44641
G1 X72.281 Y158.544 E60.51558
G1 X71.491 Y157.166 E60.58492
G1 X70.998 Y155.648 E60.65459
G1 X70.828 Y154.087 E60.72314
G1 X70.998 Y152.492 E60.79316
G1 X71.48 Y151.001 E60.86157
G1 X72.29 Y149.602 E60.93214
G1 X72.858 Y148.97 E60.96923
G1 X72.858 Y81.029 E63.93512
G1 X72.285 Y80.394 E63.97246
G1 X71.491 Y79.01 E64.04211
G1 X70.998 Y77.492 E64.11179
G1 X70.828 Y75.931 E64.18033
G1 X70.998 Y74.336 E64.25036
G1 X71.48 Y72.845 E64.31876
G1 X72.294 Y71.44 E64.38965
G1 X73.329 Y70.287 E64.45728
G0 F6000 X73.684 Y70.678
G1 F3600 X74.904 Y69.796 E64.523
G1 X76.223 Y69.211 E64.58599
G1 X77.693 Y68.895 E64.65163
G1 X79.158 Y68.896 E64.71558
G1 X80.627 Y69.211 E64.78116
G1 X81.957 Y69.802 E64.8447
G1 X83.062 Y70.605 E64.90433
G1 X83.335 Y70.883 E64.92134
G1 X151.665 Y70.883 E67.90421
G1 X151.937 Y70.608 E67.92109
G1 X153.059 Y69.796 E67.98156
G1 X154.379 Y69.211 E68.04458
G1 X155.849 Y68.895 E68.11022
G1 X157.314 Y68.896 E68.17417
G1 X158.783 Y69.211 E68.23976
G1 X160.111 Y69.801 E68.3032
G1 X161.313 Y70.675 E68.36807
G1 X162.284 Y71.757 E68.43154
G1 X163.038 Y73.055 E68.49707
G1 X163.485 Y74.446 E68.56085
G1 X163.644 Y75.919 E68.62552
G1 X163.485 Y77.396 E68.69037
G1 X163.039 Y78.783 E68.75397
G1 X162.282 Y80.087 E68.8198
G1 X161.617 Y80.828 E68.86326
G1 X161.617 Y149.176 E71.84692
G1 X162.29 Y149.924 E71.89084
G1 X163.039 Y151.213 E71.95592
G1 X163.485 Y152.602 E72.01961
G1 X163.644 Y154.075 E72.08428
G1 X163.485 Y155.552 E72.14913
G1 X163.039 Y156.939 E72.21273
G1 X162.281 Y158.245 E72.27865
G1 X161.313 Y159.323 E72.3419
G1 X160.099 Y160.201 E72.4073
G1 X158.777 Y160.788 E72.47045
G1 X157.306 Y161.104 E72.53613
G1 X155.841 Y161.103 E72.60008
G1 X154.377 Y160.792 E72.66541
G1 X153.05 Y160.195 E72.72894
G1 X151.947 Y159.397 E72.78837
G1 X151.671 Y159.117 E72.80553
G1 X83.331 Y159.117 E75.78884
G1 X83.057 Y159.395 E75.80588
G1 X81.943 Y160.201 E75.8659
G1 X80.621 Y160.788 E75.92905
G1 X79.15 Y161.104 E75.99473
G1 X77.685 Y161.103 E76.05868
G1 X76.22 Y160.792 E76.12406
G1 X74.895 Y160.195 E76.1875
G1 X73.694 Y159.327 E76.25219
G1 X72.706 Y158.231 E76.3166
G1 X71.973 Y156.953 E76.38092
G1 X71.514 Y155.54 E76.44577
G1 X71.356 Y154.086 E76.50962
G1 X71.514 Y152.6 E76.57485
G1 X71.962 Y151.216 E76.63836
G1 X72.717 Y149.912 E76.70414
G1 X73.383 Y149.171 E76.74763
G1 X73.383 Y80.827 E79.73111
G1 X72.71 Y80.081 E79.77497
G1 X71.973 Y78.797 E79.8396
G1 X71.514 Y77.384 E79.90446
G1 X71.356 Y75.93 E79.9683
G1 X71.514 Y74.444 E80.03354
G1 X71.962 Y73.06 E80.09704
G1 X72.719 Y71.753 E80.16298
G1 X73.684 Y70.678 E80.22604
G0 F6000 X74.039 Y71.069
G1 F3600 X75.166 Y70.254 E80.28675
G1 X76.388 Y69.712 E80.34511
G1 X77.747 Y69.42 E80.40579
G1 X79.104 Y69.421 E80.46503
G1 X80.461 Y69.712 E80.52561
G1 X81.692 Y70.259 E80.58442
G1 X82.753 Y71.03 E80.64167
G1 X83.108 Y71.408 E80.66431
G1 X151.892 Y71.408 E83.667
G1 X152.245 Y71.033 E83.68948
G1 X153.321 Y70.254 E83.74747
G1 X154.544 Y69.712 E83.80587
G1 X155.903 Y69.42 E83.86655
G1 X157.26 Y69.421 E83.92579
G1 X158.617 Y69.712 E83.98637
G1 X159.846 Y70.258 E84.04508
G1 X160.959 Y71.067 E84.10515
G1 X161.858 Y72.069 E84.16391
G1 X162.555 Y73.269 E84.22449
G1 X162.969 Y74.557 E84.28355
G1 X163.116 Y75.919 E84.34335
G1 X162.969 Y77.285 E84.40333
G1 X162.556 Y78.569 E84.46221
G1 X161.856 Y79.775 E84.52308
G1 X161.092 Y80.626 E84.573
G1 X161.092 Y149.377 E87.57426
G1 X161.862 Y150.233 E87.62452
G1 X162.556 Y151.427 E87.6848
G1 X162.969 Y152.713 E87.74377
G1 X163.116 Y154.075 E87.80357
G1 X162.969 Y155.441 E87.86355
G1 X162.556 Y156.725 E87.92243
G1 X161.855 Y157.933 E87.98339
G1 X160.958 Y158.932 E88.04201
G1 X159.837 Y159.743 E88.10241
G1 X158.611 Y160.287 E88.16096
G1 X157.252 Y160.579 E88.22164
G1 X155.898 Y160.578 E88.28074
G1 X154.539 Y160.289 E88.3414
G1 X153.314 Y159.738 E88.40003
G1 X152.255 Y158.972 E88.45709
G1 X151.898 Y158.592 E88.47985
G1 X83.104 Y158.592 E91.48298
G1 X82.749 Y158.97 E91.50561
G1 X81.681 Y159.743 E91.56317
G1 X80.455 Y160.287 E91.62172
G1 X79.096 Y160.579 E91.6824
G1 X77.742 Y160.578 E91.74151
G1 X76.383 Y160.289 E91.80216
G1 X75.158 Y159.738 E91.8608
G1 X74.046 Y158.934 E91.9207
G1 X73.133 Y157.921 E91.98023
G1 X72.455 Y156.74 E92.03968
G1 X72.03 Y155.432 E92.09971
G1 X71.884 Y154.085 E92.15886
G1 X72.03 Y152.713 E92.21909
G1 X72.446 Y151.427 E92.2781
G1 X73.144 Y150.222 E92.33889
G1 X73.908 Y149.372 E92.38878
G1 X73.908 Y80.625 E95.38985
G1 X73.135 Y79.768 E95.44024
G1 X72.455 Y78.584 E95.49984
G1 X72.03 Y77.276 E95.55988
G1 X71.884 Y75.929 E95.61902
G1 X72.03 Y74.557 E95.67926
G1 X72.446 Y73.271 E95.73826
G1 X73.144 Y72.066 E95.79905
G1 X74.039 Y71.069 E95.85754
G0 F6000 X74.394 Y71.46
G1 F3600 X75.428 Y70.712 E95.91325
G1 X76.553 Y70.213 E95.96697
G1 X77.801 Y69.945 E96.02269
G1 X79.05 Y69.946 E96.07722
G1 X80.295 Y70.213 E96.1328
G1 X81.427 Y70.716 E96.18688
G1 X82.444 Y71.455 E96.24176
G1 X82.873 Y71.933 E96.2698
G1 X152.126 Y71.933 E99.29296
G1 X152.553 Y71.458 E99.32084
G1 X153.583 Y70.712 E99.37636
G1 X154.709 Y70.213 E99.43013
G1 X155.957 Y69.945 E99.48585
G1 X157.206 Y69.946 E99.54037
G1 X158.451 Y70.213 E99.59596
G1 X159.581 Y70.715 E99.64993
G1 X160.605 Y71.459 E99.70519
G1 X161.432 Y72.381 E99.75926
G1 X162.072 Y73.483 E99.81489
G1 X162.453 Y74.668 E99.86923
G1 X162.588 Y75.919 E99.92415
G1 X162.453 Y77.174 E99.97926
G1 X162.072 Y78.357 E100.03351
G1 X161.43 Y79.464 E100.08937
G1 X160.71 Y80.267 E100.13646
G1 X160.567 Y80.389 E100.14466
G1 X160.567 Y149.614 E103.1666
G1 X160.71 Y149.737 E103.17484
G1 X161.436 Y150.545 E103.22226
G1 X162.073 Y151.641 E103.2776
G1 X162.453 Y152.824 E103.33184
G1 X162.588 Y154.075 E103.38677
G1 X162.453 Y155.33 E103.44187
G1 X162.072 Y156.513 E103.49612
G1 X161.43 Y157.62 E103.55199
G1 X160.603 Y158.541 E103.60602
G1 X159.575 Y159.285 E103.66142
G1 X158.446 Y159.786 E103.71534
G1 X157.198 Y160.054 E103.77106
G1 X155.951 Y160.053 E103.8255
G1 X154.706 Y159.788 E103.88106
G1 X153.577 Y159.281 E103.93509
G1 X152.563 Y158.547 E103.98973
G1 X152.131 Y158.067 E104.01793
G1 X82.871 Y158.067 E107.0414
G1 X82.441 Y158.545 E107.06946
G1 X81.419 Y159.285 E107.12454
G1 X80.29 Y159.786 E107.17846
G1 X79.042 Y160.054 E107.23419
G1 X77.795 Y160.053 E107.28862
G1 X76.55 Y159.788 E107.34419
G1 X75.421 Y159.281 E107.39822
G1 X74.398 Y158.541 E107.45333
G1 X73.56 Y157.611 E107.50798
G1 X72.937 Y156.526 E107.5626
G1 X72.546 Y155.323 E107.61782
G1 X72.412 Y154.084 E107.67222
G1 X72.546 Y152.822 E107.72762
G1 X72.928 Y151.642 E107.78177
G1 X73.569 Y150.535 E107.83761
G1 X74.287 Y149.735 E107.88453
G1 X74.433 Y149.61 E107.89292
G1 X74.433 Y80.388 E110.91474
G1 X74.293 Y80.268 E110.92279
G1 X73.56 Y79.455 E110.97057
G1 X72.937 Y78.37 E111.02519
G1 X72.546 Y77.167 E111.08041
G1 X72.412 Y75.928 E111.13481
G1 X72.546 Y74.666 E111.19021
G1 X72.928 Y73.486 E111.24436
G1 X73.569 Y72.379 E111.3002
G1 X74.394 Y71.46 E111.35411
G0 F6000 X74.749 Y71.851
G1 F3600 X75.69 Y71.17 E111.40482
G1 X76.718 Y70.714 E111.45391
G1 X77.855 Y70.47 E111.50467
G1 X78.996 Y70.471 E111.55448
G1 X80.129 Y70.714 E111.60507
G1 X81.162 Y71.173 E111.65441
G1 X82.09 Y71.847 E111.70448
G1 X82.638 Y72.458 E111.74031
G1 X152.361 Y72.458 E114.78399
G1 X152.908 Y71.849 E114.81973
G1 X153.845 Y71.17 E114.87024
G1 X154.874 Y70.714 E114.91938
G1 X156.011 Y70.47 E114.97014
G1 X157.152 Y70.471 E115.01995
G1 X158.285 Y70.714 E115.07053
G1 X159.318 Y71.173 E115.11988
G1 X160.249 Y71.849 E115.17011
G1 X161.006 Y72.693 E115.2196
G1 X161.589 Y73.697 E115.27028
G1 X161.937 Y74.779 E115.3199
G1 X162.06 Y75.919 E115.36995
G1 X161.937 Y77.063 E115.42018
G1 X161.588 Y78.145 E115.46981
G1 X161.005 Y79.151 E115.52057
G1 X160.319 Y79.916 E115.56542
G1 X160.042 Y80.137 E115.58089
G1 X160.042 Y149.865 E118.62479
G1 X160.319 Y150.088 E118.64032
G1 X161.01 Y150.857 E118.68545
G1 X161.59 Y151.855 E118.73584
G1 X161.937 Y152.935 E118.78536
G1 X162.06 Y154.075 E118.83541
