;FLAVOR:Marlin
;TIME:24150
;Filament used: 25.2244m
;Layer height: 0.2
;MINX:0
;MINY:0
;MINZ:0.2
;MAXX:232.678
;MAXY:230
;MAXZ:12
;TARGET_MACHINE.NAME:ELEGOO NEPTUNE 4 Pro
;Generated with Cura_SteamEngine 5.7.2
M104 S260
M105
M109 S260
M82 ;absolute extrusion mode
;ELEGOO NEPTUNE 4 / 4 PRO
M220 S100 ;Set the feed speed to 100%
M221 S100 ;Set the flow rate to 100%
M104 S140 ;Start heating extruder
M190 S70 ;Wait for the bed to reach print temp
G90
G28 ;home
G1 Z10 F300
G1 X67.5 Y0 F6000
G1 Z0 F300
M109 S260 ;Wait for extruder to reach print temp
G92 E0 ;Reset Extruder
G1 X67.5 Y0 Z0.4 F300 ;Move to start position
G1 X167.5 E30 F400 ;Draw the first line
G1 Z0.6 F120.0 ;Move to side a little
G1 X162.5 F3000
G92 E0 ;Reset Extruder
G92 E0
G92 E0
G1 F2700 E-0.5
;LAYER_COUNT:60
;LAYER:0
M107
M204 S500
G0 F3600 X165.971 Y0.00 Z0.2
;TYPE:SKIRT
G1 F2700 E0
G1 F3600 X165.56 Y0.31 E0.02247
G1 X1.662 Y164.181 E10.14004
G1 X1.072 Y164.927 E10.18156
G1 X0.183 Y166.733 E10.26944
G1 X0.00 Y168.136 E10.3312
G1 F2700 E9.8312
G0 F3600 X0.00 Y169.519
G1 F2700 E10.3312
G1 F3600 X0.175 Y170.78 E10.38678
G1 X0.889 Y172.477 E10.46715
G1 X1.583 Y173.402 E10.51763
G1 X57.819 Y229.656 E13.98997
G1 X58.274 Y230 E14.01487
G0 X59.254 Y230
G1 X58.989 Y229.882 E14.02753
G1 X58.136 Y229.237 E14.07422
G1 X2.003 Y173.087 E17.54017
G1 X1.348 Y172.214 E17.58781
G1 X0.685 Y170.639 E17.66241
G1 X0.437 Y168.849 E17.7413
G1 X0.693 Y166.886 E17.82771
G1 X1.518 Y165.21 E17.90926
G1 X2.074 Y164.507 E17.94839
G1 X165.876 Y0.729 E28.06012
G1 X166.782 Y0.045 E28.10968
G1 X166.889 Y0.00 E28.11475
G1 F2700 E27.61475
G0 F3600 X168.242 Y0.00
G1 F2700 E28.11475
G1 F3600 X167.045 Y0.504 E28.17144
G1 X166.192 Y1.148 E28.2181
G1 X2.486 Y164.833 E38.324
G1 X1.964 Y165.493 E38.36074
G1 X1.203 Y167.039 E38.43596
G1 X0.967 Y168.849 E38.51564
G1 X1.196 Y170.499 E38.58836
G1 X1.806 Y171.95 E38.65707
G1 X2.423 Y172.772 E38.70194
G1 X58.453 Y228.818 E42.1615
G1 X59.257 Y229.426 E42.2055
G1 X60.545 Y230 E42.26706
G1 F2700 E41.76706
G0 F3600 X66.633 Y230
G1 F2700 E42.26706
G1 F3600 X67.045 Y229.689 E42.2896
G1 X230.834 Y65.932 E52.40028
G1 X231.7 Y64.824 E52.46167
G1 X231.971 Y64.289 E52.48785
G1 X232.56 Y62.567 E52.5673
G1 X232.678 Y60.653 E52.65101
G1 X232.331 Y58.931 E52.72769
G1 X231.67 Y57.483 E52.79718
G1 X230.951 Y56.517 E52.84975
G1 X174.786 Y0.343 E56.31743
G1 X174.332 Y0.00 E56.34227
G0 X173.353 Y0.00
G1 X173.616 Y0.117 E56.35483
G1 X174.469 Y0.762 E56.40152
G1 X230.53 Y56.83 E59.86271
G1 X231.214 Y57.749 E59.91272
G1 X231.828 Y59.094 E59.97727
G1 X232.15 Y60.691 E60.04838
G1 X232.04 Y62.463 E60.12589
G1 X231.474 Y64.119 E60.20228
G1 X231.255 Y64.541 E60.22304
G1 X230.42 Y65.609 E60.28222
G1 X66.729 Y229.27 E70.38692
G1 X65.823 Y229.954 E70.43647
G1 X65.714 Y230 E70.44164
G1 F2700 E69.94164
G0 F3600 X64.36 Y230
G1 F2700 E70.44164
G1 F3600 X65.56 Y229.495 E70.49847
G1 X66.413 Y228.851 E70.54513
G1 X230.006 Y65.286 E80.64384
G1 X230.811 Y64.256 E80.70091
G1 X230.977 Y63.949 E80.71614
G1 X231.52 Y62.359 E80.78949
G1 X231.622 Y60.729 E80.86078
G1 X231.325 Y59.257 E80.92634
G1 X230.758 Y58.015 E80.98594
G1 X230.109 Y57.143 E81.03339
G1 X174.152 Y1.181 E84.4881
G1 X173.348 Y0.573 E84.53211
G1 X172.062 Y0.00 E84.59357
G0 X171.659 Y0.394
G1 X173.076 Y1.026 E84.6613
G1 X173.835 Y1.6 E84.70284
G1 X229.688 Y57.456 E88.15107
G1 X230.302 Y58.281 E88.19597
G1 X230.822 Y59.42 E88.25062
G1 X231.094 Y60.766 E88.31057
G1 X231 Y62.255 E88.3757
G1 X230.48 Y63.779 E88.44599
G1 X230.397 Y63.933 E88.45363
G1 X229.592 Y64.963 E88.5107
G1 X66.097 Y228.432 E98.60342
G1 X65.296 Y229.037 E98.64724
G1 X63.966 Y229.596 E98.71022
G1 X62.446 Y229.798 E98.77716
G1 X60.946 Y229.605 E98.84318
G1 X59.529 Y228.973 E98.91091
G1 X58.77 Y228.399 E98.95245
G1 X2.843 Y172.457 E102.40562
G1 X2.265 Y171.687 E102.44765
G1 X1.706 Y170.358 E102.51059
G1 X1.497 Y168.849 E102.57709
G1 X1.713 Y167.192 E102.65004
G1 X2.41 Y165.776 E102.71894
G1 X2.898 Y165.159 E102.75328
G1 X166.508 Y1.567 E112.85334
G1 X167.309 Y0.962 E112.89716
G1 X168.639 Y0.403 E112.96014
G1 X170.159 Y0.201 E113.02708
G1 X171.659 Y0.394 E113.0931
G0 X171.518 Y0.905
G1 X172.804 Y1.479 E113.15458
G1 X173.518 Y2.019 E113.19366
G1 X229.267 Y57.77 E116.63544
G1 X229.847 Y58.549 E116.67784
G1 X230.319 Y59.583 E116.72745
G1 X230.566 Y60.803 E116.78179
G1 X230.48 Y62.152 E116.8408
G1 X229.983 Y63.61 E116.90805
G1 X229.178 Y64.64 E116.96511
G1 X65.781 Y228.013 E127.05184
G1 X65.033 Y228.578 E127.09277
G1 X63.825 Y229.086 E127.14997
G1 X62.448 Y229.269 E127.21061
G1 X61.087 Y229.094 E127.27052
G1 X59.801 Y228.52 E127.33199
G1 X59.087 Y227.98 E127.37107
G1 X3.263 Y172.142 E130.81785
G1 X2.724 Y171.424 E130.85705
G1 X2.216 Y170.217 E130.91421
G1 X2.027 Y168.849 E130.9745
G1 X2.223 Y167.345 E131.04071
G1 X2.856 Y166.059 E131.10328
G1 X3.31 Y165.485 E131.13523
G1 X166.824 Y1.986 E141.22946
G1 X167.572 Y1.421 E141.27038
G1 X168.78 Y0.913 E141.32759
G1 X170.157 Y0.73 E141.38823
G1 X171.518 Y0.905 E141.44813
G0 X171.377 Y1.416
G1 X172.532 Y1.932 E141.50336
G1 X173.201 Y2.438 E141.53997
G1 X228.846 Y58.084 E144.9753
G1 X229.392 Y58.817 E145.0152
G1 X229.817 Y59.749 E145.05992
G1 X230.038 Y60.837 E145.10838
G1 X229.96 Y62.049 E145.1614
G1 X229.515 Y63.356 E145.22167
G1 X228.764 Y64.317 E145.27492
G1 X65.465 Y227.594 E155.35566
G1 X64.77 Y228.119 E155.39368
G1 X63.684 Y228.576 E155.44512
G1 X62.45 Y228.74 E155.49946
G1 X61.228 Y228.583 E155.55324
G1 X60.073 Y228.067 E155.60847
G1 X59.404 Y227.561 E155.64508
G1 X3.683 Y171.827 E159.08547
G1 X3.183 Y171.161 E159.12183
G1 X2.726 Y170.076 E159.17322
G1 X2.557 Y168.849 E159.22729
G1 X2.733 Y167.498 E159.28677
G1 X3.302 Y166.342 E159.34301
G1 X3.722 Y165.811 E159.37257
G1 X167.14 Y2.405 E169.46097
G1 X167.835 Y1.88 E169.49899
G1 X168.921 Y1.423 E169.55043
G1 X170.155 Y1.259 E169.60477
G1 X171.377 Y1.416 E169.65855
G0 X171.236 Y1.927
G1 X172.26 Y2.385 E169.70752
G1 X172.884 Y2.857 E169.74168
G1 X228.425 Y58.398 E173.17055
G1 X228.937 Y59.085 E173.20796
G1 X229.314 Y59.912 E173.24763
G1 X229.509 Y60.874 E173.29048
G1 X229.44 Y61.946 E173.33738
G1 X229.047 Y63.102 E173.39068
G1 X228.35 Y63.994 E173.44009
G1 X65.149 Y227.175 E183.51485
G1 X64.507 Y227.66 E183.54997
G1 X63.543 Y228.066 E183.59564
G1 X62.452 Y228.211 E183.64368
G1 X61.369 Y228.072 E183.69135
G1 X60.345 Y227.614 E183.74031
G1 X59.721 Y227.142 E183.77447
G1 X4.103 Y171.512 E187.20847
G1 X3.642 Y170.898 E187.24199
G1 X3.236 Y169.934 E187.28765
G1 X3.087 Y168.849 E187.33546
G1 X3.243 Y167.651 E187.3882
G1 X3.748 Y166.625 E187.43812
G1 X4.134 Y166.137 E187.46528
G1 X167.456 Y2.824 E197.54785
G1 X168.098 Y2.339 E197.58297
G1 X169.062 Y1.933 E197.62863
G1 X170.153 Y1.788 E197.67668
G1 X171.236 Y1.927 E197.72434
G0 X171.093 Y2.438
G1 X171.993 Y2.841 E197.76739
G1 X172.513 Y3.228 E197.79569
G1 X228.054 Y58.769 E201.22457
G1 X228.48 Y59.35 E201.25602
G1 X228.811 Y60.075 E201.29081
G1 X228.98 Y60.911 E201.32804
G1 X228.92 Y61.843 E201.36881
G1 X228.579 Y62.848 E201.41514
G1 X227.936 Y63.671 E201.46073
G1 X64.832 Y226.756 E211.52953
G1 X64.242 Y227.202 E211.56182
G1 X63.402 Y227.556 E211.60161
G1 X62.454 Y227.682 E211.64336
G1 X61.512 Y227.561 E211.68482
G1 X60.612 Y227.158 E211.72786
G1 X60.092 Y226.771 E211.75616
G1 X4.523 Y171.197 E215.18692
G1 X4.101 Y170.635 E215.2176
G1 X3.746 Y169.793 E215.25749
G1 X3.617 Y168.849 E215.29908
G1 X3.753 Y167.804 E215.34509
G1 X4.194 Y166.908 E215.38868
G1 X4.546 Y166.463 E215.41345
G1 X167.773 Y3.243 E225.49021
G1 X168.363 Y2.797 E225.5225
G1 X169.203 Y2.443 E225.56229
G1 X170.151 Y2.317 E225.60404
G1 X171.093 Y2.438 E225.6455
G0 X170.95 Y2.949
G1 X171.725 Y3.296 E225.68257
G1 X172.199 Y3.649 E225.70837
G1 X227.683 Y59.14 E229.13394
G1 X228.023 Y59.613 E229.15937
G1 X228.309 Y60.241 E229.18949
G1 X228.452 Y60.945 E229.22085
G1 X228.4 Y61.742 E229.25572
G1 X228.111 Y62.595 E229.29504
G1 X227.565 Y63.3 E229.33396
G1 X64.515 Y226.337 E239.39961
G1 X63.977 Y226.744 E239.42906
G1 X63.261 Y227.046 E239.46299
G1 X62.456 Y227.153 E239.49844
G1 X61.655 Y227.05 E239.53369
G1 X60.88 Y226.703 E239.57076
G1 X60.406 Y226.35 E239.59656
G1 X4.943 Y170.882 E243.02077
G1 X4.56 Y170.372 E243.04862
G1 X4.256 Y169.652 E243.08273
G1 X4.147 Y168.85 E243.11807
G1 X4.263 Y167.957 E243.15738
G1 X4.64 Y167.191 E243.19465
G1 X4.958 Y166.789 E243.21702
G1 X168.09 Y3.662 E253.28798
G1 X168.628 Y3.255 E253.31743
G1 X169.344 Y2.953 E253.35135
G1 X170.149 Y2.846 E253.3868
G1 X170.95 Y2.949 E253.42206
G0 X170.807 Y3.46
G1 X171.457 Y3.751 E253.45315
G1 X171.885 Y4.07 E253.47645
G1 X227.263 Y59.455 E256.89548
G1 X227.545 Y59.831 E256.916
G1 X227.806 Y60.404 E256.94349
G1 X227.923 Y60.982 E256.96923
G1 X227.88 Y61.641 E256.99806
G1 X227.643 Y62.342 E257.03036
G1 X227.194 Y62.929 E257.06262
G1 X64.198 Y225.919 E267.12515
G1 X63.715 Y226.285 E267.15161
G1 X63.119 Y226.536 E267.17984
G1 X62.458 Y226.624 E267.20895
G1 X61.798 Y226.539 E267.238
G1 X61.148 Y226.248 E267.26909
G1 X60.72 Y225.929 E267.29239
G1 X5.363 Y170.567 E270.71006
G1 X5.019 Y170.109 E270.73507
G1 X4.766 Y169.51 E270.76345
G1 X4.677 Y168.851 E270.79248
G1 X4.773 Y168.11 E270.8251
G1 X5.086 Y167.474 E270.85605
G1 X5.37 Y167.115 E270.87603
G1 X168.407 Y4.08 E280.94121
G1 X168.89 Y3.714 E280.96767
G1 X169.486 Y3.463 E280.9959
G1 X170.147 Y3.375 E281.02501
G1 X170.807 Y3.46 E281.05406
G1 F2700 E280.55406
G0 F3600 X170.578 Y4.489
G1 F2700 E281.05406
G1 F3600 X170.92 Y4.645 E281.07047
G1 X171.187 Y4.852 E281.08522
G1 X226.48 Y60.151 E284.49897
G1 X226.657 Y60.381 E284.51164
G1 X226.813 Y60.725 E284.52813
G1 X226.876 Y61.105 E284.54494
G1 X226.838 Y61.488 E284.56174
G1 X226.704 Y61.842 E284.57827
G1 X226.452 Y62.187 E284.59692
G1 X63.456 Y225.177 E294.65945
G1 X63.146 Y225.4 E294.67612
G1 X62.791 Y225.535 E294.6927
G1 X62.408 Y225.573 E294.7095
G1 X62.027 Y225.51 E294.72636
G1 X61.685 Y225.354 E294.74277
G1 X61.418 Y225.147 E294.75752
G1 X6.154 Y169.881 E298.16936
G1 X5.901 Y169.536 E298.18803
G1 X5.767 Y169.182 E298.20456
G1 X5.729 Y168.8 E298.22131
G1 X5.792 Y168.418 E298.23822
G1 X5.947 Y168.078 E298.25453
G1 X6.153 Y167.812 E298.26921
G1 X169.149 Y4.822 E308.33175
G1 X169.459 Y4.599 E308.34842
G1 X169.814 Y4.464 E308.365
G1 X170.197 Y4.426 E308.3818
G1 X170.578 Y4.489 E308.39866
G0 X170.664 Y3.971
G1 X171.242 Y4.23 E308.42631
G1 X171.558 Y4.481 E308.44392
G1 X226.851 Y59.78 E311.85767
G1 X227.073 Y60.061 E311.87331
G1 X227.291 Y60.508 E311.89502
G1 X227.394 Y61.019 E311.91777
G1 X227.36 Y61.54 E311.94057
G1 X227.174 Y62.091 E311.96595
G1 X226.823 Y62.558 E311.99145
G1 X63.827 Y225.548 E322.05399
G1 X63.453 Y225.826 E322.07433
G1 X62.978 Y226.026 E322.09683
G1 X62.46 Y226.095 E322.11964
G1 X61.941 Y226.028 E322.14249
G1 X61.363 Y225.769 E322.17013
G1 X61.047 Y225.518 E322.18775
G1 X5.783 Y170.252 E325.59959
G1 X5.478 Y169.846 E325.62176
G1 X5.276 Y169.368 E325.64441
G1 X5.207 Y168.852 E325.66714
G1 X5.283 Y168.263 E325.69306
G1 X5.532 Y167.757 E325.71768
G1 X5.782 Y167.441 E325.73527
G1 X168.778 Y4.451 E335.7978
G1 X169.152 Y4.173 E335.81815
G1 X169.627 Y3.973 E335.84064
G1 X170.145 Y3.904 E335.86346
G1 X170.664 Y3.971 E335.8863
G1 F2700 E335.3863
;MESH:Case.stl
G0 F3600 X169.656 Y5.431
G0 X7.094 Y168.669
G0 X6.996 Y168.59
;TYPE:WALL-INNER
G1 F2700 E335.8863
G1 X6.892 Y168.763 E335.89511
G1 X6.929 Y169.031 E335.90692
G1 X62.266 Y224.368 E339.32321
G1 X62.453 Y224.419 E339.33167
G1 X62.636 Y224.371 E339.33993
G1 X225.672 Y61.338 E349.40502
G1 X225.722 Y61.152 E349.41343
G1 X225.673 Y60.966 E349.42183
G1 X170.334 Y5.628 E352.8382
G1 X170.149 Y5.578 E352.84657
G1 X169.97 Y5.623 E352.85462
G1 X6.996 Y168.59 E362.91577
G0 F3600 X6.599 Y168.245
;TYPE:WALL-OUTER
G1 F1800 X6.465 Y168.424 E362.92553
G1 X6.38 Y168.625 E362.93506
G1 X6.353 Y168.844 E362.94469
G1 X6.38 Y169.065 E362.95441
G1 X6.462 Y169.264 E362.9638
G1 X6.602 Y169.446 E362.97383
G1 X61.854 Y224.698 E366.38486
G1 X62.033 Y224.835 E366.3947
G1 X62.233 Y224.92 E366.40419
G1 X62.453 Y224.948 E366.41387
G1 X62.674 Y224.92 E366.4236
G1 X62.87 Y224.836 E366.4329
G1 X63.054 Y224.694 E366.44305
G1 X226.002 Y61.751 E376.50265
G1 X226.139 Y61.571 E376.51252
G1 X226.224 Y61.371 E376.52201
G1 X226.251 Y61.152 E376.53164
G1 X226.224 Y60.933 E376.54128
G1 X226.139 Y60.734 E376.55072
G1 X225.998 Y60.55 E376.56084
G1 X170.747 Y5.298 E379.97185
G1 X170.567 Y5.161 E379.98172
G1 X170.367 Y5.076 E379.99121
G1 X170.149 Y5.049 E380.0008
G1 X169.929 Y5.076 E380.01047
G1 X169.73 Y5.16 E380.0199
G1 X169.55 Y5.301 E380.02988
G1 X6.599 Y168.245 E390.08961
G0 F3600 X6.48 Y168.404
G0 X7.029 Y168.753
G0 X7.451 Y168.844
;TYPE:SKIN
G1 F1800 X170.148 Y6.155 E400.13362
G1 X225.145 Y61.149 E403.52882
G1 X62.451 Y223.841 E413.57283
G1 X7.451 Y168.844 E416.96822
G1 F2700 E416.46822
G0 F3600 X7.197 Y168.589
G0 X62.39 Y224.204
G0 X63.217 Y223.59
G0 X62.775 Y223.147
G1 F2700 E416.96822
G1 F1800 X8.148 Y168.52 E420.34067
G0 F3600 X8.519 Y168.149
G1 F1800 X63.146 Y222.775 E423.71309
G0 F3600 X63.517 Y222.404
G1 F1800 X8.89 Y167.777 E427.08554
G0 F3600 X9.262 Y167.406
G1 F1800 X63.889 Y222.033 E430.45799
G0 F3600 X64.26 Y221.662
G1 F1800 X9.633 Y167.035 E433.83044
G0 F3600 X10.004 Y166.664
G1 F1800 X64.631 Y221.29 E437.20286
G0 F3600 X65.002 Y220.919
G1 F1800 X10.375 Y166.292 E440.57531
G0 F3600 X10.747 Y165.921
G1 F1800 X65.373 Y220.548 E443.94773
G0 F3600 X65.745 Y220.177
G1 F1800 X11.118 Y165.55 E447.32018
G0 F3600 X11.489 Y165.179
G1 F1800 X66.116 Y219.806 E450.69264
G0 F3600 X66.487 Y219.434
G1 F1800 X11.86 Y164.807 E454.06509
G0 F3600 X12.232 Y164.436
G1 F1800 X66.858 Y219.063 E457.43751
G0 F3600 X67.23 Y218.692
G1 F1800 X12.603 Y164.065 E460.80996
G0 F3600 X12.974 Y163.694
G1 F1800 X67.601 Y218.321 E464.18241
G0 F3600 X67.972 Y217.949
G1 F1800 X13.345 Y163.323 E467.55483
G0 F3600 X13.716 Y162.951
G1 F1800 X68.343 Y217.578 E470.92728
G0 F3600 X68.715 Y217.207
G1 F1800 X14.088 Y162.58 E474.29973
G0 F3600 X14.459 Y162.209
G1 F1800 X69.086 Y216.836 E477.67218
G0 F3600 X69.457 Y216.464
G1 F1800 X14.83 Y161.838 E481.0446
G0 F3600 X15.201 Y161.466
G1 F1800 X69.828 Y216.093 E484.41705
G0 F3600 X70.199 Y215.722
G1 F1800 X15.573 Y161.095 E487.78948
G0 F3600 X15.944 Y160.724
G1 F1800 X70.571 Y215.351 E491.16193
G0 F3600 X70.942 Y214.98
G1 F1800 X16.315 Y160.353 E494.53438
G0 F3600 X16.686 Y159.981
G1 F1800 X71.313 Y214.608 E497.90683
G0 F3600 X71.684 Y214.237
G1 F1800 X17.058 Y159.61 E501.27925
G0 F3600 X17.429 Y159.239
G1 F1800 X72.056 Y213.866 E504.6517
G0 F3600 X72.427 Y213.495
G1 F1800 X17.8 Y158.868 E508.02415
G0 F3600 X18.171 Y158.497
G1 F1800 X72.798 Y213.123 E511.39657
G0 F3600 X73.169 Y212.752
G1 F1800 X18.542 Y158.125 E514.76902
G0 F3600 X18.914 Y157.754
G1 F1800 X73.541 Y212.381 E518.14147
G0 F3600 X73.912 Y212.01
G1 F1800 X19.285 Y157.383 E521.51393
G0 F3600 X19.656 Y157.012
G1 F1800 X74.283 Y211.638 E524.88635
G0 F3600 X74.654 Y211.267
G1 F1800 X20.027 Y156.64 E528.2588
G0 F3600 X20.399 Y156.269
G1 F1800 X75.025 Y210.896 E531.63122
G0 F3600 X75.397 Y210.525
G1 F1800 X20.77 Y155.898 E535.00367
G0 F3600 X21.141 Y155.527
G1 F1800 X75.768 Y210.154 E538.37612
G0 F3600 X76.139 Y209.782
G1 F1800 X21.512 Y155.155 E541.74857
G0 F3600 X21.884 Y154.784
G1 F1800 X76.51 Y209.411 E545.12099
G0 F3600 X76.882 Y209.04
G1 F1800 X22.255 Y154.413 E548.49344
G0 F3600 X22.626 Y154.042
G1 F1800 X77.253 Y208.669 E551.86589
G0 F3600 X77.624 Y208.297
G1 F1800 X22.997 Y153.671 E555.23831
G0 F3600 X23.368 Y153.299
G1 F1800 X77.995 Y207.926 E558.61076
G0 F3600 X78.367 Y207.555
G1 F1800 X23.74 Y152.928 E561.98322
G0 F3600 X24.111 Y152.557
G1 F1800 X78.738 Y207.184 E565.35567
G0 F3600 X79.109 Y206.812
G1 F1800 X24.482 Y152.186 E568.72809
G0 F3600 X24.853 Y151.814
G1 F1800 X79.48 Y206.441 E572.10054
G0 F3600 X79.851 Y206.07
G1 F1800 X25.225 Y151.443 E575.47296
G0 F3600 X25.596 Y151.072
G1 F1800 X80.223 Y205.699 E578.84541
G0 F3600 X80.594 Y205.328
G1 F1800 X25.967 Y150.701 E582.21786
G0 F3600 X26.338 Y150.329
G1 F1800 X80.965 Y204.956 E585.59031
G0 F3600 X81.336 Y204.585
G1 F1800 X26.71 Y149.958 E588.96273
G0 F3600 X27.081 Y149.587
G1 F1800 X81.708 Y204.214 E592.33518
G0 F3600 X82.079 Y203.843
