;FLAVOR:Marlin
;TIME:20269
;Filament used: 20.0308m
;Layer height: 0.2
;MINX:37.862
;MINY:56.058
;MINZ:0.2
;MAXX:197.115
;MAXY:173.999
;MAXZ:8
;TARGET_MACHINE.NAME:ELEGOO NEPTUNE 4 Pro
;Generated with Cura_SteamEngine 5.7.2
M104 S260
M105
M109 S260
M82 ;absolute extrusion mode
;ELEGOO NEPTUNE 4 / 4 PRO
M220 S100 ;Set the feed speed to 100%
M221 S100 ;Set the flow rate to 100%
M104 S140 ;Start heating extruder
M190 S70 ;Wait for the bed to reach print temp
G90
G28 ;home
G1 Z10 F300
G1 X67.5 Y0 F6000
G1 Z0 F300
M109 S260 ;Wait for extruder to reach print temp
G92 E0 ;Reset Extruder
G1 X67.5 Y0 Z0.4 F300 ;Move to start position
G1 X167.5 E30 F400 ;Draw the first line
G1 Z0.6 F120.0 ;Move to side a little
G1 X162.5 F3000
G92 E0 ;Reset Extruder
G92 E0
G92 E0
G1 F2700 E-0.5
;LAYER_COUNT:40
;LAYER:0
M107
M204 S500
G0 F3600 X44.312 Y86.31 Z0.2
;TYPE:SKIRT
G1 F2700 E0
G1 F3600 X45.757 Y85.815 E0.06668
G1 X47.391 Y85.45 E0.13977
G1 X48.075 Y85.372 E0.16982
G1 X90.922 Y85.333 E2.04026
G1 X100.507 Y85.363 E2.45869
G1 X107.901 Y74.997 E3.01452
G1 X108.881 Y73.811 E3.08169
G1 X110.258 Y72.752 E3.15752
G1 X111.371 Y72.323 E3.20959
G1 X111.767 Y71.982 E3.2324
G1 X112.788 Y71.349 E3.28484
G1 X113.967 Y70.962 E3.33901
G1 X115.253 Y70.707 E3.39625
G1 X126.561 Y69.249 E3.89397
G1 X139.881 Y67.553 E4.48013
G1 X150.223 Y66.281 E4.93501
G1 X157.279 Y62.295 E5.28878
G1 X166.855 Y57.019 E5.76606
G1 X168.336 Y56.439 E5.83549
G1 X170.2 Y56.058 E5.91854
G1 X171.912 Y56.156 E5.9934
G1 X173.089 Y56.556 E6.04767
G1 X174.084 Y56.509 E6.09115
G1 X175.617 Y56.795 E6.15923
G1 X176.014 Y56.962 E6.17803
G1 X177.663 Y57.931 E6.26152
G1 X178.732 Y58.75 E6.32031
G1 X179.785 Y59.745 E6.38355
G1 X181.053 Y61.536 E6.47935
G1 X195.344 Y87.187 E7.76118
G1 X195.939 Y88.623 E7.82903
G1 X196.088 Y89.82 E7.88169
G1 X196.091 Y89.959 E7.88776
G1 X196.718 Y91.04 E7.94231
G1 X197.115 Y92.707 E8.01712
G1 X197.08 Y128.126 E9.5633
G1 X196.996 Y128.682 E9.58784
G1 X197.114 Y129.279 E9.61441
G1 X197.115 Y143.415 E10.2315
G1 X197.103 Y156.151 E10.78748
G1 X196.768 Y157.822 E10.86187
G1 X196.004 Y159.205 E10.93085
G1 X195.739 Y159.533 E10.94925
G1 X195.727 Y159.685 E10.95591
G1 X195.542 Y160.665 E10.99945
G1 X195.165 Y161.644 E11.04524
G1 X194.393 Y162.914 E11.11012
G1 X193.369 Y163.899 E11.17215
G1 X191.888 Y165.02 E11.25323
G1 X191.043 Y165.492 E11.29548
G1 X189.773 Y166.036 E11.3558
G1 X188.061 Y166.538 E11.43368
G1 X186.909 Y166.671 E11.4843
G1 X171.878 Y166.706 E12.14047
G1 X171.23 Y167.173 E12.17534
G1 X169.945 Y167.902 E12.23983
G1 X168.792 Y168.421 E12.29503
G1 X167.081 Y168.795 E12.37148
G1 X166.011 Y168.694 E12.4184
G1 X165.437 Y168.969 E12.44618
G1 X163.956 Y169.237 E12.51188
G1 X153.463 Y169.211 E12.96995
G1 X151.911 Y170.213 E13.05059
G1 X150.756 Y170.819 E13.10753
G1 X148.983 Y171.336 E13.18815
G1 X147.503 Y171.62 E13.25394
G1 X134.294 Y171.589 E13.83056
G1 X133.929 Y171.884 E13.85105
G1 X132.749 Y172.676 E13.91309
G1 X131.602 Y173.176 E13.96771
G1 X129.798 Y173.735 E14.05016
G1 X128.396 Y173.999 E14.11244
G1 X117.791 Y173.995 E14.57539
G1 X116.848 Y173.8 E14.61742
G1 X116.589 Y173.867 E14.6291
G1 X115.765 Y173.973 E14.66537
G1 X105.66 Y173.979 E15.10649
G1 X104.177 Y173.809 E15.17165
G1 X102.913 Y173.501 E15.22845
G1 X101.696 Y173.043 E15.28521
G1 X100.424 Y172.384 E15.34775
G1 X99.23 Y171.594 E15.41025
G1 X89.734 Y171.621 E15.82479
G1 X88.405 Y171.594 E15.88282
G1 X87.505 Y171.512 E15.92227
G1 X86.422 Y171.327 E15.97023
G1 X85.138 Y170.985 E16.02823
G1 X84.217 Y170.651 E16.071
G1 X83.344 Y170.258 E16.1128
G1 X82.088 Y169.549 E16.17576
G1 X81.249 Y168.968 E16.22031
G1 X80.383 Y168.254 E16.2693
G1 X79.646 Y167.539 E16.31413
G1 X79.05 Y166.846 E16.35403
G1 X72.633 Y166.862 E16.63416
G1 X48.28 Y166.832 E17.69726
G1 X47.161 Y166.702 E17.74644
G1 X45.758 Y166.405 E17.80905
G1 X43.982 Y165.661 E17.8931
G1 X42.61 Y164.903 E17.96153
G1 X41.604 Y163.94 E18.02232
G1 X41.25 Y163.501 E18.04694
G1 X40.605 Y162.956 E18.0838
G1 X39.812 Y162.095 E18.1349
G1 X38.877 Y160.463 E18.21701
G1 X38.381 Y159.084 E18.28098
G1 X37.968 Y157.228 E18.36399
G1 X37.862 Y155.955 E18.41975
G1 X37.896 Y95.629 E21.05322
G1 X38.033 Y94.567 E21.09996
G1 X38.44 Y92.948 E21.17284
G1 X38.998 Y91.564 E21.23798
G1 X39.367 Y90.875 E21.2721
G1 X39.943 Y90.001 E21.31779
G1 X40.718 Y89.116 E21.36915
G1 X41.171 Y88.774 E21.39392
G1 X41.68 Y88.158 E21.42881
G1 X42.6 Y87.304 E21.48361
G1 X44.312 Y86.31 E21.57002
G0 X44.531 Y86.79
G1 X45.927 Y86.312 E21.63444
G1 X47.45 Y85.972 E21.70256
G1 X48.134 Y85.894 E21.73261
G1 X90.92 Y85.858 E23.60039
G1 X100.776 Y85.889 E24.03065
G1 X108.306 Y75.331 E24.59676
G1 X109.248 Y74.191 E24.66131
G1 X110.517 Y73.215 E24.7312
G1 X111.647 Y72.779 E24.78407
G1 X112.044 Y72.428 E24.80721
G1 X113.013 Y71.827 E24.85698
G1 X114.069 Y71.477 E24.90555
G1 X115.32 Y71.228 E24.96123
G1 X126.628 Y69.77 E25.45895
G1 X139.945 Y68.074 E26.04499
G1 X150.39 Y66.789 E26.50439
G1 X157.533 Y62.755 E26.8625
G1 X167.047 Y57.508 E27.3368
G1 X168.489 Y56.943 E27.40441
G1 X170.237 Y56.586 E27.48229
G1 X171.81 Y56.676 E27.55107
G1 X173.013 Y57.085 E27.60654
G1 X174.047 Y57.036 E27.65173
G1 X175.465 Y57.301 E27.7147
G1 X175.749 Y57.415 E27.72806
G1 X177.344 Y58.348 E27.80872
G1 X178.371 Y59.132 E27.86513
G1 X179.388 Y60.093 E27.92621
G1 X180.594 Y61.792 E28.01716
G1 X194.885 Y87.443 E29.29899
G1 X195.427 Y88.757 E29.36104
G1 X195.567 Y89.885 E29.41066
G1 X195.564 Y90.097 E29.41991
G1 X196.225 Y91.236 E29.4774
G1 X196.59 Y92.77 E29.54624
G1 X196.561 Y128.048 E31.08626
G1 X196.463 Y128.7 E31.11504
G1 X196.589 Y129.279 E31.14091
G1 X196.59 Y143.415 E31.758
G1 X196.578 Y156.098 E32.31166
G1 X196.269 Y157.641 E32.38036
G1 X195.545 Y158.951 E32.4457
G1 X195.225 Y159.327 E32.46725
G1 X195.211 Y159.587 E32.47862
G1 X195.034 Y160.523 E32.5202
G1 X194.692 Y161.413 E32.56182
G1 X193.98 Y162.583 E32.62161
G1 X193.051 Y163.481 E32.67802
G1 X191.631 Y164.562 E32.75592
G1 X190.836 Y165.009 E32.79574
G1 X189.566 Y165.553 E32.85605
G1 X187.959 Y166.021 E32.92912
G1 X186.849 Y166.149 E32.97789
G1 X171.707 Y166.181 E33.6389
G1 X170.971 Y166.717 E33.67865
G1 X169.729 Y167.423 E33.74102
G1 X168.625 Y167.92 E33.79387
G1 X167.049 Y168.264 E33.86429
G1 X165.916 Y168.157 E33.91397
G1 X165.277 Y168.464 E33.94491
G1 X163.907 Y168.712 E34.00569
G1 X153.258 Y168.686 E34.47056
G1 X153.09 Y168.827 E34.48014
G1 X151.667 Y169.748 E34.55413
G1 X150.559 Y170.329 E34.60875
G1 X148.884 Y170.82 E34.68494
G1 X147.452 Y171.095 E34.7486
G1 X134.107 Y171.064 E35.33116
G1 X133.636 Y171.448 E35.35769
G1 X132.493 Y172.215 E35.41778
G1 X131.392 Y172.695 E35.47021
G1 X129.701 Y173.219 E35.54749
G1 X128.347 Y173.474 E35.60764
G1 X117.844 Y173.47 E36.06614
G1 X116.831 Y173.261 E36.11129
G1 X116.522 Y173.346 E36.12528
G1 X115.698 Y173.452 E36.16155
G1 X105.72 Y173.457 E36.59713
G1 X104.237 Y173.287 E36.66229
G1 X103.097 Y173.009 E36.71351
G1 X101.937 Y172.576 E36.76757
G1 X100.713 Y171.945 E36.82768
G1 X99.567 Y171.191 E36.88756
G1 X99.421 Y171.068 E36.8959
G1 X89.744 Y171.096 E37.31834
G1 X88.452 Y171.071 E37.37475
G1 X87.593 Y170.994 E37.4124
G1 X86.51 Y170.809 E37.46036
G1 X85.316 Y170.491 E37.5143
G1 X84.433 Y170.172 E37.55529
G1 X83.56 Y169.779 E37.59708
G1 X82.387 Y169.117 E37.65588
G1 X81.548 Y168.536 E37.70043
G1 X80.749 Y167.877 E37.74564
G1 X80.012 Y167.162 E37.79047
G1 X79.291 Y166.32 E37.83886
G1 X72.634 Y166.337 E38.12946
G1 X48.281 Y166.307 E39.19257
G1 X47.27 Y166.188 E39.23701
G1 X45.915 Y165.901 E39.29747
G1 X44.236 Y165.201 E39.37688
G1 X42.924 Y164.476 E39.44232
G1 X42.013 Y163.61 E39.49719
G1 X41.629 Y163.134 E39.52388
G1 X40.944 Y162.555 E39.56304
G1 X40.241 Y161.786 E39.60852
G1 X39.355 Y160.24 E39.68631
G1 X38.875 Y158.906 E39.7482
G1 X38.491 Y157.184 E39.82521
G1 X38.387 Y155.955 E39.87906
G1 X38.417 Y95.696 E42.5096
G1 X38.554 Y94.634 E42.55634
G1 X38.927 Y93.143 E42.62344
G1 X39.461 Y91.812 E42.68604
G1 X39.83 Y91.123 E42.72016
G1 X40.338 Y90.347 E42.76065
G1 X41.077 Y89.504 E42.80959
G1 X41.552 Y89.145 E42.83558
G1 X41.608 Y89.066 E42.83981
G1 X42.084 Y88.494 E42.87229
G1 X42.914 Y87.729 E42.92157
G1 X44.531 Y86.79 E43.0032
G0 X44.75 Y87.27
G1 X46.097 Y86.809 E43.06535
G1 X47.509 Y86.494 E43.1285
G1 X48.193 Y86.416 E43.15855
G1 X90.918 Y86.383 E45.02367
G1 X101.045 Y86.415 E45.46575
G1 X108.711 Y75.666 E46.0421
G1 X109.618 Y74.569 E46.10424
G1 X110.776 Y73.678 E46.16802
G1 X111.728 Y73.311 E46.21256
G1 X111.892 Y73.267 E46.21997
G1 X112.321 Y72.874 E46.24537
G1 X113.236 Y72.306 E46.29238
G1 X114.172 Y71.992 E46.33548
G1 X115.387 Y71.749 E46.38957
G1 X126.695 Y70.291 E46.8873
G1 X140.009 Y68.595 E47.4732
G1 X150.557 Y67.297 E47.93714
G1 X157.787 Y63.215 E48.29958
G1 X167.239 Y57.997 E48.7709
G1 X168.642 Y57.447 E48.83668
G1 X170.274 Y57.114 E48.9094
G1 X171.71 Y57.196 E48.97218
G1 X172.786 Y57.559 E49.02176
G1 X172.929 Y57.625 E49.02863
G1 X173.061 Y57.607 E49.03445
G1 X174.009 Y57.563 E49.07588
G1 X175.318 Y57.807 E49.134
G1 X175.485 Y57.869 E49.14178
G1 X177.026 Y58.766 E49.21962
G1 X178.01 Y59.514 E49.27358
G1 X178.99 Y60.44 E49.33243
G1 X180.135 Y62.048 E49.41861
G1 X194.426 Y87.699 E50.70043
G1 X194.915 Y88.892 E50.75672
G1 X195.046 Y89.95 E50.80325
G1 X195.032 Y90.262 E50.81689
G1 X195.141 Y90.407 E50.82481
G1 X195.732 Y91.432 E50.87646
G1 X196.065 Y92.832 E50.93928
G1 X196.041 Y127.972 E52.47328
G1 X195.952 Y128.583 E52.50023
G1 X195.921 Y128.695 E52.5053
G1 X196.064 Y129.279 E52.53155
G1 X196.065 Y143.415 E53.14864
G1 X196.053 Y156.045 E53.69999
G1 X195.77 Y157.457 E53.76286
G1 X195.085 Y158.697 E53.8247
G1 X194.706 Y159.121 E53.84952
G1 X194.695 Y159.49 E53.86564
G1 X194.527 Y160.38 E53.90518
G1 X194.219 Y161.182 E53.94268
G1 X193.569 Y162.25 E53.99726
G1 X192.686 Y163.103 E54.05086
G1 X191.372 Y164.105 E54.12299
G1 X190.629 Y164.526 E54.16027
G1 X189.359 Y165.07 E54.22058
G1 X187.859 Y165.504 E54.28875
G1 X186.789 Y165.627 E54.33577
G1 X171.534 Y165.656 E55.00171
G1 X170.711 Y166.261 E55.0463
G1 X169.513 Y166.944 E55.1065
G1 X168.458 Y167.419 E55.15701
G1 X167.018 Y167.733 E55.22135
G1 X165.82 Y167.62 E55.27388
G1 X165.114 Y167.96 E55.30808
G1 X163.859 Y168.187 E55.36376
G1 X153.057 Y168.161 E55.83531
G1 X152.804 Y168.387 E55.85012
G1 X151.423 Y169.283 E55.92198
G1 X150.362 Y169.839 E55.97427
G1 X148.785 Y170.304 E56.04604
G1 X147.4 Y170.57 E56.10761
G1 X133.92 Y170.539 E56.69607
G1 X133.304 Y171.041 E56.73076
G1 X132.24 Y171.753 E56.78664
G1 X131.182 Y172.214 E56.83702
G1 X129.604 Y172.703 E56.90914
G1 X128.298 Y172.949 E56.96716
G1 X117.897 Y172.945 E57.4212
G1 X116.809 Y172.72 E57.4697
G1 X116.455 Y172.825 E57.48582
G1 X115.631 Y172.931 E57.52209
G1 X105.78 Y172.935 E57.95212
G1 X104.297 Y172.765 E58.01728
G1 X103.223 Y172.499 E58.06559
G1 X102.177 Y172.109 E58.11432
G1 X101.002 Y171.506 E58.17197
G1 X99.856 Y170.752 E58.23186
G1 X99.622 Y170.542 E58.24558
G1 X89.754 Y170.571 E58.67636
G1 X88.498 Y170.548 E58.7312
G1 X87.681 Y170.476 E58.767
G1 X86.598 Y170.291 E58.81496
G1 X85.494 Y169.997 E58.86484
G1 X84.649 Y169.693 E58.90404
G1 X83.776 Y169.3 E58.94583
G1 X82.686 Y168.685 E59.00047
G1 X81.847 Y168.104 E59.04502
G1 X81.115 Y167.5 E59.08645
G1 X80.378 Y166.785 E59.13127
G1 X79.533 Y165.794 E59.18812
G1 X72.635 Y165.812 E59.48925
G1 X48.341 Y165.785 E60.54978
G1 X47.379 Y165.674 E60.59205
G1 X46.072 Y165.397 E60.65038
G1 X44.438 Y164.716 E60.72765
G1 X43.236 Y164.049 E60.78766
G1 X42.422 Y163.281 E60.83652
G1 X41.994 Y162.75 E60.86629
G1 X41.896 Y162.679 E60.87157
G1 X41.286 Y162.156 E60.90665
G1 X40.668 Y161.475 E60.94679
G1 X39.833 Y160.017 E61.02014
G1 X39.369 Y158.728 E61.07994
G1 X39.014 Y157.139 E61.15102
G1 X38.912 Y155.955 E61.2029
G1 X38.938 Y95.762 E63.83056
G1 X39.064 Y94.76 E63.87464
G1 X39.415 Y93.337 E63.93863
G1 X39.924 Y92.06 E63.99864
G1 X40.293 Y91.371 E64.03276
G1 X40.777 Y90.635 E64.07121
G1 X41.47 Y89.852 E64.11686
G1 X41.936 Y89.515 E64.14196
G1 X42.012 Y89.402 E64.14791
G1 X42.488 Y88.83 E64.18039
G1 X43.225 Y88.156 E64.22399
G1 X44.75 Y87.27 E64.30098
G0 X44.969 Y87.75
G1 X46.267 Y87.306 E64.36087
G1 X47.568 Y87.016 E64.41905
G1 X48.252 Y86.938 E64.44911
G1 X90.916 Y86.908 E66.31156
G1 X101.315 Y86.941 E66.76552
G1 X109.116 Y76.001 E67.35207
G1 X109.988 Y74.947 E67.41179
G1 X111.035 Y74.141 E67.46947
G1 X111.917 Y73.801 E67.51074
G1 X112.154 Y73.744 E67.52138
G1 X112.598 Y73.32 E67.54818
G1 X113.46 Y72.785 E67.59247
G1 X114.339 Y72.49 E67.63294
G1 X115.454 Y72.27 E67.68255
G1 X126.762 Y70.812 E68.18028
G1 X140.073 Y69.116 E68.76605
G1 X150.724 Y67.805 E69.23452
G1 X158.041 Y63.675 E69.6013
G1 X167.431 Y58.486 E70.06964
G1 X168.795 Y57.951 E70.1336
G1 X170.311 Y57.642 E70.20114
G1 X171.61 Y57.716 E70.25794
G1 X172.618 Y58.056 E70.30438
G1 X172.848 Y58.173 E70.31564
G1 X173.085 Y58.131 E70.32615
G1 X173.971 Y58.09 E70.36487
G1 X175.222 Y58.323 E70.42042
G1 X176.709 Y59.185 E70.49545
G1 X177.649 Y59.896 E70.5469
G1 X178.595 Y60.79 E70.60372
G1 X179.676 Y62.304 E70.68493
G1 X193.967 Y87.955 E71.96676
G1 X194.403 Y89.026 E72.01724
G1 X194.525 Y90.014 E72.06069
G1 X194.493 Y90.429 E72.07886
G1 X194.686 Y90.669 E72.09231
G1 X195.239 Y91.628 E72.14063
G1 X195.54 Y92.894 E72.19744
G1 X195.521 Y127.9 E73.72559
G1 X195.446 Y128.442 E73.74948
G1 X195.378 Y128.686 E73.76053
G1 X195.539 Y129.343 E73.79006
G1 X195.54 Y143.415 E74.40436
G1 X195.528 Y155.992 E74.9534
G1 X195.271 Y157.276 E75.01056
G1 X194.626 Y158.443 E75.06877
G1 X194.182 Y158.91 E75.0969
G1 X194.179 Y159.392 E75.11794
G1 X194.019 Y160.238 E75.15552
G1 X193.746 Y160.951 E75.18885
G1 X193.158 Y161.917 E75.23822
G1 X192.366 Y162.686 E75.28641
G1 X191.111 Y163.649 E75.35547
G1 X190.422 Y164.043 E75.39011
G1 X189.152 Y164.587 E75.45043
G1 X187.755 Y164.987 E75.51386
G1 X186.729 Y165.105 E75.55895
G1 X171.361 Y165.131 E76.22982
G1 X170.4 Y165.838 E76.2819
G1 X169.297 Y166.465 E76.33729
G1 X168.291 Y166.918 E76.38545
G1 X166.987 Y167.202 E76.44371
G1 X165.724 Y167.083 E76.49909
G1 X164.951 Y167.456 E76.53656
G1 X163.811 Y167.662 E76.58713
G1 X152.85 Y167.636 E77.06562
G1 X152.518 Y167.947 E77.08548
G1 X151.179 Y168.818 E77.15521
G1 X150.162 Y169.351 E77.20533
G1 X148.686 Y169.788 E77.27253
G1 X147.348 Y170.045 E77.33201
G1 X133.732 Y170.014 E77.9264
G1 X133.012 Y170.605 E77.96707
G1 X131.988 Y171.29 E78.02085
G1 X130.972 Y171.733 E78.06923
G1 X129.507 Y172.187 E78.13619
G1 X128.249 Y172.424 E78.19207
G1 X117.952 Y172.42 E78.64157
G1 X116.982 Y172.225 E78.68476
G1 X116.814 Y172.167 E78.69252
G1 X116.388 Y172.304 E78.71206
G1 X115.564 Y172.41 E78.74832
G1 X105.84 Y172.413 E79.17282
G1 X104.357 Y172.243 E79.23798
G1 X103.405 Y172.006 E79.2808
G1 X102.416 Y171.641 E79.32683
G1 X101.291 Y171.067 E79.38196
G1 X100.145 Y170.313 E79.44184
G1 X99.83 Y170.016 E79.46074
G1 X89.763 Y170.046 E79.90021
G1 X88.543 Y170.025 E79.95347
G1 X87.769 Y169.958 E79.98739
G1 X86.686 Y169.773 E80.03535
G1 X85.671 Y169.503 E80.0812
G1 X84.865 Y169.214 E80.11858
G1 X83.992 Y168.821 E80.16037
G1 X82.985 Y168.253 E80.21084
G1 X82.146 Y167.672 E80.25539
G1 X81.481 Y167.123 E80.29304
G1 X80.744 Y166.408 E80.33786
G1 X80.034 Y165.576 E80.38561
G1 X79.816 Y165.268 E80.40208
G1 X72.636 Y165.287 E80.71552
G1 X48.401 Y165.263 E81.77347
G1 X47.439 Y165.152 E81.81575
G1 X46.23 Y164.894 E81.86971
G1 X44.693 Y164.257 E81.94234
G1 X43.548 Y163.622 E81.9995
G1 X42.831 Y162.952 E82.04234
G1 X42.355 Y162.361 E82.07546
G1 X42.236 Y162.279 E82.08177
G1 X41.675 Y161.803 E82.11389
G1 X41.096 Y161.165 E82.1515
G1 X40.311 Y159.794 E82.22047
G1 X39.863 Y158.55 E82.27819
G1 X39.537 Y157.093 E82.34336
G1 X39.437 Y155.955 E82.39323
G1 X39.459 Y95.826 E85.0181
G1 X39.574 Y94.884 E85.05953
G1 X39.903 Y93.53 E85.12035
G1 X40.387 Y92.307 E85.17777
G1 X40.734 Y91.656 E85.20997
G1 X41.17 Y90.983 E85.24498
G1 X41.825 Y90.243 E85.28812
G1 X42.325 Y89.881 E85.31507
G1 X42.418 Y89.735 E85.32262
G1 X42.842 Y89.218 E85.35181
G1 X43.538 Y88.582 E85.39297
G1 X44.969 Y87.75 E85.46523
G0 X45.188 Y88.23
G1 X46.437 Y87.803 E85.52285
G1 X47.627 Y87.538 E85.57607
G1 X48.311 Y87.46 E85.60613
G1 X90.914 Y87.433 E87.46591
G1 X101.585 Y87.467 E87.93175
G1 X109.52 Y76.336 E88.52849
