;FLAVOR:Marlin
;TIME:20368
;Filament used: 20.031m
;Layer height: 0.2
;MINX:37.882
;MINY:56.057
;MINZ:0.2
;MAXX:197.137
;MAXY:173.999
;MAXZ:8
;TARGET_MACHINE.NAME:ELEGOO NEPTUNE 4 Pro
;Generated with Cura_SteamEngine 5.7.2
M104 S260
M105
M109 S260
M82 ;absolute extrusion mode
;ELEGOO NEPTUNE 4 / 4 PRO
M220 S100 ;Set the feed speed to 100%
M221 S100 ;Set the flow rate to 100%
M104 S140 ;Start heating extruder
M190 S70 ;Wait for the bed to reach print temp
G90
G28 ;home
G1 Z10 F300
G1 X67.5 Y0 F6000
G1 Z0 F300
M109 S260 ;Wait for extruder to reach print temp
G92 E0 ;Reset Extruder
G1 X67.5 Y0 Z0.4 F300 ;Move to start position
G1 X167.5 E30 F400 ;Draw the first line
G1 Z0.6 F120.0 ;Move to side a little
G1 X162.5 F3000
G92 E0 ;Reset Extruder
G92 E0
G92 E0
G1 F2700 E-0.5
;LAYER_COUNT:40
;LAYER:0
M107
M204 S500
G0 F3600 X55.309 Y59.632 Z0.2
;TYPE:SKIRT
G1 F2700 E0
G1 F3600 X56.995 Y58.128 E0.09863
G1 X58.631 Y57.15 E0.18184
G1 X60.258 Y56.584 E0.25704
G1 X61.653 Y56.533 E0.31797
G1 X61.906 Y56.556 E0.32906
G1 X62.937 Y56.201 E0.37666
G1 X64.41 Y56.057 E0.44127
G1 X65.902 Y56.284 E0.50715
G1 X67.497 Y56.75 E0.57969
G1 X68.738 Y57.297 E0.6389
G1 X77.762 Y62.322 E1.08979
G1 X84.776 Y66.281 E1.44138
G1 X95.141 Y67.552 E1.89725
G1 X108.433 Y69.248 E2.4822
G1 X120.138 Y70.766 E2.99745
G1 X121.499 Y71.04 E3.05805
G1 X123.053 Y71.812 E3.1338
G1 X123.648 Y72.346 E3.1687
G1 X124.31 Y72.588 E3.19947
G1 X125.032 Y72.946 E3.23465
G1 X126.208 Y73.92 E3.30131
G1 X127.238 Y75.176 E3.37222
G1 X134.497 Y85.364 E3.91831
G1 X144.099 Y85.332 E4.33747
G1 X186.854 Y85.366 E6.2039
G1 X187.608 Y85.455 E6.23704
G1 X189.41 Y85.873 E6.31779
G1 X190.62 Y86.335 E6.37434
G1 X192.298 Y87.207 E6.45689
G1 X193.442 Y88.261 E6.52479
G1 X193.793 Y88.752 E6.55114
G1 X194.235 Y89.087 E6.57535
G1 X195.155 Y90.025 E6.63271
G1 X195.96 Y91.469 E6.70488
G1 X196.636 Y93.184 E6.78535
G1 X196.952 Y94.482 E6.84367
G1 X197.137 Y96.238 E6.92075
G1 X197.104 Y156.547 E9.55347
G1 X196.971 Y157.619 E9.60063
G1 X196.713 Y158.75 E9.65127
G1 X196.086 Y160.438 E9.72987
G1 X195.479 Y161.57 E9.78595
G1 X194.899 Y162.394 E9.82994
G1 X194.361 Y162.987 E9.86489
G1 X193.792 Y163.463 E9.89727
G1 X193.237 Y164.115 E9.93465
G1 X192.371 Y164.909 E9.98594
G1 X190.981 Y165.683 E10.05539
G1 X189.6 Y166.253 E10.12061
G1 X188.071 Y166.688 E10.19001
G1 X186.869 Y166.825 E10.24282
G1 X162.352 Y166.861 E11.31308
G1 X155.966 Y166.846 E11.59186
G1 X155.333 Y167.559 E11.63348
G1 X154.559 Y168.302 E11.68032
G1 X153.419 Y169.209 E11.74391
G1 X152.768 Y169.64 E11.77799
G1 X151.392 Y170.387 E11.84634
G1 X150.714 Y170.681 E11.8786
G1 X149.366 Y171.136 E11.94071
G1 X148.757 Y171.291 E11.96814
G1 X147.143 Y171.553 E12.03952
G1 X146.394 Y171.609 E12.07231
G1 X145.165 Y171.62 E12.12596
G1 X135.766 Y171.594 E12.53627
G1 X134.229 Y172.635 E12.6173
G1 X132.221 Y173.508 E12.71289
G1 X130.37 Y173.881 E12.79532
G1 X128.983 Y173.998 E12.85608
G1 X119.131 Y173.994 E13.28616
G1 X118.198 Y173.801 E13.32775
G1 X117.924 Y173.869 E13.34007
G1 X116.912 Y173.986 E13.38454
G1 X107.337 Y173.999 E13.80253
G1 X105.272 Y173.75 E13.89333
G1 X104.01 Y173.442 E13.95004
G1 X102.146 Y172.617 E14.03902
G1 X100.628 Y171.587 E14.1191
G1 X87.781 Y171.596 E14.67993
G1 X86.173 Y171.414 E14.75057
G1 X84.129 Y170.785 E14.84393
G1 X82.216 Y169.662 E14.94076
G1 X81.635 Y169.21 E14.9729
G1 X71.019 Y169.237 E15.43633
G1 X69.494 Y168.935 E15.50419
G1 X68.986 Y168.703 E15.52857
G1 X68.329 Y168.801 E15.55757
G1 X66.587 Y168.547 E15.63442
G1 X65.211 Y167.975 E15.69947
G1 X63.678 Y167.178 E15.7749
G1 X63.082 Y166.705 E15.80811
G1 X48.118 Y166.669 E16.46135
G1 X47.095 Y166.54 E16.50636
G1 X46.196 Y166.341 E16.54656
G1 X44.548 Y165.772 E16.62267
G1 X43.756 Y165.385 E16.66115
G1 X42.733 Y164.763 E16.71341
G1 X41.809 Y164.064 E16.76399
G1 X40.817 Y163.168 E16.82234
G1 X39.892 Y161.831 E16.89332
G1 X39.386 Y160.478 E16.95638
G1 X39.252 Y159.534 E16.998
G1 X39.023 Y159.245 E17.0141
G1 X38.282 Y157.913 E17.08063
G1 X37.896 Y156.258 E17.15482
G1 X37.884 Y143.115 E17.72856
G1 X37.919 Y129.221 E18.33509
G1 X37.999 Y128.643 E18.36057
G1 X37.884 Y128.057 E18.38664
G1 X37.882 Y92.846 E19.92373
G1 X38.217 Y91.172 E19.99826
G1 X38.923 Y89.9 E20.06177
G1 X38.931 Y89.096 E20.09687
G1 X39.488 Y87.486 E20.17124
G1 X54.012 Y61.435 E21.47327
G1 X55.309 Y59.632 E21.57022
G0 X55.702 Y59.985
G1 X57.304 Y58.556 E21.66394
G1 X58.857 Y57.627 E21.74294
G1 X60.355 Y57.106 E21.81217
G1 X61.672 Y57.058 E21.8697
G1 X61.963 Y57.091 E21.88249
G1 X63.05 Y56.717 E21.93267
G1 X64.395 Y56.585 E21.99166
G1 X65.756 Y56.788 E22.05173
G1 X67.286 Y57.231 E22.12127
G1 X68.483 Y57.756 E22.17833
G1 X77.504 Y62.779 E22.62906
G1 X84.609 Y66.789 E22.98521
G1 X95.075 Y68.073 E23.44552
G1 X108.366 Y69.769 E24.03043
G1 X120.035 Y71.281 E24.54408
G1 X121.328 Y71.541 E24.60166
G1 X122.754 Y72.25 E24.67118
G1 X123.371 Y72.804 E24.70738
G1 X124.13 Y73.081 E24.74265
G1 X124.743 Y73.388 E24.77258
G1 X125.833 Y74.291 E24.83437
G1 X126.81 Y75.481 E24.90158
G1 X134.226 Y85.89 E25.4595
G1 X144.099 Y85.857 E25.8905
G1 X186.795 Y85.888 E27.75435
G1 X187.491 Y85.967 E27.78493
G1 X189.224 Y86.364 E27.86254
G1 X190.378 Y86.801 E27.91641
G1 X191.994 Y87.641 E27.99591
G1 X193.086 Y88.647 E28.06073
G1 X193.408 Y89.119 E28.08567
G1 X193.86 Y89.455 E28.11026
G1 X194.73 Y90.342 E28.1645
G1 X195.501 Y91.725 E28.23362
G1 X196.126 Y93.31 E28.30799
G1 X196.43 Y94.538 E28.36322
G1 X196.612 Y96.238 E28.43786
G1 X196.583 Y156.484 E31.06783
G1 X196.459 Y157.504 E31.11269
G1 X196.22 Y158.569 E31.16033
G1 X195.623 Y160.19 E31.23574
G1 X195.016 Y161.322 E31.29181
G1 X194.51 Y162.041 E31.3302
G1 X193.972 Y162.634 E31.36515
G1 X193.42 Y163.089 E31.39638
G1 X192.882 Y163.728 E31.43284
G1 X192.06 Y164.482 E31.48153
G1 X190.78 Y165.198 E31.54556
G1 X189.456 Y165.748 E31.60815
G1 X187.97 Y166.171 E31.67559
G1 X186.81 Y166.303 E31.72656
G1 X162.353 Y166.336 E32.7942
G1 X155.706 Y166.32 E33.08437
G1 X155.547 Y166.529 E33.09584
G1 X154.969 Y167.18 E33.13384
G1 X154.195 Y167.923 E33.18068
G1 X153.129 Y168.771 E33.24014
G1 X152.478 Y169.202 E33.27422
G1 X151.183 Y169.905 E33.33855
G1 X150.505 Y170.199 E33.37081
G1 X149.237 Y170.627 E33.42923
G1 X148.628 Y170.782 E33.45666
G1 X147.104 Y171.029 E33.52406
G1 X146.355 Y171.085 E33.55685
G1 X145.166 Y171.095 E33.60875
G1 X135.575 Y171.068 E34.02744
G1 X135.445 Y171.179 E34.0349
G1 X133.972 Y172.175 E34.11252
G1 X132.067 Y173.003 E34.2032
G1 X130.266 Y173.366 E34.2834
G1 X128.983 Y173.473 E34.3396
G1 X119.184 Y173.469 E34.76737
G1 X118.182 Y173.262 E34.81203
G1 X117.862 Y173.348 E34.8265
G1 X116.911 Y173.461 E34.8683
G1 X107.336 Y173.474 E35.28629
G1 X105.396 Y173.24 E35.37159
G1 X104.179 Y172.943 E35.42628
G1 X102.403 Y172.157 E35.51106
G1 X100.947 Y171.171 E35.58783
G1 X100.819 Y171.062 E35.59516
G1 X87.84 Y171.074 E36.16175
G1 X86.281 Y170.898 E36.23024
G1 X84.34 Y170.3 E36.3189
G1 X82.538 Y169.247 E36.41001
G1 X81.815 Y168.685 E36.44999
G1 X71.07 Y168.712 E36.91905
G1 X69.596 Y168.42 E36.98465
G1 X69.074 Y168.159 E37.01012
G1 X68.331 Y168.27 E37.04292
G1 X66.726 Y168.036 E37.11372
G1 X65.453 Y167.509 E37.17387
G1 X63.963 Y166.734 E37.24718
G1 X63.265 Y166.18 E37.28609
G1 X48.183 Y166.148 E37.94448
G1 X47.208 Y166.027 E37.98737
G1 X46.309 Y165.828 E38.02756
G1 X44.777 Y165.3 E38.0983
G1 X44.028 Y164.936 E38.13465
G1 X43.05 Y164.344 E38.18456
G1 X42.126 Y163.645 E38.23514
G1 X41.216 Y162.822 E38.2887
G1 X40.361 Y161.585 E38.35434
G1 X39.898 Y160.347 E38.41204
G1 X39.751 Y159.313 E38.45763
G1 X39.482 Y158.99 E38.47598
G1 X38.776 Y157.721 E38.53938
G1 X38.421 Y156.199 E38.6076
G1 X38.409 Y143.116 E39.17872
G1 X38.439 Y129.293 E39.78215
G1 X38.532 Y128.623 E39.81168
G1 X38.409 Y128.057 E39.83697
G1 X38.407 Y92.899 E41.37175
G1 X38.716 Y91.356 E41.44045
G1 X39.367 Y90.178 E41.4992
G1 X39.446 Y90.067 E41.50515
G1 X39.455 Y89.187 E41.54357
G1 X39.968 Y87.704 E41.61207
G1 X54.471 Y61.691 E42.9122
G1 X55.702 Y59.985 E43.00404
G0 X56.094 Y60.338
G1 X57.613 Y58.984 E43.09287
G1 X59.082 Y58.105 E43.1676
G1 X60.453 Y57.628 E43.23097
G1 X61.691 Y57.583 E43.28505
G1 X62.073 Y57.635 E43.30188
G1 X62.265 Y57.542 E43.31119
G1 X63.163 Y57.233 E43.35265
G1 X64.382 Y57.113 E43.40612
G1 X65.612 Y57.293 E43.46039
G1 X67.076 Y57.712 E43.52686
G1 X68.228 Y58.215 E43.58174
G1 X77.246 Y63.236 E44.03231
G1 X84.442 Y67.297 E44.39302
G1 X95.009 Y68.594 E44.85777
G1 X108.3 Y70.29 E45.44268
G1 X119.931 Y71.796 E45.95466
G1 X121.158 Y72.043 E46.0093
G1 X122.455 Y72.688 E46.07253
G1 X123.095 Y73.263 E46.11009
G1 X123.895 Y73.55 E46.14719
G1 X124.454 Y73.83 E46.17448
G1 X125.458 Y74.662 E46.2314
G1 X126.382 Y75.786 E46.29492
G1 X133.955 Y86.416 E46.86468
G1 X144.099 Y86.382 E47.30751
G1 X186.738 Y86.41 E49.16887
G1 X187.375 Y86.479 E49.19684
G1 X189.04 Y86.856 E49.27136
G1 X190.136 Y87.267 E49.32246
G1 X191.69 Y88.075 E49.39892
G1 X192.685 Y88.992 E49.45799
G1 X193.025 Y89.49 E49.48431
G1 X193.485 Y89.823 E49.5091
G1 X194.305 Y90.659 E49.56022
G1 X195.042 Y91.981 E49.6263
G1 X195.616 Y93.436 E49.69458
G1 X195.92 Y94.664 E49.7498
G1 X196.087 Y96.238 E49.8189
G1 X196.062 Y156.422 E52.44617
G1 X195.946 Y157.391 E52.48877
G1 X195.727 Y158.388 E52.53333
G1 X195.13 Y160.009 E52.60874
G1 X194.585 Y161.022 E52.65896
G1 X194.119 Y161.691 E52.69455
G1 X193.638 Y162.229 E52.72605
G1 X193.031 Y162.729 E52.76038
G1 X192.974 Y162.809 E52.76467
G1 X192.527 Y163.341 E52.795
G1 X191.75 Y164.054 E52.84104
G1 X190.577 Y164.714 E52.89979
G1 X189.312 Y165.243 E52.95965
G1 X187.869 Y165.654 E53.02515
G1 X186.751 Y165.781 E53.07427
G1 X162.354 Y165.811 E54.13929
G1 X155.444 Y165.794 E54.44094
G1 X155.154 Y166.181 E54.46205
G1 X154.605 Y166.801 E54.4982
G1 X153.831 Y167.544 E54.54504
G1 X152.839 Y168.333 E54.60037
G1 X152.188 Y168.764 E54.63445
G1 X150.974 Y169.423 E54.69475
G1 X150.296 Y169.717 E54.72702
G1 X149.108 Y170.118 E54.78175
G1 X148.499 Y170.273 E54.80918
G1 X147.065 Y170.505 E54.8726
G1 X146.316 Y170.561 E54.90539
G1 X145.168 Y170.57 E54.9555
G1 X135.374 Y170.542 E55.38305
G1 X135.151 Y170.744 E55.39618
G1 X133.715 Y171.715 E55.47186
G1 X131.91 Y172.5 E55.55778
G1 X130.222 Y172.843 E55.63298
G1 X128.983 Y172.948 E55.68726
G1 X119.237 Y172.944 E56.11271
G1 X118.159 Y172.721 E56.16076
G1 X117.798 Y172.827 E56.17719
G1 X116.91 Y172.936 E56.21624
G1 X107.335 Y172.949 E56.63423
G1 X105.52 Y172.73 E56.71404
G1 X104.348 Y172.444 E56.7667
G1 X102.66 Y171.697 E56.84728
G1 X101.241 Y170.736 E56.9221
G1 X101.022 Y170.537 E56.93501
G1 X87.899 Y170.552 E57.50788
G1 X86.388 Y170.381 E57.57427
G1 X84.553 Y169.816 E57.65808
G1 X82.86 Y168.832 E57.74356
G1 X81.995 Y168.16 E57.79138
G1 X71.121 Y168.187 E58.26608
G1 X69.698 Y167.905 E58.3294
G1 X69.174 Y167.614 E58.35557
G1 X68.333 Y167.739 E58.39268
G1 X66.863 Y167.525 E58.45753
G1 X65.695 Y167.043 E58.51269
G1 X64.248 Y166.29 E58.5839
G1 X63.448 Y165.655 E58.62849
G1 X48.247 Y165.627 E59.29207
G1 X47.32 Y165.514 E59.33284
G1 X46.479 Y165.331 E59.37041
G1 X45.005 Y164.827 E59.43841
G1 X44.299 Y164.486 E59.47264
G1 X43.367 Y163.925 E59.52013
G1 X42.443 Y163.226 E59.57071
G1 X41.612 Y162.472 E59.61969
G1 X40.831 Y161.342 E59.67965
G1 X40.41 Y160.216 E59.73213
G1 X40.29 Y159.37 E59.76943
G1 X40.282 Y159.119 E59.78039
G1 X39.941 Y158.735 E59.80281
G1 X39.27 Y157.529 E59.86306
G1 X38.946 Y156.14 E59.92532
G1 X38.934 Y143.117 E60.49383
G1 X38.959 Y129.365 E61.09416
G1 X39.034 Y128.823 E61.11804
G1 X39.078 Y128.645 E61.12605
G1 X38.934 Y128.057 E61.15248
G1 X38.932 Y92.952 E62.68495
G1 X39.215 Y91.54 E62.74781
G1 X39.827 Y90.432 E62.80307
G1 X39.969 Y90.245 E62.81332
G1 X39.979 Y89.278 E62.85553
G1 X40.448 Y87.922 E62.91817
G1 X54.93 Y61.947 E64.21641
G1 X56.094 Y60.338 E64.3031
G0 X56.486 Y60.692
G1 X57.924 Y59.41 E64.3872
G1 X59.305 Y58.584 E64.45745
G1 X60.551 Y58.15 E64.51504
G1 X61.71 Y58.108 E64.56567
G1 X62.163 Y58.18 E64.5857
G1 X62.436 Y58.038 E64.59913
G1 X63.276 Y57.749 E64.63791
G1 X64.366 Y57.642 E64.68572
G1 X65.469 Y57.798 E64.73435
G1 X66.867 Y58.193 E64.79777
G1 X67.973 Y58.674 E64.85042
G1 X76.988 Y63.693 E65.30084
G1 X84.275 Y67.805 E65.66609
G1 X94.943 Y69.115 E66.13529
G1 X108.234 Y70.811 E66.7202
G1 X119.827 Y72.311 E67.2305
G1 X120.988 Y72.545 E67.2822
G1 X122.158 Y73.127 E67.33925
G1 X122.822 Y73.724 E67.37823
G1 X123.66 Y74.02 E67.41702
G1 X124.168 Y74.274 E67.44182
G1 X125.084 Y75.034 E67.49377
G1 X125.954 Y76.091 E67.55354
G1 X133.684 Y86.942 E68.13513
G1 X144.099 Y86.907 E68.58979
G1 X186.681 Y86.932 E70.44866
G1 X187.318 Y87.001 E70.47663
G1 X188.857 Y87.348 E70.5455
G1 X189.894 Y87.733 E70.59379
G1 X191.386 Y88.509 E70.6672
G1 X192.329 Y89.378 E70.72318
G1 X192.638 Y89.859 E70.74814
G1 X193.11 Y90.191 E70.77333
G1 X193.88 Y90.976 E70.82133
G1 X194.583 Y92.237 E70.88436
G1 X195.106 Y93.562 E70.94654
G1 X195.41 Y94.79 E71.00177
G1 X195.562 Y96.238 E71.06532
G1 X195.541 Y156.361 E73.68993
G1 X195.433 Y157.278 E73.73024
G1 X195.214 Y158.275 E73.7748
G1 X194.638 Y159.826 E73.84702
G1 X194.153 Y160.724 E73.89158
G1 X193.724 Y161.345 E73.92452
G1 X193.3 Y161.828 E73.95258
G1 X192.785 Y162.262 E73.98198
G1 X192.652 Y162.35 E73.98894
G1 X192.572 Y162.471 E73.99528
G1 X192.125 Y163.003 E74.02561
G1 X191.442 Y163.625 E74.06594
G1 X190.32 Y164.256 E74.12213
G1 X189.168 Y164.738 E74.17664
G1 X187.768 Y165.137 E74.24019
G1 X186.692 Y165.259 E74.28747
G1 X162.355 Y165.286 E75.34987
G1 X155.181 Y165.268 E75.66305
G1 X154.76 Y165.834 E75.69384
G1 X154.241 Y166.422 E75.72808
G1 X153.467 Y167.165 E75.77491
G1 X152.549 Y167.895 E75.82611
G1 X151.898 Y168.326 E75.8602
G1 X150.765 Y168.941 E75.91647
G1 X150.087 Y169.235 E75.94873
G1 X148.979 Y169.609 E75.99978
G1 X148.37 Y169.764 E76.02722
G1 X147.026 Y169.981 E76.08665
G1 X146.277 Y170.037 E76.11943
G1 X145.17 Y170.045 E76.16776
G1 X135.166 Y170.016 E76.60448
G1 X134.857 Y170.309 E76.62307
G1 X133.46 Y171.253 E76.69667
G1 X131.751 Y171.997 E76.77804
G1 X130.177 Y172.32 E76.84818
G1 X128.983 Y172.423 E76.90049
G1 X119.293 Y172.419 E77.3235
G1 X118.329 Y172.224 E77.36644
G1 X118.164 Y172.168 E77.37404
G1 X117.732 Y172.306 E77.39384
G1 X116.909 Y172.411 E77.43006
G1 X107.334 Y172.424 E77.84804
G1 X105.644 Y172.22 E77.92236
G1 X104.517 Y171.945 E77.973
G1 X102.917 Y171.237 E78.04938
G1 X101.535 Y170.301 E78.12224
G1 X101.231 Y170.012 E78.14055
G1 X87.958 Y170.03 E78.71997
G1 X86.496 Y169.865 E78.7842
G1 X84.762 Y169.331 E78.8634
G1 X83.182 Y168.417 E78.94308
G1 X82.175 Y167.635 E78.99874
G1 X71.172 Y167.662 E79.47907
G1 X69.881 Y167.406 E79.53652
G1 X69.274 Y167.069 E79.56683
G1 X68.335 Y167.208 E79.60827
G1 X67.002 Y167.014 E79.66707
G1 X65.937 Y166.577 E79.71732
G1 X64.533 Y165.846 E79.78642
G1 X63.631 Y165.13 E79.8367
G1 X48.31 Y165.106 E80.50552
G1 X47.429 Y165 E80.54426
G1 X46.648 Y164.834 E80.57911
G1 X45.233 Y164.354 E80.64434
G1 X44.527 Y164.013 E80.67857
G1 X43.683 Y163.506 E80.72155
G1 X42.796 Y162.837 E80.77005
G1 X42.008 Y162.122 E80.8165
G1 X41.301 Y161.099 E80.87078
G1 X40.922 Y160.085 E80.91804
G1 X40.81 Y159.296 E80.95282
G1 X40.804 Y158.905 E80.9699
G1 X40.4 Y158.48 E80.99549
G1 X39.764 Y157.337 E81.05259
G1 X39.471 Y156.081 E81.1089
G1 X39.459 Y143.118 E81.67478
G1 X39.479 Y129.437 E82.27201
G1 X39.554 Y128.895 E82.2959
G1 X39.621 Y128.654 E82.30682
G1 X39.459 Y127.993 E82.33653
G1 X39.457 Y93.005 E83.86389
G1 X39.714 Y91.721 E83.92105
G1 X40.286 Y90.686 E83.97268
G1 X40.492 Y90.433 E83.98692
G1 X40.503 Y89.369 E84.03337
G1 X40.928 Y88.141 E84.0901
G1 X55.389 Y62.203 E85.38648
G1 X56.486 Y60.692 E85.46799
G0 X56.877 Y61.047
G1 X58.236 Y59.835 E85.54748
G1 X59.526 Y59.063 E85.61311
G1 X60.649 Y58.672 E85.66502
G1 X61.729 Y58.633 E85.71219
G1 X62.251 Y58.731 E85.73538
G1 X62.607 Y58.534 E85.75314
G1 X63.389 Y58.265 E85.78924
G1 X64.353 Y58.17 E85.83153
G1 X65.328 Y58.304 E85.87449
G1 X66.659 Y58.675 E85.93481
G1 X67.718 Y59.133 E85.98518
G1 X76.73 Y64.15 E86.43544
G1 X84.108 Y68.313 E86.80525
G1 X94.877 Y69.636 E87.2789
G1 X108.168 Y71.332 E87.86381
G1 X119.723 Y72.826 E88.37243
G1 X120.817 Y73.047 E88.42115
G1 X121.861 Y73.566 E88.47204
G1 X122.591 Y74.222 E88.51489
G1 X122.761 Y74.259 E88.52248
