;FLAVOR:Marlin
;TIME:2563
;Filament used: 2.51846m
;Layer height: 0.2
;MINX:36.989
;MINY:55.128
;MINZ:0.2
;MAXX:198.034
;MAXY:174.893
;MAXZ:0.8
;TARGET_MACHINE.NAME:ELEGOO NEPTUNE 4 Pro
;Generated with Cura_SteamEngine 5.7.2
M104 S260
M105
M109 S260
M82 ;absolute extrusion mode
;ELEGOO NEPTUNE 4 / 4 PRO
M220 S100 ;Set the feed speed to 100%
M221 S100 ;Set the flow rate to 100%
M104 S140 ;Start heating extruder
M190 S70 ;Wait for the bed to reach print temp
G90
G28 ;home
G1 Z10 F300
G1 X67.5 Y0 F6000
G1 Z0 F300
M109 S260 ;Wait for extruder to reach print temp
G92 E0 ;Reset Extruder
G1 X67.5 Y0 Z0.4 F300 ;Move to start position
G1 X167.5 E30 F400 ;Draw the first line
G1 Z0.6 F120.0 ;Move to side a little
G1 X162.5 F3000
G92 E0 ;Reset Extruder
G92 E0
G92 E0
G1 F2700 E-0.5
;LAYER_COUNT:4
;LAYER:0
M107
M204 S500
G0 F3600 X55.405 Y58.321 Z0.2
;TYPE:SKIRT
G1 F2700 E0
G1 F3600 X56.244 Y57.612 E0.04795
G1 X57.086 Y57.024 E0.09278
G1 X58.322 Y56.335 E0.15456
G1 X59.379 Y55.881 E0.20478
G1 X60.283 Y55.587 E0.24627
G1 X61.434 Y55.322 E0.29783
G1 X62.896 Y55.146 E0.36212
G1 X63.472 Y55.128 E0.38727
G1 X64.92 Y55.21 E0.45059
G1 X66.245 Y55.436 E0.50926
G1 X67.573 Y55.82 E0.56961
G1 X68.438 Y56.162 E0.61021
G1 X69.311 Y56.589 E0.65264
G1 X85.072 Y65.367 E1.44018
G1 X119.949 Y69.823 E2.97507
G1 X121.25 Y70.088 E3.03303
G1 X122.364 Y70.433 E3.08394
G1 X123.501 Y70.916 E3.13787
G1 X124.549 Y71.495 E3.19014
G1 X125.654 Y72.264 E3.24891
G1 X126.262 Y72.773 E3.28352
G1 X127.447 Y74.005 E3.35814
G1 X128.013 Y74.719 E3.39792
G1 X134.967 Y84.438 E3.91961
G1 X186.393 Y84.45 E6.16456
G1 X187.444 Y84.528 E6.21056
G1 X188.38 Y84.678 E6.25194
G1 X189.605 Y84.993 E6.30716
G1 X190.63 Y85.365 E6.35476
G1 X191.792 Y85.927 E6.41111
G1 X192.938 Y86.642 E6.47007
G1 X193.828 Y87.333 E6.51926
G1 X194.647 Y88.107 E6.56845
G1 X195.522 Y89.115 E6.62672
G1 X196.157 Y90.01 E6.67463
G1 X196.556 Y90.689 E6.70901
G1 X197.232 Y92.146 E6.77912
G1 X197.438 Y92.726 E6.80599
G1 X197.862 Y94.432 E6.88273
G1 X197.95 Y95.039 E6.90951
G1 X198.034 Y96.46 E6.97165
G1 X198.033 Y155.813 E9.56264
G1 X197.942 Y157.214 E9.62393
G1 X197.816 Y158.013 E9.65924
G1 X197.469 Y159.353 E9.71966
G1 X196.976 Y160.662 E9.78073
G1 X196.592 Y161.441 E9.81864
G1 X195.901 Y162.561 E9.87609
G1 X195.155 Y163.531 E9.92951
G1 X194.37 Y164.366 E9.97954
G1 X193.447 Y165.176 E10.03314
G1 X192.614 Y165.778 E10.07801
G1 X191.588 Y166.381 E10.12996
G1 X190.827 Y166.745 E10.16679
G1 X189.199 Y167.317 E10.24211
G1 X188.093 Y167.57 E10.29164
G1 X187.384 Y167.673 E10.32292
G1 X186.012 Y167.754 E10.38292
G1 X156.389 Y167.755 E11.67608
G1 X155.411 Y168.735 E11.73652
G1 X153.642 Y170.127 E11.83478
G1 X151.995 Y171.083 E11.91791
G1 X150.584 Y171.681 E11.98481
G1 X149.383 Y172.051 E12.03967
G1 X147.143 Y172.443 E12.13894
G1 X145.838 Y172.513 E12.19599
G1 X135.987 Y172.514 E12.62603
G1 X135.286 Y173 E12.66326
G1 X134.22 Y173.605 E12.71677
G1 X133.121 Y174.091 E12.76923
G1 X132.177 Y174.409 E12.81271
G1 X130.842 Y174.721 E12.87256
G1 X130.216 Y174.811 E12.90017
G1 X128.814 Y174.893 E12.96148
G1 X107.436 Y174.89 E13.89471
G1 X106.083 Y174.794 E13.95392
G1 X105.083 Y174.625 E13.9982
G1 X103.926 Y174.315 E14.05049
G1 X102.743 Y173.872 E14.10563
G1 X101.978 Y173.502 E14.14273
G1 X100.907 Y172.859 E14.19726
G1 X100.441 Y172.515 E14.22254
G1 X88.122 Y172.503 E14.76032
G1 X87.143 Y172.432 E14.80317
G1 X85.787 Y172.198 E14.86324
G1 X84.696 Y171.895 E14.91267
G1 X83.933 Y171.611 E14.94821
G1 X82.618 Y170.975 E15.01197
G1 X81.851 Y170.504 E15.05126
G1 X81.353 Y170.135 E15.07832
G1 X69.967 Y170.112 E15.57537
G1 X68.641 Y169.99 E15.6335
G1 X66.797 Y169.616 E15.71563
G1 X65.234 Y169.133 E15.78705
G1 X63.628 Y168.444 E15.86334
G1 X62.246 Y167.484 E15.93679
G1 X61.105 Y166.019 E16.01785
G1 X60.592 Y164.628 E16.08257
G1 X60.337 Y163.556 E16.13068
G1 X60.336 Y155.156 E16.49737
G1 X60.671 Y153.478 E16.57207
G1 X61.44 Y152.086 E16.64149
G1 X62.35 Y150.995 E16.70351
G1 X62.841 Y150.659 E16.72948
G1 X62.841 Y109.423 E18.52959
G1 X51.284 Y102.984 E19.10712
G1 X51.048 Y103.082 E19.11828
G1 X49.544 Y103.415 E19.18552
G1 X42.702 Y103.415 E19.4842
G1 X41.025 Y103.08 E19.55886
G1 X39.635 Y102.312 E19.62818
G1 X38.472 Y101.342 E19.69429
G1 X37.516 Y99.797 E19.77361
G1 X37.303 Y99.225 E19.80025
G1 X36.989 Y97.778 E19.86489
G1 X37.025 Y92.457 E20.09718
G1 X37.304 Y90.557 E20.18101
G1 X37.527 Y89.732 E20.21831
G1 X38.357 Y87.692 E20.31446
G1 X53.169 Y61.104 E21.64308
G1 X53.727 Y60.242 E21.68791
G1 X54.666 Y59.07 E21.75347
G1 X55.405 Y58.321 E21.7994
G0 X55.779 Y58.69
G1 X56.546 Y58.042 E21.84323
G1 X57.342 Y57.483 E21.88569
G1 X58.578 Y56.794 E21.94747
G1 X59.585 Y56.364 E21.99527
G1 X60.401 Y56.099 E22.03272
G1 X61.552 Y55.834 E22.08428
G1 X62.912 Y55.671 E22.14407
G1 X63.488 Y55.653 E22.16923
G1 X64.832 Y55.728 E22.22799
G1 X66.157 Y55.954 E22.28667
G1 X67.38 Y56.308 E22.34225
G1 X68.207 Y56.634 E22.38106
G1 X69.08 Y57.061 E22.42348
G1 X84.905 Y65.875 E23.21423
G1 X119.845 Y70.338 E24.75189
G1 X121.095 Y70.59 E24.80755
G1 X122.209 Y70.935 E24.85846
G1 X123.247 Y71.376 E24.9077
G1 X124.295 Y71.955 E24.95996
G1 X125.317 Y72.667 E25.01434
G1 X125.925 Y73.176 E25.04895
G1 X127.036 Y74.331 E25.11891
G1 X127.586 Y75.025 E25.15757
G1 X134.697 Y84.963 E25.69102
G1 X186.354 Y84.974 E27.94605
G1 X187.405 Y85.052 E27.99206
G1 X188.25 Y85.187 E28.02941
G1 X189.426 Y85.487 E28.0824
G1 X190.451 Y85.859 E28.13
G1 X191.562 Y86.399 E28.18392
G1 X192.617 Y87.057 E28.2382
G1 X193.468 Y87.715 E28.28516
G1 X194.251 Y88.452 E28.3321
G1 X195.094 Y89.419 E28.3881
G1 X195.704 Y90.276 E28.43402
G1 X196.103 Y90.955 E28.4684
G1 X196.737 Y92.322 E28.53418
G1 X196.943 Y92.902 E28.56105
G1 X197.342 Y94.507 E28.63325
G1 X197.43 Y95.114 E28.66002
G1 X197.509 Y96.46 E28.71888
G1 X197.509 Y155.78 E31.30843
G1 X197.423 Y157.132 E31.36757
G1 X197.297 Y157.931 E31.40288
G1 X196.977 Y159.169 E31.4587
G1 X196.504 Y160.431 E31.51754
G1 X196.145 Y161.165 E31.55321
G1 X195.454 Y162.285 E31.61066
G1 X194.772 Y163.172 E31.6595
G1 X194.023 Y163.972 E31.70734
G1 X193.139 Y164.75 E31.75875
G1 X192.306 Y165.352 E31.80361
G1 X191.361 Y165.907 E31.85145
G1 X190.6 Y166.271 E31.88828
G1 X189.026 Y166.821 E31.96106
G1 X188.018 Y167.05 E32.00619
G1 X187.309 Y167.153 E32.03746
G1 X186.012 Y167.229 E32.09418
G1 X156.115 Y167.23 E33.3993
G1 X155.874 Y167.527 E33.416
G1 X155.039 Y168.364 E33.46761
G1 X153.318 Y169.714 E33.5631
G1 X151.789 Y170.6 E33.64024
G1 X150.429 Y171.179 E33.70476
G1 X149.228 Y171.549 E33.75962
G1 X147.115 Y171.919 E33.85327
G1 X145.838 Y171.988 E33.9091
G1 X135.822 Y171.989 E34.34633
G1 X135.027 Y172.543 E34.38863
G1 X133.961 Y173.148 E34.44214
G1 X132.953 Y173.593 E34.49024
G1 X132.009 Y173.911 E34.53373
G1 X130.767 Y174.201 E34.5894
G1 X130.141 Y174.291 E34.61701
G1 X128.814 Y174.368 E34.67504
G1 X107.472 Y174.366 E35.6067
G1 X106.17 Y174.276 E35.66367
G1 X105.17 Y174.107 E35.70795
G1 X104.109 Y173.823 E35.75589
G1 X102.972 Y173.399 E35.80887
G1 X102.207 Y173.029 E35.84596
G1 X101.178 Y172.409 E35.89841
G1 X100.614 Y171.99 E35.92908
G1 X88.16 Y171.979 E36.47274
G1 X87.181 Y171.908 E36.51559
G1 X85.927 Y171.692 E36.57114
G1 X84.878 Y171.402 E36.61865
G1 X84.162 Y171.138 E36.65197
G1 X82.847 Y170.502 E36.71573
G1 X82.164 Y170.082 E36.75073
G1 X81.527 Y169.61 E36.78534
G1 X70.015 Y169.589 E37.28789
G1 X68.689 Y169.467 E37.34602
G1 X66.952 Y169.114 E37.42339
G1 X65.389 Y168.631 E37.49481
G1 X63.885 Y167.983 E37.5663
G1 X62.611 Y167.098 E37.63402
G1 X61.569 Y165.76 E37.70805
G1 X61.103 Y164.506 E37.76645
G1 X60.862 Y163.493 E37.8119
G1 X60.861 Y155.209 E38.17353
G1 X61.17 Y153.662 E38.2424
G1 X61.878 Y152.38 E38.30633
G1 X62.753 Y151.331 E38.36596
G1 X63.366 Y150.952 E38.39742
G1 X63.366 Y109.114 E40.22382
G1 X51.301 Y102.392 E40.82673
G1 X50.935 Y102.569 E40.84448
G1 X49.485 Y102.89 E40.90931
G1 X42.755 Y102.89 E41.2031
G1 X41.209 Y102.581 E41.27192
G1 X39.929 Y101.874 E41.33576
G1 X38.875 Y100.995 E41.39567
G1 X37.99 Y99.564 E41.46912
G1 X37.816 Y99.114 E41.49018
G1 X37.514 Y97.724 E41.55228
G1 X37.55 Y92.461 E41.78203
G1 X37.811 Y90.694 E41.86001
G1 X38.034 Y89.869 E41.89731
G1 X38.816 Y87.948 E41.98785
G1 X53.628 Y61.36 E43.31648
G1 X54.137 Y60.57 E43.35751
G1 X55.04 Y59.439 E43.42068
G1 X55.779 Y58.69 E43.46662
G0 X56.153 Y59.059
G1 X56.848 Y58.472 E43.50633
G1 X57.644 Y57.913 E43.54879
G1 X58.785 Y57.276 E43.60584
G1 X59.748 Y56.863 E43.65158
G1 X60.519 Y56.611 E43.68699
G1 X61.67 Y56.346 E43.73855
G1 X62.928 Y56.196 E43.79385
G1 X63.504 Y56.178 E43.81901
G1 X64.802 Y56.252 E43.87577
G1 X66.012 Y56.459 E43.92935
G1 X67.188 Y56.797 E43.98277
G1 X67.976 Y57.106 E44.01972
G1 X68.849 Y57.533 E44.06214
G1 X84.739 Y66.383 E44.85613
G1 X119.742 Y70.853 E46.39656
G1 X120.94 Y71.092 E46.44989
G1 X122.054 Y71.437 E46.5008
G1 X122.993 Y71.836 E46.54534
G1 X124.041 Y72.415 E46.5976
G1 X124.98 Y73.07 E46.64758
G1 X125.588 Y73.579 E46.6822
G1 X126.625 Y74.657 E46.7475
G1 X127.159 Y75.33 E46.785
G1 X134.427 Y85.488 E47.33025
G1 X186.316 Y85.498 E49.59541
G1 X187.324 Y85.571 E49.63953
G1 X188.121 Y85.696 E49.67475
G1 X189.247 Y85.981 E49.72545
G1 X190.272 Y86.353 E49.77305
G1 X191.285 Y86.845 E49.82221
G1 X192.297 Y87.473 E49.87421
G1 X193.109 Y88.098 E49.91894
G1 X193.856 Y88.798 E49.96363
G1 X194.667 Y89.724 E50.01736
G1 X195.251 Y90.542 E50.06124
G1 X195.65 Y91.221 E50.09562
G1 X196.242 Y92.498 E50.15706
G1 X196.448 Y93.078 E50.18393
G1 X196.822 Y94.582 E50.25159
G1 X196.91 Y95.189 E50.27836
G1 X196.984 Y96.46 E50.33394
G1 X196.985 Y155.747 E52.92205
G1 X196.904 Y157.05 E52.97904
G1 X196.778 Y157.849 E53.01435
G1 X196.469 Y159.037 E53.06794
G1 X196.032 Y160.2 E53.12217
G1 X195.673 Y160.934 E53.15784
G1 X195.037 Y161.966 E53.21076
G1 X194.388 Y162.814 E53.25738
G1 X193.676 Y163.578 E53.30297
G1 X192.831 Y164.324 E53.35217
G1 X191.998 Y164.926 E53.39704
G1 X191.134 Y165.433 E53.44077
G1 X190.373 Y165.797 E53.47759
G1 X188.909 Y166.309 E53.5453
G1 X187.943 Y166.53 E53.58856
G1 X187.234 Y166.633 E53.61983
G1 X186.012 Y166.704 E53.67327
G1 X155.862 Y166.705 E54.98944
G1 X155.502 Y167.156 E55.01463
G1 X154.667 Y167.993 E55.06624
G1 X152.995 Y169.3 E55.15888
G1 X151.582 Y170.117 E55.23013
G1 X150.274 Y170.677 E55.29225
G1 X149.073 Y171.047 E55.34711
G1 X147.086 Y171.395 E55.43517
G1 X145.838 Y171.463 E55.48973
G1 X135.621 Y171.464 E55.93574
G1 X135.428 Y171.623 E55.94666
G1 X134.768 Y172.086 E55.98185
G1 X133.702 Y172.691 E56.03536
G1 X132.785 Y173.095 E56.0791
G1 X131.841 Y173.413 E56.12258
G1 X130.692 Y173.681 E56.17409
G1 X130.066 Y173.771 E56.2017
G1 X128.814 Y173.843 E56.25644
G1 X107.507 Y173.842 E57.18658
G1 X106.257 Y173.758 E57.24127
G1 X105.257 Y173.589 E57.28554
G1 X104.292 Y173.331 E57.32915
G1 X103.201 Y172.926 E57.37995
G1 X102.436 Y172.556 E57.41704
G1 X101.491 Y171.987 E57.4652
G1 X100.788 Y171.465 E57.50342
G1 X88.198 Y171.455 E58.05303
G1 X87.219 Y171.384 E58.09587
G1 X86.066 Y171.186 E58.14694
G1 X85.06 Y170.909 E58.19249
G1 X84.344 Y170.645 E58.22581
G1 X83.121 Y170.054 E58.2851
G1 X82.477 Y169.66 E58.31806
G1 X81.701 Y169.085 E58.36022
G1 X70.063 Y169.066 E58.86827
G1 X68.737 Y168.944 E58.9264
G1 X67.107 Y168.612 E58.99901
G1 X65.544 Y168.129 E59.07043
G1 X64.14 Y167.521 E59.13722
G1 X62.976 Y166.712 E59.1991
G1 X62.033 Y165.502 E59.26607
G1 X61.614 Y164.384 E59.31819
G1 X61.387 Y163.43 E59.361
G1 X61.386 Y155.262 E59.71756
G1 X61.669 Y153.846 E59.7806
G1 X62.314 Y152.677 E59.83888
G1 X63.104 Y151.731 E59.89268
G1 X63.891 Y151.244 E59.93309
G1 X63.891 Y108.805 E61.78571
G1 X51.304 Y101.793 E62.4147
G1 X50.822 Y102.056 E62.43867
G1 X49.426 Y102.365 E62.50108
G1 X42.808 Y102.365 E62.78998
G1 X41.393 Y102.082 E62.85298
G1 X40.223 Y101.436 E62.91132
G1 X39.276 Y100.646 E62.96516
G1 X38.462 Y99.33 E63.03271
G1 X38.329 Y99.002 E63.04816
G1 X38.039 Y97.669 E63.10771
G1 X38.07 Y92.537 E63.33174
G1 X38.318 Y90.831 E63.407
G1 X38.541 Y90.006 E63.44431
G1 X39.275 Y88.204 E63.52925
G1 X54.087 Y61.616 E64.85788
G1 X54.548 Y60.897 E64.89516
G1 X55.414 Y59.808 E64.9559
G1 X56.153 Y59.059 E65.00183
G0 X56.493 Y59.459
G1 X57.15 Y58.902 E65.03943
G1 X57.946 Y58.343 E65.08189
G1 X58.992 Y57.758 E65.13421
G1 X59.913 Y57.362 E65.17797
G1 X60.637 Y57.123 E65.21126
G1 X61.788 Y56.858 E65.26282
G1 X62.944 Y56.721 E65.31364
G1 X63.52 Y56.703 E65.33879
G1 X64.771 Y56.776 E65.3935
G1 X65.868 Y56.964 E65.44208
G1 X66.997 Y57.286 E65.49333
G1 X67.745 Y57.578 E65.52839
G1 X68.618 Y58.005 E65.57081
G1 X84.573 Y66.891 E66.36805
G1 X119.675 Y71.374 E67.91283
G1 X120.785 Y71.594 E67.96223
G1 X121.899 Y71.939 E68.01314
G1 X122.739 Y72.296 E68.05298
G1 X123.787 Y72.875 E68.10525
G1 X124.643 Y73.473 E68.15083
G1 X125.251 Y73.982 E68.18545
G1 X126.214 Y74.983 E68.24608
G1 X126.732 Y75.636 E68.28247
G1 X134.157 Y86.013 E68.83949
G1 X186.279 Y86.022 E71.11482
G1 X187.243 Y86.09 E71.157
G1 X188.04 Y86.215 E71.19222
G1 X189.068 Y86.475 E71.23851
G1 X190.093 Y86.847 E71.28611
G1 X191.009 Y87.292 E71.33057
G1 X191.978 Y87.89 E71.38027
G1 X192.751 Y88.482 E71.42278
G1 X193.462 Y89.145 E71.46522
G1 X194.24 Y90.03 E71.51666
G1 X194.799 Y90.81 E71.55855
G1 X195.174 Y91.443 E71.59066
G1 X195.747 Y92.674 E71.64994
G1 X195.953 Y93.254 E71.67681
G1 X196.302 Y94.657 E71.73992
G1 X196.39 Y95.264 E71.7667
G1 X196.459 Y96.46 E71.81899
G1 X196.46 Y155.747 E74.4071
G1 X196.385 Y156.968 E74.46051
G1 X196.259 Y157.767 E74.49582
G1 X195.977 Y158.853 E74.5448
G1 X195.56 Y159.969 E74.5968
G1 X195.201 Y160.703 E74.63247
G1 X194.619 Y161.648 E74.68092
G1 X194.003 Y162.457 E74.72531
G1 X193.328 Y163.185 E74.76865
G1 X192.523 Y163.898 E74.81559
G1 X191.69 Y164.5 E74.86046
G1 X190.907 Y164.959 E74.90008
G1 X190.146 Y165.323 E74.9369
G1 X188.791 Y165.797 E74.99957
G1 X187.868 Y166.01 E75.04092
G1 X187.159 Y166.113 E75.0722
G1 X186.012 Y166.179 E75.12235
G1 X155.606 Y166.18 E76.44969
G1 X155.13 Y166.785 E76.4833
G1 X154.295 Y167.622 E76.53491
G1 X152.731 Y168.846 E76.62161
G1 X151.374 Y169.635 E76.69013
G1 X150.119 Y170.175 E76.74977
G1 X148.918 Y170.545 E76.80463
G1 X147.057 Y170.871 E76.88711
G1 X145.838 Y170.938 E76.9404
G1 X135.43 Y170.939 E77.39475
G1 X135.126 Y171.193 E77.41205
G1 X134.466 Y171.656 E77.44724
G1 X133.489 Y172.211 E77.49629
G1 X132.617 Y172.597 E77.53792
G1 X131.673 Y172.915 E77.58141
G1 X130.617 Y173.161 E77.62874
G1 X129.991 Y173.251 E77.65635
G1 X128.814 Y173.318 E77.70781
G1 X107.541 Y173.318 E78.63646
G1 X106.344 Y173.24 E78.68883
G1 X105.344 Y173.071 E78.7331
G1 X104.474 Y172.839 E78.7724
G1 X103.43 Y172.453 E78.82099
G1 X102.665 Y172.083 E78.85809
G1 X101.804 Y171.566 E78.90193
G1 X100.961 Y170.94 E78.94777
G1 X88.236 Y170.931 E79.50327
G1 X87.257 Y170.86 E79.54612
G1 X86.205 Y170.68 E79.59271
G1 X85.242 Y170.416 E79.6363
G1 X84.526 Y170.152 E79.66961
G1 X83.394 Y169.605 E79.72449
G1 X82.79 Y169.238 E79.75535
G1 X81.875 Y168.56 E79.80506
G1 X70.111 Y168.543 E80.3186
G1 X68.785 Y168.421 E80.37673
G1 X67.262 Y168.11 E80.44459
G1 X65.699 Y167.627 E80.51601
G1 X64.4 Y167.062 E80.57784
G1 X63.341 Y166.326 E80.63414
G1 X62.496 Y165.242 E80.69414
G1 X62.125 Y164.262 E80.73989
G1 X61.912 Y163.367 E80.78005
G1 X61.911 Y155.315 E81.13155
G1 X62.168 Y154.029 E81.1888
G1 X62.75 Y152.974 E81.2414
G1 X63.454 Y152.131 E81.28934
G1 X64.416 Y151.536 E81.33872
G1 X64.416 Y108.496 E83.21758
G1 X51.29 Y101.184 E83.87349
G1 X50.709 Y101.543 E83.90331
G1 X49.367 Y101.84 E83.96331
G1 X42.861 Y101.84 E84.24732
G1 X41.574 Y101.583 E84.30461
G1 X40.521 Y101.001 E84.35714
G1 X39.679 Y100.299 E84.40499
G1 X38.909 Y99.054 E84.46889
G1 X38.842 Y98.89 E84.47663
G1 X38.564 Y97.614 E84.53364
G1 X38.595 Y92.54 E84.75514
G1 X38.825 Y90.968 E84.8245
G1 X39.048 Y90.143 E84.8618
G1 X39.734 Y88.46 E84.94114
G1 X54.546 Y61.872 E86.26977
G1 X54.99 Y61.181 E86.30562
G1 X55.788 Y60.176 E86.36164
G1 X56.493 Y59.459 E86.40554
G0 X56.833 Y59.859
G1 X57.452 Y59.332 E86.44103
G1 X58.248 Y58.773 E86.48349
G1 X59.2 Y58.24 E86.53112
G1 X60.078 Y57.861 E86.57287
G1 X60.802 Y57.622 E86.60615
G1 X61.851 Y57.379 E86.65315
G1 X62.96 Y57.246 E86.70191
G1 X63.536 Y57.228 E86.72707
G1 X64.74 Y57.3 E86.77972
G1 X65.725 Y57.469 E86.82335
