;FLAVOR:Marlin
;TIME:2568
;Filament used: 2.51819m
;Layer height: 0.2
;MINX:36.965
;MINY:55.128
;MINZ:0.2
;MAXX:198.01
;MAXY:174.893
;MAXZ:0.8
;TARGET_MACHINE.NAME:ELEGOO NEPTUNE 4 Pro
;Generated with Cura_SteamEngine 5.7.2
M104 S260
M105
M109 S260
M82 ;absolute extrusion mode
;ELEGOO NEPTUNE 4 / 4 PRO
M220 S100 ;Set the feed speed to 100%
M221 S100 ;Set the flow rate to 100%
M104 S140 ;Start heating extruder
M190 S70 ;Wait for the bed to reach print temp
G90
G28 ;home
G1 Z10 F300
G1 X67.5 Y0 F6000
G1 Z0 F300
M109 S260 ;Wait for extruder to reach print temp
G92 E0 ;Reset Extruder
G1 X67.5 Y0 Z0.4 F300 ;Move to start position
G1 X167.5 E30 F400 ;Draw the first line
G1 Z0.6 F120.0 ;Move to side a little
G1 X162.5 F3000
G92 E0 ;Reset Extruder
G92 E0
G92 E0
G1 F2700 E-0.5
;LAYER_COUNT:4
;LAYER:0
M107
M204 S500
G0 F3600 X43.61 Y85.714 Z0.2
;TYPE:SKIRT
G1 F2700 E0
G1 F3600 X44.533 Y85.298 E0.0442
G1 X45.434 Y84.981 E0.08589
G1 X46.96 Y84.612 E0.15443
G1 X47.568 Y84.524 E0.18125
G1 X48.987 Y84.44 E0.2433
G1 X100.03 Y84.439 E2.47153
G1 X106.996 Y74.705 E2.99405
G1 X107.986 Y73.51 E3.0618
G1 X108.838 Y72.683 E3.11363
G1 X109.577 Y72.087 E3.15507
G1 X110.849 Y71.261 E3.22128
G1 X111.994 Y70.689 E3.27716
G1 X112.874 Y70.352 E3.31829
G1 X114.322 Y69.949 E3.38391
G1 X114.966 Y69.833 E3.41247
G1 X149.925 Y65.369 E4.95096
G1 X165.859 Y56.499 E5.74705
G1 X166.582 Y56.154 E5.78203
G1 X167.948 Y55.653 E5.84554
G1 X169.227 Y55.332 E5.90311
G1 X169.885 Y55.228 E5.93219
G1 X171.524 Y55.128 E6.00387
G1 X172.136 Y55.147 E6.0306
G1 X173.977 Y55.401 E6.11173
G1 X174.999 Y55.672 E6.15788
G1 X176.2 Y56.115 E6.21376
G1 X177.118 Y56.557 E6.25824
G1 X178.174 Y57.198 E6.31217
G1 X179.101 Y57.891 E6.36269
G1 X179.855 Y58.572 E6.40705
G1 X180.715 Y59.512 E6.46266
G1 X181.462 Y60.514 E6.51722
G1 X181.839 Y61.119 E6.54834
G1 X196.859 Y88.133 E7.89763
G1 X197.214 Y88.978 E7.93764
G1 X197.637 Y90.344 E8.00007
G1 X197.938 Y91.961 E8.07187
G1 X197.987 Y92.493 E8.09519
G1 X198.01 Y97.692 E8.32215
G1 X197.675 Y99.373 E8.39698
G1 X196.906 Y100.768 E8.46651
G1 X195.939 Y101.929 E8.53247
G1 X194.323 Y102.921 E8.61525
G1 X193.911 Y103.081 E8.63454
G1 X192.404 Y103.414 E8.70192
G1 X185.562 Y103.415 E9.0006
G1 X184.049 Y103.112 E9.06796
G1 X183.731 Y102.976 E9.08305
G1 X172.158 Y109.423 E9.66136
G1 X172.158 Y150.664 E11.46169
G1 X173.178 Y151.514 E11.51966
G1 X174.17 Y153.13 E11.60243
G1 X174.33 Y153.542 E11.62173
G1 X174.663 Y155.049 E11.6891
G1 X174.663 Y163.395 E12.05343
G1 X174.357 Y165.003 E12.12489
G1 X173.559 Y166.51 E12.19933
G1 X172.72 Y167.444 E12.25414
G1 X171.54 Y168.367 E12.31954
G1 X170.092 Y168.996 E12.38845
G1 X168.392 Y169.57 E12.46678
G1 X166.199 Y170.004 E12.56437
G1 X165.083 Y170.111 E12.61331
G1 X153.657 Y170.134 E13.1121
G1 X153.024 Y170.585 E13.14603
G1 X152.144 Y171.1 E13.19054
G1 X150.717 Y171.747 E13.25894
G1 X149.948 Y172.006 E13.29436
G1 X148.516 Y172.343 E13.35858
G1 X147.914 Y172.43 E13.38514
G1 X146.499 Y172.513 E13.44701
G1 X134.575 Y172.514 E13.96754
G1 X133.994 Y172.924 E13.99858
G1 X132.795 Y173.612 E14.05893
G1 X131.827 Y174.048 E14.10528
G1 X130.831 Y174.39 E14.15125
G1 X129.428 Y174.723 E14.21419
G1 X128.825 Y174.81 E14.24079
G1 X127.411 Y174.893 E14.30262
G1 X106.138 Y174.893 E15.23127
G1 X104.725 Y174.803 E15.29308
G1 X103.9 Y174.673 E15.32954
G1 X102.644 Y174.354 E15.38611
G1 X101.494 Y173.938 E15.4395
G1 X100.735 Y173.583 E15.47607
G1 X99.436 Y172.818 E15.54188
G1 X99.021 Y172.515 E15.56432
G1 X88.213 Y172.483 E16.03613
G1 X87.078 Y172.352 E16.086
G1 X85.762 Y172.09 E16.14458
G1 X84.223 Y171.611 E16.21494
G1 X83.105 Y171.132 E16.26804
G1 X81.583 Y170.282 E16.34414
G1 X80.491 Y169.51 E16.40252
G1 X79.612 Y168.755 E16.4531
G1 X78.647 Y167.756 E16.51374
G1 X48.595 Y167.744 E17.82562
G1 X47.616 Y167.671 E17.86848
G1 X46.266 Y167.439 E17.92828
G1 X45.384 Y167.199 E17.96818
G1 X44.145 Y166.731 E18.026
G1 X43.09 Y166.205 E18.07746
G1 X42.116 Y165.591 E18.12772
G1 X41.124 Y164.821 E18.18254
G1 X40.492 Y164.232 E18.22025
G1 X39.492 Y163.11 E18.28586
G1 X39.07 Y162.529 E18.31721
G1 X38.313 Y161.253 E18.38198
G1 X37.862 Y160.276 E18.42895
G1 X37.403 Y158.918 E18.49153
G1 X37.147 Y157.809 E18.54121
G1 X37.044 Y157.103 E18.57236
G1 X36.965 Y155.732 E18.63231
G1 X36.968 Y96.308 E21.2264
G1 X37.057 Y95.01 E21.2832
G1 X37.256 Y93.843 E21.33488
G1 X37.557 Y92.738 E21.38487
G1 X37.876 Y91.883 E21.42471
G1 X38.547 Y90.512 E21.49134
G1 X39.189 Y89.502 E21.54358
G1 X39.793 Y88.719 E21.58675
G1 X40.573 Y87.879 E21.63679
G1 X41.345 Y87.186 E21.68208
G1 X42.546 Y86.318 E21.74677
G1 X43.61 Y85.714 E21.80018
G0 X43.826 Y86.193
G1 X44.749 Y85.777 E21.84438
G1 X45.607 Y85.477 E21.88405
G1 X47.035 Y85.132 E21.94819
G1 X47.643 Y85.044 E21.975
G1 X48.987 Y84.965 E22.03378
G1 X100.3 Y84.964 E24.27379
G1 X107.423 Y75.011 E24.80808
G1 X108.39 Y73.845 E24.87421
G1 X109.168 Y73.092 E24.92147
G1 X109.907 Y72.496 E24.96292
G1 X111.084 Y71.73 E25.02422
G1 X112.183 Y71.179 E25.07789
G1 X113.015 Y70.858 E25.11682
G1 X114.416 Y70.466 E25.18033
G1 X115.033 Y70.354 E25.2077
G1 X150.091 Y65.877 E26.75055
G1 X166.085 Y56.973 E27.54965
G1 X166.808 Y56.628 E27.58462
G1 X168.128 Y56.146 E27.64597
G1 X169.309 Y55.851 E27.69911
G1 X169.967 Y55.747 E27.72819
G1 X171.508 Y55.653 E27.79559
G1 X172.12 Y55.672 E27.82231
G1 X173.844 Y55.909 E27.89828
G1 X174.818 Y56.165 E27.94224
G1 X175.974 Y56.589 E27.996
G1 X176.846 Y57.006 E28.03819
G1 X177.86 Y57.619 E28.08992
G1 X178.75 Y58.282 E28.13836
G1 X179.468 Y58.927 E28.1805
G1 X180.294 Y59.826 E28.23379
G1 X181.016 Y60.792 E28.28644
G1 X181.393 Y61.397 E28.31756
G1 X196.4 Y88.388 E29.6657
G1 X196.712 Y89.133 E29.70096
G1 X197.135 Y90.499 E29.76338
G1 X197.415 Y92.009 E29.83042
G1 X197.464 Y92.541 E29.85374
G1 X197.485 Y97.64 E30.07634
G1 X197.176 Y99.19 E30.14533
G1 X196.468 Y100.474 E30.20934
G1 X195.591 Y101.527 E30.26916
G1 X194.048 Y102.474 E30.34819
G1 X193.798 Y102.568 E30.35985
G1 X192.345 Y102.889 E30.42481
G1 X185.615 Y102.89 E30.7186
G1 X184.152 Y102.597 E30.78374
G1 X183.715 Y102.383 E30.80498
G1 X171.633 Y109.114 E31.40873
G1 X171.633 Y150.944 E33.23478
G1 X171.803 Y151.051 E33.24354
G1 X172.776 Y151.862 E33.29884
G1 X173.723 Y153.405 E33.37787
G1 X173.817 Y153.655 E33.38953
G1 X174.138 Y155.108 E33.45449
G1 X174.138 Y163.344 E33.81402
G1 X173.856 Y164.827 E33.87992
G1 X173.124 Y166.209 E33.94819
G1 X172.361 Y167.058 E33.99802
G1 X171.271 Y167.911 E34.05844
G1 X169.883 Y168.514 E34.12451
G1 X168.225 Y169.072 E34.20087
G1 X166.149 Y169.481 E34.29324
G1 X165.033 Y169.588 E34.34218
G1 X153.488 Y169.609 E34.84617
G1 X152.719 Y170.157 E34.88739
G1 X151.926 Y170.622 E34.92752
G1 X150.549 Y171.249 E34.99357
G1 X149.78 Y171.508 E35.02899
G1 X148.441 Y171.823 E35.08904
G1 X147.839 Y171.91 E35.11559
G1 X146.499 Y171.988 E35.17419
G1 X134.408 Y171.989 E35.70201
G1 X133.691 Y172.495 E35.74032
G1 X132.579 Y173.133 E35.79628
G1 X131.611 Y173.569 E35.84263
G1 X130.709 Y173.879 E35.88426
G1 X129.353 Y174.203 E35.94513
G1 X128.75 Y174.29 E35.97172
G1 X127.411 Y174.368 E36.03027
G1 X106.171 Y174.369 E36.95748
G1 X104.807 Y174.284 E37.01714
G1 X103.982 Y174.154 E37.0536
G1 X102.823 Y173.86 E37.1058
G1 X101.673 Y173.444 E37.15918
G1 X101.001 Y173.13 E37.19156
G1 X99.746 Y172.394 E37.25508
G1 X99.193 Y171.99 E37.28497
G1 X88.272 Y171.961 E37.76172
G1 X87.181 Y171.837 E37.80965
G1 X85.865 Y171.575 E37.86823
G1 X84.43 Y171.128 E37.93384
G1 X83.312 Y170.649 E37.98694
G1 X81.885 Y169.853 E38.05827
G1 X80.832 Y169.111 E38.1145
G1 X79.99 Y168.39 E38.16289
G1 X78.871 Y167.231 E38.23322
G1 X48.634 Y167.22 E39.55318
G1 X47.655 Y167.147 E39.59604
G1 X46.404 Y166.932 E39.65145
G1 X45.522 Y166.692 E39.69135
G1 X44.378 Y166.261 E39.74472
G1 X43.369 Y165.76 E39.7939
G1 X42.438 Y165.176 E39.84187
G1 X41.446 Y164.406 E39.89669
G1 X40.851 Y163.849 E39.93227
G1 X39.916 Y162.8 E39.99361
G1 X39.522 Y162.261 E40.02276
G1 X38.765 Y160.985 E40.08753
G1 X38.339 Y160.057 E40.1321
G1 X37.914 Y158.799 E40.19007
G1 X37.667 Y157.733 E40.23784
G1 X37.564 Y157.027 E40.26898
G1 X37.49 Y155.732 E40.32561
G1 X37.492 Y96.344 E42.91813
G1 X37.581 Y95.046 E42.97492
G1 X37.763 Y93.981 E43.02209
G1 X38.064 Y92.876 E43.07208
G1 X38.348 Y92.113 E43.10762
G1 X38.991 Y90.793 E43.17172
G1 X39.605 Y89.823 E43.22183
G1 X40.209 Y89.04 E43.265
G1 X40.924 Y88.27 E43.31087
G1 X41.696 Y87.577 E43.35616
G1 X42.806 Y86.774 E43.41597
G1 X43.826 Y86.193 E43.46721
G0 X44.042 Y86.672
G1 X44.965 Y86.256 E43.51141
G1 X45.731 Y85.987 E43.54685
G1 X47.11 Y85.652 E43.6088
G1 X47.718 Y85.564 E43.63561
G1 X48.987 Y85.49 E43.69111
G1 X100.57 Y85.489 E45.94291
G1 X107.85 Y75.317 E46.48896
G1 X108.756 Y74.222 E46.551
G1 X109.498 Y73.501 E46.59617
G1 X110.237 Y72.905 E46.63761
G1 X111.37 Y72.17 E46.69657
G1 X112.373 Y71.668 E46.74553
G1 X113.157 Y71.363 E46.78225
G1 X114.51 Y70.983 E46.8436
G1 X115.127 Y70.871 E46.87098
G1 X150.258 Y66.385 E48.41704
G1 X166.311 Y57.447 E49.21911
G1 X167.034 Y57.102 E49.25408
G1 X168.256 Y56.655 E49.31089
G1 X169.391 Y56.37 E49.36197
G1 X170.049 Y56.266 E49.39105
G1 X171.492 Y56.178 E49.45416
G1 X172.104 Y56.197 E49.48089
G1 X173.712 Y56.417 E49.55174
G1 X174.638 Y56.658 E49.59351
G1 X175.748 Y57.063 E49.64509
G1 X176.62 Y57.48 E49.68729
G1 X177.547 Y58.04 E49.73456
G1 X178.399 Y58.673 E49.7809
G1 X179.117 Y59.318 E49.82303
G1 X179.874 Y60.141 E49.87185
G1 X180.57 Y61.07 E49.92252
G1 X180.947 Y61.675 E49.95364
G1 X195.916 Y88.593 E51.29819
G1 X196.21 Y89.288 E51.33113
G1 X196.633 Y90.654 E51.39355
G1 X196.892 Y92.057 E51.45583
G1 X196.941 Y92.589 E51.47916
G1 X196.96 Y97.588 E51.69738
G1 X196.677 Y99.008 E51.76059
G1 X196.032 Y100.178 E51.81891
G1 X195.243 Y101.125 E51.87272
G1 X193.848 Y101.988 E51.94433
G1 X193.685 Y102.055 E51.95202
G1 X192.286 Y102.364 E52.01457
G1 X185.668 Y102.365 E52.30347
G1 X184.255 Y102.082 E52.36638
G1 X183.714 Y101.782 E52.39338
G1 X171.108 Y108.805 E53.02332
G1 X171.108 Y151.247 E54.87608
G1 X171.467 Y151.454 E54.89417
G1 X172.374 Y152.21 E54.94572
G1 X173.237 Y153.605 E55.01733
G1 X173.304 Y153.768 E55.02502
G1 X173.613 Y155.167 E55.08756
G1 X173.613 Y163.293 E55.44229
G1 X173.355 Y164.651 E55.50264
G1 X172.691 Y165.905 E55.56458
G1 X172 Y166.674 E55.60971
G1 X170.999 Y167.457 E55.66519
G1 X169.716 Y168.016 E55.72628
G1 X168.058 Y168.574 E55.80265
G1 X166.099 Y168.958 E55.88979
G1 X164.983 Y169.065 E55.93874
G1 X153.318 Y169.084 E56.44796
G1 X152.453 Y169.704 E56.49442
G1 X151.66 Y170.169 E56.53455
G1 X150.381 Y170.751 E56.59589
G1 X149.612 Y171.01 E56.63131
G1 X148.366 Y171.303 E56.68719
G1 X147.764 Y171.39 E56.71374
G1 X146.499 Y171.463 E56.76906
G1 X134.241 Y171.464 E57.30417
G1 X133.388 Y172.066 E57.34974
G1 X132.363 Y172.654 E57.40133
G1 X131.395 Y173.09 E57.44767
G1 X130.586 Y173.369 E57.48503
G1 X129.278 Y173.683 E57.54375
G1 X128.675 Y173.77 E57.57035
G1 X127.411 Y173.843 E57.62562
G1 X106.171 Y173.844 E58.55283
G1 X104.889 Y173.765 E58.6089
G1 X104.064 Y173.635 E58.64536
G1 X103.002 Y173.366 E58.69318
G1 X101.852 Y172.95 E58.74657
G1 X101.267 Y172.677 E58.77475
G1 X100.012 Y171.941 E58.83826
G1 X99.366 Y171.465 E58.87329
G1 X88.33 Y171.439 E59.35506
G1 X87.284 Y171.322 E59.401
G1 X85.968 Y171.06 E59.45958
G1 X84.637 Y170.645 E59.52044
G1 X83.519 Y170.166 E59.57354
G1 X82.187 Y169.423 E59.64012
G1 X81.173 Y168.711 E59.69421
G1 X80.368 Y168.025 E59.74038
G1 X79.095 Y166.706 E59.8204
G1 X48.673 Y166.696 E61.14844
G1 X47.694 Y166.623 E61.19129
G1 X46.542 Y166.425 E61.24232
G1 X45.66 Y166.185 E61.28222
G1 X44.61 Y165.79 E61.3312
G1 X43.647 Y165.315 E61.37807
G1 X42.759 Y164.761 E61.42376
G1 X41.805 Y164.023 E61.47641
G1 X41.21 Y163.466 E61.51199
G1 X40.339 Y162.488 E61.56916
G1 X39.974 Y161.993 E61.59601
G1 X39.217 Y160.717 E61.66078
G1 X38.817 Y159.839 E61.7029
G1 X38.425 Y158.68 E61.75631
G1 X38.187 Y157.657 E61.80216
G1 X38.084 Y156.951 E61.8333
G1 X38.015 Y155.732 E61.8866
G1 X38.016 Y96.379 E64.47759
G1 X38.099 Y95.133 E64.53211
G1 X38.27 Y94.119 E64.577
G1 X38.571 Y93.014 E64.62699
G1 X38.82 Y92.342 E64.65828
G1 X39.435 Y91.073 E64.71984
G1 X40.021 Y90.144 E64.76779
G1 X40.625 Y89.361 E64.81096
G1 X41.275 Y88.661 E64.85266
G1 X42.047 Y87.968 E64.89794
G1 X43.067 Y87.23 E64.9529
G1 X44.042 Y86.672 E65.00194
G0 X44.258 Y87.151
G1 X45.181 Y86.735 E65.04614
G1 X45.904 Y86.483 E65.07956
G1 X47.185 Y86.172 E65.13711
G1 X47.793 Y86.084 E65.16393
G1 X48.987 Y86.015 E65.21614
G1 X100.84 Y86.014 E67.47972
G1 X108.277 Y75.623 E68.03754
G1 X109.123 Y74.598 E68.09556
G1 X109.828 Y73.91 E68.13856
G1 X110.567 Y73.314 E68.18
G1 X111.606 Y72.639 E68.23409
G1 X112.565 Y72.157 E68.28095
G1 X113.3 Y71.868 E68.31542
G1 X114.604 Y71.5 E68.37457
G1 X115.221 Y71.388 E68.40195
G1 X150.425 Y66.893 E69.95122
G1 X166.566 Y57.906 E70.75769
G1 X167.215 Y57.595 E70.78911
G1 X168.385 Y57.164 E70.84354
G1 X169.473 Y56.889 E70.89253
G1 X170.131 Y56.785 E70.92161
G1 X171.476 Y56.703 E70.98043
G1 X172.088 Y56.722 E71.00716
G1 X173.581 Y56.925 E71.07293
G1 X174.459 Y57.152 E71.11252
G1 X175.522 Y57.537 E71.16188
G1 X176.394 Y57.954 E71.20407
G1 X177.235 Y58.462 E71.24696
G1 X178.048 Y59.064 E71.29112
G1 X178.766 Y59.709 E71.33326
G1 X179.454 Y60.457 E71.37762
G1 X180.124 Y61.348 E71.42629
G1 X180.501 Y61.953 E71.45741
G1 X195.432 Y88.798 E72.79836
G1 X195.726 Y89.493 E72.8313
G1 X196.117 Y90.75 E72.88877
G1 X196.369 Y92.105 E72.94894
G1 X196.418 Y92.637 E72.97226
G1 X196.435 Y97.536 E73.18612
G1 X196.178 Y98.825 E73.2435
G1 X195.594 Y99.884 E73.29629
G1 X194.894 Y100.724 E73.34402
G1 X193.572 Y101.542 E73.41189
G1 X192.227 Y101.839 E73.47202
G1 X185.721 Y101.84 E73.75603
G1 X184.438 Y101.583 E73.81315
G1 X183.714 Y101.181 E73.8493
G1 X170.583 Y108.496 E74.50547
G1 X170.583 Y151.559 E76.38533
G1 X171.131 Y151.857 E76.41257
G1 X171.973 Y152.559 E76.46042
G1 X172.791 Y153.881 E76.52829
G1 X173.088 Y155.226 E76.58841
G1 X173.088 Y163.242 E76.93834
G1 X172.854 Y164.475 E76.99313
G1 X172.258 Y165.601 E77.04875
G1 X171.639 Y166.29 E77.08918
G1 X170.727 Y167.003 E77.13971
G1 X169.549 Y167.518 E77.19584
G1 X167.891 Y168.076 E77.27221
G1 X166.049 Y168.435 E77.35413
G1 X164.933 Y168.542 E77.40307
G1 X153.124 Y168.559 E77.91858
G1 X153.005 Y168.663 E77.92548
G1 X152.187 Y169.251 E77.96946
G1 X151.394 Y169.716 E78.00959
G1 X150.213 Y170.253 E78.06622
G1 X149.444 Y170.512 E78.10164
G1 X148.291 Y170.783 E78.15335
G1 X147.689 Y170.87 E78.1799
G1 X146.499 Y170.938 E78.23193
G1 X134.028 Y170.939 E78.77634
G1 X133.788 Y171.141 E78.79004
G1 X133.085 Y171.637 E78.82759
G1 X132.147 Y172.175 E78.8748
G1 X131.179 Y172.611 E78.92114
G1 X130.463 Y172.859 E78.95422
G1 X129.203 Y173.163 E79.0108
G1 X128.6 Y173.25 E79.0374
G1 X127.411 Y173.318 E79.08939
G1 X106.171 Y173.319 E80.0166
G1 X104.971 Y173.246 E80.06908
G1 X104.146 Y173.116 E80.10554
G1 X103.18 Y172.872 E80.14903
G1 X102.074 Y172.474 E80.20035
G1 X101.489 Y172.201 E80.22853
G1 X100.322 Y171.517 E80.28758
G1 X99.729 Y171.084 E80.31963
G1 X99.559 Y170.94 E80.32936
G1 X88.387 Y170.917 E80.81706
G1 X87.387 Y170.807 E80.86098
G1 X86.071 Y170.545 E80.91955
G1 X84.844 Y170.162 E80.97566
G1 X83.726 Y169.683 E81.02876
G1 X82.489 Y168.993 E81.09059
G1 X81.475 Y168.281 E81.14468
G1 X80.746 Y167.66 E81.18649
G1 X79.608 Y166.481 E81.25802
G1 X79.38 Y166.181 E81.27447
G1 X48.712 Y166.172 E82.61325
G1 X47.733 Y166.099 E82.6561
G1 X46.68 Y165.918 E82.70274
G1 X45.798 Y165.678 E82.74265
G1 X44.841 Y165.318 E82.78728
G1 X43.924 Y164.869 E82.83185
G1 X43.079 Y164.345 E82.87526
G1 X42.164 Y163.64 E82.92568
G1 X41.569 Y163.083 E82.96126
G1 X40.762 Y162.176 E83.01426
G1 X40.397 Y161.681 E83.04111
G1 X39.695 Y160.499 E83.10112
G1 X39.295 Y159.621 E83.14324
G1 X38.936 Y158.561 E83.19209
G1 X38.707 Y157.581 E83.23603
G1 X38.604 Y156.875 E83.26717
G1 X38.54 Y155.732 E83.31715
G1 X38.54 Y96.413 E85.90665
G1 X38.617 Y95.219 E85.95889
G1 X38.777 Y94.256 E86.0015
G1 X39.064 Y93.195 E86.04948
G1 X39.293 Y92.57 E86.07854
G1 X39.88 Y91.352 E86.13756
G1 X40.437 Y90.465 E86.18328
G1 X41.041 Y89.682 E86.22645
G1 X41.626 Y89.052 E86.26398
G1 X42.398 Y88.359 E86.30927
G1 X43.374 Y87.656 E86.36178
G1 X44.258 Y87.151 E86.40622
G0 X44.475 Y87.629
