;FLAVOR:Marlin
;TIME:11898
;Filament used: 11.307m
;Layer height: 0.2
;MINX:34.706
;MINY:52.873
;MINZ:0.2
;MAXX:200.27
;MAXY:177.151
;MAXZ:8.8
;TARGET_MACHINE.NAME:ELEGOO NEPTUNE 4 Pro
;Generated with Cura_SteamEngine 5.7.2
M104 S260
M105
M109 S260
M82 ;absolute extrusion mode
;ELEGOO NEPTUNE 4 / 4 PRO
M220 S100 ;Set the feed speed to 100%
M221 S100 ;Set the flow rate to 100%
M104 S140 ;Start heating extruder
M190 S70 ;Wait for the bed to reach print temp
G90
G28 ;home
G1 Z10 F300
G1 X67.5 Y0 F6000
G1 Z0 F300
M109 S260 ;Wait for extruder to reach print temp
G92 E0 ;Reset Extruder
G1 X67.5 Y0 Z0.4 F300 ;Move to start position
G1 X167.5 E30 F400 ;Draw the first line
G1 Z0.6 F120.0 ;Move to side a little
G1 X162.5 F3000
G92 E0 ;Reset Extruder
G92 E0
G92 E0
G1 F2700 E-0.5
;LAYER_COUNT:44
;LAYER:0
M107
M204 S500
G0 F3600 X41.853 Y84.082 Z0.2
;TYPE:SKIRT
G1 F2700 E0
G1 F3600 X43.935 Y83.105 E0.1004
G1 X44.912 Y82.776 E0.1454
G1 X46.36 Y82.428 E0.21041
G1 X47.83 Y82.227 E0.27518
G1 X48.382 Y82.192 E0.29932
G1 X98.87 Y82.18 E2.50332
G1 X105.515 Y72.917 E3.00098
G1 X106.096 Y72.227 E3.04035
G1 X106.876 Y71.42 E3.08935
G1 X107.654 Y70.725 E3.13489
G1 X109.422 Y69.47 E3.22954
G1 X111.232 Y68.555 E3.31807
G1 X113.1 Y67.917 E3.40424
G1 X114.643 Y67.593 E3.47307
G1 X149.207 Y63.183 E4.99416
G1 X164.689 Y54.563 E5.7677
G1 X165.739 Y54.055 E5.81862
G1 X167.11 Y53.538 E5.88259
G1 X168.936 Y53.09 E5.96466
G1 X169.87 Y52.956 E6.00585
G1 X171.702 Y52.873 E6.08591
G1 X172.74 Y52.933 E6.1313
G1 X174.498 Y53.198 E6.20891
G1 X176.187 Y53.682 E6.28561
G1 X177.625 Y54.275 E6.35351
G1 X179.754 Y55.537 E6.46155
G1 X181.184 Y56.711 E6.54232
G1 X182.547 Y58.18 E6.6298
G1 X183.275 Y59.163 E6.68319
G1 X183.917 Y60.205 E6.73662
G1 X198.558 Y86.488 E8.04999
G1 X198.823 Y87.002 E8.07523
G1 X199.313 Y88.127 E8.1288
G1 X199.515 Y88.686 E8.15474
G1 X199.831 Y89.756 E8.20345
G1 X199.998 Y90.492 E8.23639
G1 X200.164 Y91.538 E8.28263
G1 X200.251 Y92.511 E8.32527
G1 X200.27 Y93.061 E8.3493
G1 X200.27 Y97.702 E8.55189
G1 X199.935 Y99.378 E8.62651
G1 X199.167 Y100.77 E8.69591
G1 X198.731 Y101.291 E8.72556
G1 X198.795 Y101.453 E8.73317
G1 X199.147 Y103.055 E8.80477
G1 X199.145 Y119.644 E9.52894
G1 X198.842 Y121.161 E9.59648
G1 X198.726 Y121.434 E9.60942
G1 X198.873 Y121.597 E9.61901
G1 X199.776 Y123.068 E9.69436
G1 X199.936 Y123.48 E9.71365
G1 X200.269 Y124.997 E9.78145
G1 X200.258 Y155.909 E11.13088
G1 X200.181 Y157.14 E11.18472
G1 X200.06 Y157.996 E11.22246
G1 X199.761 Y159.332 E11.28223
G1 X199.172 Y161.08 E11.36275
G1 X198.582 Y162.305 E11.4221
G1 X197.724 Y163.708 E11.4939
G1 X196.998 Y164.667 E11.5464
G1 X195.555 Y166.185 E11.63783
G1 X194.159 Y167.293 E11.71564
G1 X193.051 Y167.999 E11.77299
G1 X191.144 Y168.895 E11.86497
G1 X189.856 Y169.323 E11.92422
G1 X188.373 Y169.659 E11.9906
G1 X186.939 Y169.834 E12.05366
G1 X183.599 Y169.863 E12.19947
G1 X181.895 Y169.529 E12.27527
G1 X180.506 Y168.771 E12.34435
G1 X179.975 Y168.33 E12.37448
G1 X179.811 Y168.396 E12.3822
G1 X178.222 Y168.748 E12.45324
G1 X174.35 Y168.751 E12.62227
G1 X173.66 Y168.614 E12.65298
G1 X173.436 Y168.989 E12.67205
G1 X172.51 Y169.897 E12.72867
G1 X171.521 Y170.661 E12.78322
G1 X170.274 Y171.205 E12.84261
G1 X169.468 Y171.507 E12.88019
G1 X168.498 Y171.81 E12.92455
G1 X167.916 Y171.959 E12.95077
G1 X166.73 Y172.191 E13.00353
G1 X166.147 Y172.274 E13.02924
G1 X164.893 Y172.377 E13.08416
G1 X164.173 Y172.393 E13.1156
G1 X154.378 Y172.394 E13.54319
G1 X154.147 Y172.556 E13.55551
G1 X153.318 Y173.052 E13.59768
G1 X151.001 Y174.038 E13.7076
G1 X149.666 Y174.412 E13.76812
G1 X148.05 Y174.695 E13.83974
G1 X147.156 Y174.761 E13.87888
G1 X135.275 Y174.774 E14.39753
G1 X134.987 Y174.968 E14.41269
G1 X133.472 Y175.804 E14.48822
G1 X131.862 Y176.436 E14.56373
G1 X130.67 Y176.77 E14.61777
G1 X128.853 Y177.082 E14.69825
G1 X127.653 Y177.151 E14.75072
G1 X105.357 Y177.128 E15.72403
G1 X104.453 Y177.042 E15.76367
G1 X102.995 Y176.787 E15.82828
G1 X101.465 Y176.35 E15.89774
G1 X99.671 Y175.579 E15.98298
G1 X98.319 Y174.773 E16.0517
G1 X88.963 Y174.772 E16.46012
G1 X88.307 Y174.751 E16.48877
G1 X86.825 Y174.605 E16.55378
G1 X86.092 Y174.481 E16.58624
G1 X85.226 Y174.286 E16.62499
G1 X83.933 Y173.913 E16.68373
G1 X83.268 Y173.672 E16.71461
G1 X81.99 Y173.113 E16.7755
G1 X81.416 Y172.817 E16.8037
G1 X80.27 Y172.132 E16.86198
G1 X79.69 Y171.736 E16.89264
G1 X78.567 Y170.861 E16.95478
G1 X78.085 Y170.433 E16.98292
G1 X77.67 Y170.013 E17.0087
G1 X48.744 Y170.008 E18.27143
G1 X47.644 Y169.949 E18.31952
G1 X46.074 Y169.712 E18.38883
G1 X43.935 Y169.094 E18.48603
G1 X42.659 Y168.532 E18.5469
G1 X41.381 Y167.82 E18.61076
G1 X39.349 Y166.272 E18.72227
G1 X38.047 Y164.917 E18.8043
G1 X37.098 Y163.637 E18.87386
G1 X36.211 Y162.104 E18.95118
G1 X35.7 Y160.956 E19.00603
G1 X35.199 Y159.447 E19.07544
G1 X34.965 Y158.435 E19.12079
G1 X34.753 Y156.9 E19.18843
G1 X34.717 Y156.353 E19.21236
G1 X34.706 Y96.445 E21.82758
G1 X34.793 Y94.903 E21.895
G1 X34.922 Y94.005 E21.93461
G1 X35.215 Y92.71 E21.99257
G1 X35.854 Y90.841 E22.07879
G1 X36.392 Y89.739 E22.13233
G1 X37.256 Y88.323 E22.20474
G1 X38.105 Y87.209 E22.26588
G1 X39.558 Y85.743 E22.35599
G1 X40.805 Y84.755 E22.42544
G1 X41.853 Y84.082 E22.47981
G0 X42.077 Y84.557
G1 X44.103 Y83.603 E22.57757
G1 X45.08 Y83.274 E22.62257
G1 X46.432 Y82.948 E22.68328
G1 X47.863 Y82.751 E22.74634
G1 X48.415 Y82.716 E22.77049
G1 X99.14 Y82.705 E24.98483
G1 X105.917 Y73.255 E25.49248
G1 X106.498 Y72.565 E25.53185
G1 X107.226 Y71.812 E25.57758
G1 X108.004 Y71.117 E25.62312
G1 X109.66 Y69.938 E25.71186
G1 X111.402 Y69.052 E25.79717
G1 X113.27 Y68.414 E25.88334
G1 X114.709 Y68.114 E25.94751
G1 X149.374 Y63.691 E27.47304
G1 X164.944 Y55.022 E28.25099
G1 X165.926 Y54.546 E28.29862
G1 X167.236 Y54.048 E28.3598
G1 X169.011 Y53.61 E28.43961
G1 X169.945 Y53.476 E28.4808
G1 X171.673 Y53.397 E28.55632
G1 X172.663 Y53.452 E28.5996
G1 X174.353 Y53.703 E28.67419
G1 X176.042 Y54.187 E28.75088
G1 X177.357 Y54.727 E28.81294
G1 X179.486 Y55.989 E28.92098
G1 X180.799 Y57.068 E28.99517
G1 X182.162 Y58.537 E29.08265
G1 X182.828 Y59.438 E29.13156
G1 X183.458 Y60.46 E29.18397
G1 X198.091 Y86.729 E30.49663
G1 X198.356 Y87.243 E30.52187
G1 X198.819 Y88.306 E30.57249
G1 X199.011 Y88.835 E30.59706
G1 X199.327 Y89.905 E30.64576
G1 X199.479 Y90.574 E30.67571
G1 X199.645 Y91.62 E30.72194
G1 X199.726 Y92.529 E30.76178
G1 X199.745 Y93.079 E30.7858
G1 X199.745 Y97.649 E30.9853
G1 X199.436 Y99.195 E31.05413
G1 X198.729 Y100.475 E31.11796
G1 X198.105 Y101.223 E31.16048
G1 X198.282 Y101.566 E31.17733
G1 X198.622 Y103.113 E31.24648
G1 X198.62 Y119.591 E31.96581
G1 X198.327 Y121.058 E32.03111
G1 X198.081 Y121.55 E32.05513
G1 X198.426 Y121.872 E32.07573
G1 X199.329 Y123.343 E32.15108
G1 X199.423 Y123.593 E32.16274
G1 X199.744 Y125.055 E32.22808
G1 X199.734 Y155.877 E33.57358
G1 X199.661 Y157.067 E33.62563
G1 X199.54 Y157.923 E33.66336
G1 X199.263 Y159.164 E33.71887
G1 X198.674 Y160.912 E33.79939
G1 X198.134 Y162.032 E33.85367
G1 X197.305 Y163.391 E33.92317
G1 X196.579 Y164.35 E33.97567
G1 X195.228 Y165.774 E34.06136
G1 X193.877 Y166.85 E34.13676
G1 X192.769 Y167.556 E34.19411
G1 X190.977 Y168.397 E34.28052
G1 X189.739 Y168.811 E34.33751
G1 X188.308 Y169.138 E34.40159
G1 X186.934 Y169.309 E34.46203
G1 X183.647 Y169.338 E34.60553
G1 X182.077 Y169.03 E34.67537
G1 X180.8 Y168.333 E34.73888
G1 X180.041 Y167.703 E34.78194
G1 X179.697 Y167.883 E34.79889
G1 X178.162 Y168.223 E34.86752
G1 X174.401 Y168.226 E35.0317
G1 X173.377 Y168.023 E35.07728
G1 X173.067 Y168.615 E35.10645
G1 X172.189 Y169.481 E35.16028
G1 X171.249 Y170.207 E35.21213
G1 X170.09 Y170.713 E35.26734
G1 X169.284 Y171.015 E35.30491
G1 X168.368 Y171.301 E35.3468
G1 X167.786 Y171.45 E35.37303
G1 X166.656 Y171.671 E35.42329
G1 X166.073 Y171.754 E35.449
G1 X164.881 Y171.852 E35.50121
G1 X164.173 Y171.868 E35.53212
G1 X154.212 Y171.869 E35.96696
G1 X153.877 Y172.105 E35.98485
G1 X153.048 Y172.601 E36.02702
G1 X150.859 Y173.532 E36.13086
G1 X149.524 Y173.906 E36.19139
G1 X148.011 Y174.171 E36.25844
G1 X147.117 Y174.237 E36.29757
G1 X135.114 Y174.249 E36.82155
G1 X134.733 Y174.508 E36.84166
G1 X133.218 Y175.344 E36.9172
G1 X131.72 Y175.93 E36.98742
G1 X130.528 Y176.264 E37.04146
G1 X128.823 Y176.558 E37.11699
G1 X127.653 Y176.626 E37.16815
G1 X105.407 Y176.605 E38.13927
G1 X104.503 Y176.519 E38.17891
G1 X103.138 Y176.282 E38.23939
G1 X101.671 Y175.867 E38.30595
G1 X99.94 Y175.128 E38.38811
G1 X98.464 Y174.248 E38.46313
G1 X88.98 Y174.247 E38.87714
G1 X88.324 Y174.226 E38.90579
G1 X86.913 Y174.087 E38.96769
G1 X86.18 Y173.963 E39.00014
G1 X85.342 Y173.774 E39.03764
G1 X84.112 Y173.419 E39.09353
G1 X83.447 Y173.178 E39.1244
G1 X82.231 Y172.646 E39.18234
G1 X81.657 Y172.35 E39.21054
G1 X80.566 Y171.698 E39.26602
G1 X79.986 Y171.302 E39.29668
G1 X78.916 Y170.468 E39.3559
G1 X78.434 Y170.04 E39.38404
G1 X77.89 Y169.488 E39.41787
G1 X48.771 Y169.484 E40.68903
G1 X47.721 Y169.43 E40.73493
G1 X46.219 Y169.207 E40.80121
G1 X44.146 Y168.613 E40.89535
G1 X42.915 Y168.073 E40.95403
G1 X41.637 Y167.361 E41.0179
G1 X39.727 Y165.907 E41.12268
G1 X38.469 Y164.604 E41.20175
G1 X37.52 Y163.324 E41.27131
G1 X36.691 Y161.891 E41.34358
G1 X36.18 Y160.743 E41.39843
G1 X35.711 Y159.329 E41.46347
G1 X35.477 Y158.317 E41.50881
G1 X35.277 Y156.866 E41.57275
G1 X35.241 Y156.319 E41.59668
G1 X35.231 Y96.445 E44.21042
G1 X35.313 Y94.976 E44.27464
G1 X35.434 Y94.12 E44.31238
G1 X35.712 Y92.879 E44.3679
G1 X36.326 Y91.071 E44.45125
G1 X36.864 Y89.969 E44.50479
G1 X37.675 Y88.64 E44.57275
G1 X38.479 Y87.578 E44.6309
G1 X39.885 Y86.154 E44.71826
G1 X41.091 Y85.196 E44.78549
G1 X42.077 Y84.557 E44.83679
G0 X42.363 Y84.998
G1 X44.271 Y84.101 E44.92882
G1 X45.248 Y83.772 E44.97383
G1 X46.554 Y83.459 E45.03245
G1 X47.896 Y83.275 E45.09158
G1 X48.448 Y83.24 E45.11573
G1 X99.41 Y83.23 E47.34042
G1 X106.319 Y73.593 E47.85806
G1 X106.9 Y72.903 E47.89744
G1 X107.576 Y72.204 E47.93988
G1 X108.354 Y71.509 E47.98543
G1 X109.899 Y70.405 E48.06832
G1 X111.572 Y69.549 E48.15036
G1 X113.44 Y68.911 E48.23653
G1 X114.775 Y68.635 E48.29604
G1 X149.541 Y64.199 E49.82602
G1 X165.174 Y55.494 E50.60713
G1 X166.113 Y55.037 E50.65271
G1 X167.423 Y54.539 E50.71389
G1 X169.086 Y54.13 E50.78865
G1 X170.02 Y53.996 E50.82984
G1 X171.645 Y53.921 E50.90086
G1 X172.587 Y53.972 E50.94204
G1 X174.208 Y54.208 E51.01355
G1 X175.897 Y54.692 E51.09025
G1 X177.09 Y55.179 E51.1465
G1 X179.154 Y56.396 E51.2511
G1 X180.415 Y57.426 E51.32217
G1 X181.74 Y58.85 E51.40708
G1 X182.381 Y59.714 E51.45405
G1 X182.999 Y60.715 E51.5054
G1 X197.624 Y86.97 E52.81736
G1 X197.889 Y87.484 E52.8426
G1 X198.325 Y88.485 E52.89026
G1 X198.517 Y89.014 E52.91483
G1 X198.815 Y90.022 E52.96072
G1 X198.96 Y90.656 E52.98911
G1 X199.126 Y91.702 E53.03534
G1 X199.201 Y92.547 E53.07237
G1 X199.22 Y93.097 E53.0964
G1 X199.22 Y97.596 E53.2928
G1 X198.937 Y99.011 E53.35579
G1 X198.291 Y100.181 E53.41413
G1 X197.613 Y100.994 E53.46035
G1 X197.436 Y101.14 E53.47036
G1 X197.769 Y101.679 E53.49802
G1 X198.097 Y103.171 E53.56471
G1 X198.095 Y119.538 E54.27919
G1 X197.812 Y120.955 E54.34227
G1 X197.409 Y121.676 E54.37833
G1 X197.98 Y122.148 E54.41067
G1 X198.843 Y123.543 E54.48228
G1 X198.91 Y123.706 E54.48997
G1 X199.219 Y125.113 E54.55286
G1 X199.21 Y155.846 E55.89447
G1 X199.141 Y156.994 E55.94468
G1 X199.02 Y157.85 E55.98242
G1 X198.765 Y158.996 E56.03367
G1 X198.176 Y160.744 E56.11419
G1 X197.685 Y161.759 E56.16341
G1 X196.886 Y163.074 E56.23058
G1 X196.16 Y164.033 E56.28309
G1 X194.848 Y165.412 E56.36618
G1 X193.595 Y166.407 E56.43603
G1 X192.487 Y167.113 E56.49338
G1 X190.81 Y167.899 E56.57423
G1 X189.621 Y168.299 E56.62899
G1 X188.242 Y168.617 E56.69077
G1 X186.929 Y168.784 E56.74855
G1 X183.695 Y168.813 E56.88973
G1 X182.259 Y168.531 E56.95362
G1 X181.094 Y167.895 E57.01156
G1 X180.276 Y167.216 E57.05797
G1 X180.126 Y167.034 E57.06826
G1 X179.583 Y167.37 E57.09614
G1 X178.102 Y167.698 E57.16236
G1 X174.452 Y167.701 E57.32169
G1 X173.094 Y167.432 E57.38213
G1 X172.64 Y168.298 E57.42481
G1 X171.82 Y169.107 E57.4751
G1 X170.98 Y169.752 E57.52133
G1 X169.906 Y170.221 E57.57249
G1 X169.1 Y170.523 E57.61006
G1 X168.238 Y170.792 E57.64948
G1 X167.656 Y170.941 E57.67571
G1 X166.582 Y171.151 E57.72348
G1 X165.999 Y171.234 E57.74919
G1 X164.869 Y171.327 E57.79868
G1 X164.173 Y171.343 E57.82907
G1 X154.045 Y171.344 E58.2712
G1 X153.607 Y171.654 E58.29463
G1 X152.778 Y172.15 E58.3368
G1 X150.717 Y173.026 E58.43456
G1 X149.382 Y173.4 E58.49508
G1 X147.972 Y173.647 E58.55757
G1 X147.078 Y173.713 E58.5967
G1 X134.951 Y173.724 E59.12609
G1 X134.478 Y174.049 E59.15115
G1 X133.026 Y174.855 E59.22364
G1 X131.578 Y175.424 E59.29156
G1 X130.386 Y175.758 E59.3456
G1 X128.792 Y176.034 E59.41622
G1 X127.653 Y176.101 E59.46602
G1 X105.457 Y176.082 E60.43497
G1 X104.553 Y175.996 E60.47461
G1 X103.279 Y175.776 E60.53105
G1 X101.877 Y175.384 E60.5946
G1 X100.146 Y174.645 E60.67676
G1 X98.609 Y173.723 E60.755
G1 X88.997 Y173.722 E61.1746
G1 X88.341 Y173.701 E61.20326
G1 X87.001 Y173.569 E61.26204
G1 X86.268 Y173.445 E61.29449
G1 X85.458 Y173.262 E61.33074
G1 X84.291 Y172.925 E61.38377
G1 X83.626 Y172.684 E61.41464
G1 X82.472 Y172.179 E61.46963
G1 X81.898 Y171.883 E61.49782
G1 X80.862 Y171.264 E61.55051
G1 X80.282 Y170.868 E61.58117
G1 X79.265 Y170.075 E61.63746
G1 X78.783 Y169.647 E61.6656
G1 X78.109 Y168.963 E61.70752
G1 X48.797 Y168.96 E62.98711
G1 X47.796 Y168.91 E63.03086
G1 X46.362 Y168.702 E63.09411
G1 X44.356 Y168.132 E63.18515
G1 X43.171 Y167.614 E63.24161
G1 X41.893 Y166.902 E63.30547
G1 X40.104 Y165.541 E63.4036
G1 X38.891 Y164.291 E63.47963
G1 X37.942 Y163.011 E63.54919
G1 X37.171 Y161.678 E63.61642
G1 X36.66 Y160.53 E63.67127
G1 X36.223 Y159.211 E63.73193
G1 X35.989 Y158.199 E63.77727
G1 X35.801 Y156.832 E63.83751
G1 X35.765 Y156.285 E63.86144
G1 X35.756 Y96.445 E66.47369
G1 X35.833 Y95.049 E66.53472
G1 X35.954 Y94.193 E66.57246
G1 X36.209 Y93.047 E66.62371
G1 X36.798 Y91.301 E66.70415
G1 X37.313 Y90.242 E66.75556
G1 X38.094 Y88.957 E66.8212
G1 X38.898 Y87.895 E66.87935
G1 X40.212 Y86.565 E66.96097
G1 X41.377 Y85.637 E67.02599
G1 X42.363 Y84.998 E67.07728
G0 X42.649 Y85.439
G1 X44.439 Y84.598 E67.16361
G1 X45.37 Y84.283 E67.20652
G1 X46.676 Y83.97 E67.26514
G1 X47.929 Y83.799 E67.32035
G1 X48.481 Y83.764 E67.3445
G1 X99.68 Y83.755 E69.57953
G1 X106.721 Y73.931 E70.10716
G1 X107.302 Y73.241 E70.14654
G1 X107.926 Y72.596 E70.18572
G1 X108.704 Y71.901 E70.23126
G1 X110.14 Y70.872 E70.30838
G1 X111.742 Y70.046 E70.38706
G1 X113.61 Y69.408 E70.47323
G1 X114.841 Y69.156 E70.52808
G1 X149.708 Y64.707 E72.0625
G1 X165.405 Y55.966 E72.84682
G1 X166.3 Y55.528 E72.89032
G1 X167.61 Y55.03 E72.9515
G1 X169.161 Y54.65 E73.02121
G1 X170.095 Y54.516 E73.0624
G1 X171.617 Y54.445 E73.12891
G1 X172.511 Y54.492 E73.16799
G1 X174.132 Y54.728 E73.2395
G1 X175.751 Y55.196 E73.31307
G1 X176.823 Y55.631 E73.36357
G1 X178.887 Y56.848 E73.46817
G1 X180.031 Y57.784 E73.5327
G1 X181.318 Y59.163 E73.61504
G1 X181.959 Y60.027 E73.662
G1 X182.54 Y60.97 E73.71035
G1 X197.157 Y87.211 E75.02161
G1 X197.422 Y87.725 E75.04685
G1 X197.831 Y88.664 E75.09156
G1 X198.023 Y89.193 E75.11613
G1 X198.311 Y90.17 E75.16059
G1 X198.441 Y90.738 E75.18603
G1 X198.607 Y91.784 E75.23226
G1 X198.676 Y92.565 E75.26649
G1 X198.695 Y93.115 E75.29051
G1 X198.695 Y97.543 E75.48381
G1 X198.438 Y98.83 E75.5411
G1 X197.856 Y99.883 E75.59363
G1 X197.21 Y100.658 E75.63767
G1 X196.726 Y100.99 E75.66329
G1 X197.275 Y101.877 E75.70883
G1 X197.572 Y103.229 E75.76926
G1 X197.57 Y119.485 E76.47889
G1 X197.313 Y120.773 E76.53623
G1 X196.737 Y121.802 E76.58771
G1 X197.581 Y122.5 E76.63552
G1 X198.397 Y123.819 E76.70323
G1 X198.694 Y125.171 E76.76365
G1 X198.686 Y155.815 E78.10138
G1 X198.621 Y156.921 E78.14975
G1 X198.507 Y157.737 E78.18572
G1 X198.267 Y158.829 E78.23452
G1 X197.703 Y160.515 E78.31213
G1 X197.212 Y161.53 E78.36136
G1 X196.467 Y162.757 E78.42402
G1 X195.741 Y163.716 E78.47653
G1 X194.521 Y165.001 E78.55388
G1 X193.311 Y165.965 E78.62141
G1 X192.263 Y166.638 E78.67578
G1 X190.641 Y167.402 E78.75405
