;FLAVOR:Marlin
;TIME:11618
;Filament used: 11.3087m
;Layer height: 0.2
;MINX:34.728
;MINY:52.868
;MINZ:0.2
;MAXX:200.294
;MAXY:177.151
;MAXZ:8.8
;TARGET_MACHINE.NAME:ELEGOO NEPTUNE 4 Pro
;Generated with Cura_SteamEngine 5.7.2
M104 S260
M105
M109 S260
M82 ;absolute extrusion mode
;ELEGOO NEPTUNE 4 / 4 PRO
M220 S100 ;Set the feed speed to 100%
M221 S100 ;Set the flow rate to 100%
M104 S140 ;Start heating extruder
M190 S70 ;Wait for the bed to reach print temp
G90
G28 ;home
G1 Z10 F300
G1 X67.5 Y0 F6000
G1 Z0 F300
M109 S260 ;Wait for extruder to reach print temp
G92 E0 ;Reset Extruder
G1 X67.5 Y0 Z0.4 F300 ;Move to start position
G1 X167.5 E30 F400 ;Draw the first line
G1 Z0.6 F120.0 ;Move to side a little
G1 X162.5 F3000
G92 E0 ;Reset Extruder
G92 E0
G92 E0
G1 F2700 E-0.5
;LAYER_COUNT:44
;LAYER:0
M107
M204 S500
G0 F3600 X53.82 Y56.714 Z0.2
;TYPE:SKIRT
G1 F2700 E0
G1 F3600 X55.065 Y55.667 E0.07101
G1 X56.503 Y54.736 E0.1458
G1 X57.545 Y54.199 E0.19697
G1 X59.215 Y53.551 E0.27517
G1 X60.807 Y53.133 E0.34702
G1 X62.759 Y52.891 E0.43288
G1 X63.57 Y52.868 E0.4683
G1 X65.308 Y52.982 E0.54433
G1 X67.406 Y53.387 E0.63761
G1 X68.24 Y53.655 E0.67585
G1 X69.344 Y54.093 E0.7277
G1 X70.269 Y54.537 E0.77249
G1 X85.792 Y63.183 E1.54815
G1 X120.71 Y67.653 E3.0849
G1 X122.103 Y67.975 E3.14731
G1 X124.397 Y68.834 E3.25425
G1 X125.892 Y69.662 E3.32885
G1 X127.758 Y71.073 E3.43097
G1 X128.907 Y72.231 E3.50219
G1 X129.665 Y73.147 E3.55409
G1 X136.129 Y82.18 E4.03898
G1 X186.212 Y82.181 E6.2253
G1 X186.862 Y82.206 E6.25369
G1 X188.238 Y82.357 E6.31412
G1 X189.086 Y82.519 E6.35181
G1 X190.318 Y82.851 E6.40751
G1 X191.955 Y83.477 E6.48402
G1 X193.156 Y84.091 E6.5429
G1 X194.481 Y84.967 E6.61224
G1 X195.554 Y85.843 E6.67271
G1 X196.964 Y87.296 E6.7611
G1 X198.062 Y88.807 E6.84263
G1 X198.92 Y90.345 E6.91951
G1 X199.539 Y91.895 E6.99237
G1 X200.046 Y93.779 E7.07754
G1 X200.202 Y94.849 E7.12475
G1 X200.294 Y96.462 E7.19527
G1 X200.263 Y156.708 E9.82525
G1 X200.126 Y157.905 E9.87784
G1 X199.844 Y159.275 E9.9389
G1 X199.536 Y160.319 E9.98642
G1 X199.232 Y161.13 E10.02423
G1 X198.565 Y162.529 E10.09189
G1 X197.748 Y163.861 E10.1601
G1 X196.912 Y164.96 E10.22038
G1 X195.025 Y166.814 E10.33586
G1 X193.792 Y167.705 E10.40227
G1 X192.709 Y168.341 E10.4571
G1 X191.056 Y169.088 E10.53628
G1 X189.902 Y169.469 E10.58933
G1 X188.706 Y169.753 E10.643
G1 X187.18 Y169.965 E10.71025
G1 X186.633 Y170.001 E10.73418
G1 X157.331 Y170.013 E12.01333
G1 X157.005 Y170.338 E12.03342
G1 X156.083 Y171.147 E12.08697
G1 X155.557 Y171.555 E12.11603
G1 X154.458 Y172.301 E12.17401
G1 X153.568 Y172.825 E12.2191
G1 X152.945 Y173.143 E12.24963
G1 X151.785 Y173.646 E12.30483
G1 X150.841 Y173.982 E12.34857
G1 X149.886 Y174.259 E12.39198
G1 X148.818 Y174.496 E12.43974
G1 X147.626 Y174.671 E12.49233
G1 X146.676 Y174.75 E12.53394
G1 X145.837 Y174.772 E12.57058
G1 X136.701 Y174.773 E12.9694
G1 X135.226 Y175.628 E13.04383
G1 X134.205 Y176.093 E13.0928
G1 X132.731 Y176.6 E13.16085
G1 X131.528 Y176.887 E13.21484
G1 X129.917 Y177.106 E13.28581
G1 X129.053 Y177.151 E13.32358
G1 X106.603 Y177.116 E14.30361
G1 X105.253 Y176.963 E14.36292
G1 X102.745 Y176.315 E14.476
G1 X101.768 Y175.913 E14.52212
G1 X99.977 Y174.947 E14.61095
G1 X99.719 Y174.773 E14.62454
G1 X87.528 Y174.737 E15.15673
G1 X86.429 Y174.616 E15.20499
G1 X84.632 Y174.232 E15.28521
G1 X83.271 Y173.783 E15.34777
G1 X81.115 Y172.716 E15.45278
G1 X80.632 Y172.393 E15.47815
G1 X69.905 Y172.367 E15.94643
G1 X68.935 Y172.284 E15.98892
G1 X68.015 Y172.149 E16.02952
G1 X67.168 Y171.978 E16.06724
G1 X66.37 Y171.771 E16.10323
G1 X65.291 Y171.42 E16.15276
G1 X64.455 Y171.095 E16.19191
G1 X63.543 Y170.691 E16.23546
G1 X62.236 Y169.753 E16.30569
G1 X61.353 Y168.627 E16.36815
G1 X60.581 Y168.722 E16.40211
G1 X56.888 Y168.741 E16.56332
G1 X55.376 Y168.437 E16.63065
G1 X55.101 Y168.32 E16.64369
G1 X54.94 Y168.464 E16.65312
G1 X53.467 Y169.369 E16.72859
G1 X53.055 Y169.529 E16.74789
G1 X51.545 Y169.862 E16.81539
G1 X48.776 Y169.858 E16.93627
G1 X47.861 Y169.816 E16.97625
G1 X46.753 Y169.688 E17.02494
G1 X45.011 Y169.283 E17.10302
G1 X43.362 Y168.7 E17.17937
G1 X41.925 Y167.981 E17.24951
G1 X40.498 Y167.042 E17.32408
G1 X39.413 Y166.145 E17.38554
G1 X37.901 Y164.559 E17.48119
G1 X37.065 Y163.399 E17.54361
G1 X36.232 Y161.956 E17.61635
G1 X35.786 Y160.987 E17.66291
G1 X34.976 Y158.253 E17.78739
G1 X34.822 Y157.193 E17.83415
G1 X34.73 Y155.58 E17.90468
G1 X34.728 Y125.096 E19.23543
G1 X35.063 Y123.419 E19.31008
G1 X35.831 Y122.029 E19.3794
G1 X36.269 Y121.503 E19.40928
G1 X36.206 Y121.343 E19.41679
G1 X35.854 Y119.751 E19.48797
G1 X35.853 Y103.154 E20.21249
G1 X36.156 Y101.635 E20.28011
G1 X36.272 Y101.363 E20.29302
G1 X36.126 Y101.2 E20.30257
G1 X35.239 Y99.767 E20.37614
G1 X35.063 Y99.316 E20.39727
G1 X34.73 Y97.79 E20.46546
G1 X34.756 Y92.327 E20.70394
G1 X34.823 Y91.632 E20.73442
G1 X35.03 Y90.361 E20.79064
G1 X35.15 Y89.835 E20.81419
G1 X35.472 Y88.723 E20.86473
G1 X35.711 Y88.063 E20.89537
G1 X36.119 Y87.128 E20.9399
G1 X36.532 Y86.317 E20.97963
G1 X51.147 Y60.088 E22.29038
G1 X51.743 Y59.135 E22.33945
G1 X52.539 Y58.062 E22.39777
G1 X53.82 Y56.714 E22.47895
G0 X54.158 Y57.116
G1 X55.403 Y56.069 E22.54996
G1 X56.744 Y55.203 E22.61965
G1 X57.786 Y54.666 E22.67082
G1 X59.35 Y54.058 E22.74407
G1 X60.872 Y53.654 E22.81282
G1 X62.774 Y53.416 E22.89649
G1 X63.585 Y53.393 E22.93191
G1 X65.273 Y53.506 E23.00576
G1 X67.245 Y53.887 E23.09344
G1 X68.079 Y54.155 E23.13168
G1 X69.117 Y54.566 E23.18042
G1 X70.014 Y54.996 E23.22384
G1 X85.625 Y63.691 E24.0039
G1 X120.593 Y68.165 E25.54283
G1 X121.92 Y68.467 E25.60224
G1 X124.144 Y69.294 E25.70583
G1 X125.576 Y70.082 E25.77718
G1 X127.385 Y71.443 E25.876
G1 X128.534 Y72.601 E25.94722
G1 X129.238 Y73.453 E25.99546
G1 X135.859 Y82.705 E26.49212
G1 X186.193 Y82.706 E28.68939
G1 X186.805 Y82.728 E28.71613
G1 X188.14 Y82.873 E28.77475
G1 X188.949 Y83.026 E28.81069
G1 X190.181 Y83.358 E28.86639
G1 X191.717 Y83.945 E28.93817
G1 X192.867 Y84.53 E28.99449
G1 X194.149 Y85.374 E29.0615
G1 X195.222 Y86.25 E29.12197
G1 X196.54 Y87.605 E29.20448
G1 X197.604 Y89.064 E29.28331
G1 X198.432 Y90.54 E29.35719
G1 X199.051 Y92.09 E29.43005
G1 X199.526 Y93.855 E29.50984
G1 X199.682 Y94.925 E29.55705
G1 X199.769 Y96.462 E29.62425
G1 X199.741 Y156.648 E32.25161
G1 X199.604 Y157.845 E32.3042
G1 X199.34 Y159.127 E32.36134
G1 X199.044 Y160.135 E32.4072
G1 X198.74 Y160.946 E32.44501
G1 X198.117 Y162.255 E32.50829
G1 X197.33 Y163.543 E32.57419
G1 X196.494 Y164.642 E32.63446
G1 X194.717 Y166.389 E32.74325
G1 X193.526 Y167.252 E32.80745
G1 X192.443 Y167.888 E32.86228
G1 X190.891 Y168.59 E32.93664
G1 X189.78 Y168.958 E32.98773
G1 X188.633 Y169.233 E33.03922
G1 X187.146 Y169.441 E33.10476
G1 X186.599 Y169.477 E33.1287
G1 X157.113 Y169.488 E34.41588
G1 X156.634 Y169.966 E34.44542
G1 X155.761 Y170.732 E34.49612
G1 X155.235 Y171.14 E34.52518
G1 X154.191 Y171.849 E34.58027
G1 X153.329 Y172.357 E34.62394
G1 X152.706 Y172.675 E34.65448
G1 X151.609 Y173.152 E34.7067
G1 X150.695 Y173.478 E34.74906
G1 X149.772 Y173.746 E34.79102
G1 X148.704 Y173.983 E34.83877
G1 X147.582 Y174.148 E34.88828
G1 X146.662 Y174.225 E34.92858
G1 X145.837 Y174.247 E34.96461
G1 X136.559 Y174.248 E35.36963
G1 X135.008 Y175.15 E35.44796
G1 X133.987 Y175.615 E35.49693
G1 X132.609 Y176.089 E35.56055
G1 X131.406 Y176.376 E35.61453
G1 X129.889 Y176.582 E35.68137
G1 X129.054 Y176.626 E35.71787
G1 X106.662 Y176.594 E36.69537
G1 X105.312 Y176.441 E36.75468
G1 X102.945 Y175.829 E36.8614
G1 X101.968 Y175.427 E36.90752
G1 X100.271 Y174.512 E36.99169
G1 X99.88 Y174.248 E37.01228
G1 X87.585 Y174.215 E37.54901
G1 X86.486 Y174.094 E37.59727
G1 X84.796 Y173.733 E37.67271
G1 X83.435 Y173.284 E37.73528
G1 X81.407 Y172.28 E37.83406
G1 X80.792 Y171.868 E37.86638
G1 X69.95 Y171.844 E38.33967
G1 X69.011 Y171.764 E38.38081
G1 X68.119 Y171.634 E38.42016
G1 X67.272 Y171.463 E38.45788
G1 X66.502 Y171.263 E38.49261
G1 X65.481 Y170.931 E38.53948
G1 X64.668 Y170.615 E38.57756
G1 X63.806 Y170.233 E38.61872
G1 X62.602 Y169.369 E38.68341
G1 X61.674 Y168.186 E38.74905
G1 X61.592 Y168.041 E38.75632
G1 X61.416 Y168.089 E38.76428
G1 X60.578 Y168.197 E38.80117
G1 X56.941 Y168.216 E38.95994
G1 X55.48 Y167.922 E39.02499
G1 X54.985 Y167.675 E39.04914
G1 X54.665 Y168.017 E39.06959
G1 X53.192 Y168.922 E39.14506
G1 X52.942 Y169.016 E39.15672
G1 X51.487 Y169.337 E39.22176
G1 X48.8 Y169.334 E39.33906
G1 X47.921 Y169.294 E39.37747
G1 X46.813 Y169.166 E39.42616
G1 X45.185 Y168.788 E39.49912
G1 X43.596 Y168.23 E39.57264
G1 X42.214 Y167.542 E39.64003
G1 X40.787 Y166.603 E39.7146
G1 X39.792 Y165.782 E39.77092
G1 X38.326 Y164.251 E39.86345
G1 X37.519 Y163.136 E39.92353
G1 X36.709 Y161.736 E39.99414
G1 X36.263 Y160.767 E40.04071
G1 X35.496 Y158.178 E40.15858
G1 X35.342 Y157.118 E40.20534
G1 X35.255 Y155.58 E40.27259
G1 X35.253 Y125.149 E41.60102
G1 X35.562 Y123.603 E41.66985
G1 X36.269 Y122.323 E41.73368
G1 X36.895 Y121.572 E41.77636
G1 X36.719 Y121.23 E41.79315
G1 X36.379 Y119.692 E41.86191
G1 X36.378 Y103.207 E42.58155
G1 X36.671 Y101.738 E42.64694
G1 X36.917 Y101.247 E42.67091
G1 X36.572 Y100.924 E42.69154
G1 X35.71 Y99.532 E42.76302
G1 X35.576 Y99.204 E42.77848
G1 X35.255 Y97.734 E42.84417
G1 X35.279 Y92.377 E43.07802
G1 X35.346 Y91.682 E43.1085
G1 X35.542 Y90.478 E43.16175
G1 X35.662 Y89.952 E43.18531
G1 X35.966 Y88.902 E43.23302
G1 X36.205 Y88.242 E43.26367
G1 X36.587 Y87.366 E43.30539
G1 X36.991 Y86.573 E43.34424
G1 X51.606 Y60.344 E44.65499
G1 X52.165 Y59.448 E44.70109
G1 X52.961 Y58.375 E44.75941
G1 X54.158 Y57.116 E44.83525
G0 X54.496 Y57.518
G1 X55.741 Y56.471 E44.90626
G1 X56.985 Y55.67 E44.97085
G1 X58.027 Y55.133 E45.02202
G1 X59.486 Y54.565 E45.09037
G1 X60.938 Y54.175 E45.156
G1 X62.789 Y53.941 E45.23745
G1 X63.6 Y53.918 E45.27287
G1 X65.237 Y54.03 E45.3445
G1 X67.084 Y54.387 E45.42662
G1 X67.918 Y54.655 E45.46486
G1 X68.923 Y55.054 E45.51206
G1 X69.759 Y55.455 E45.55254
G1 X85.458 Y64.199 E46.33699
G1 X120.526 Y68.686 E47.88033
G1 X121.738 Y68.96 E47.93457
G1 X123.892 Y69.755 E48.0348
G1 X125.26 Y70.502 E48.10284
G1 X127.069 Y71.863 E48.20167
G1 X128.13 Y72.936 E48.26754
G1 X128.811 Y73.759 E48.31417
G1 X135.589 Y83.23 E48.82259
G1 X186.174 Y83.231 E51.03082
G1 X186.786 Y83.253 E51.05756
G1 X188.043 Y83.389 E51.11275
G1 X188.812 Y83.533 E51.1469
G1 X190.044 Y83.865 E51.2026
G1 X191.48 Y84.414 E51.26972
G1 X192.578 Y84.969 E51.32342
G1 X193.86 Y85.813 E51.39043
G1 X194.889 Y86.656 E51.4485
G1 X196.163 Y87.97 E51.52839
G1 X197.147 Y89.322 E51.60139
G1 X197.944 Y90.735 E51.67221
G1 X198.563 Y92.285 E51.74507
G1 X199.006 Y93.931 E51.81948
G1 X199.162 Y95.001 E51.86668
G1 X199.244 Y96.462 E51.93056
G1 X199.219 Y156.588 E54.5553
G1 X199.082 Y157.785 E54.60789
G1 X198.836 Y158.98 E54.66115
G1 X198.552 Y159.951 E54.70532
G1 X198.248 Y160.762 E54.74312
G1 X197.669 Y161.982 E54.80208
G1 X196.912 Y163.225 E54.86561
G1 X196.076 Y164.324 E54.92589
G1 X194.408 Y165.964 E55.028
G1 X193.26 Y166.799 E55.08997
G1 X192.177 Y167.435 E55.1448
G1 X190.725 Y168.092 E55.21437
G1 X189.658 Y168.447 E55.26346
G1 X188.511 Y168.722 E55.31495
G1 X187.112 Y168.917 E55.37661
G1 X186.565 Y168.953 E55.40054
G1 X156.896 Y168.963 E56.69571
G1 X156.287 Y169.572 E56.73331
G1 X155.439 Y170.317 E56.78258
G1 X154.913 Y170.725 E56.81164
G1 X153.924 Y171.397 E56.86384
G1 X153.09 Y171.889 E56.90611
G1 X152.467 Y172.207 E56.93664
G1 X151.4 Y172.67 E56.98742
G1 X150.548 Y172.974 E57.02691
G1 X149.658 Y173.233 E57.06737
G1 X148.59 Y173.47 E57.11513
G1 X147.538 Y173.625 E57.16155
G1 X146.648 Y173.7 E57.20054
G1 X145.837 Y173.722 E57.23596
G1 X136.373 Y173.723 E57.6491
G1 X136.189 Y173.856 E57.65901
G1 X134.79 Y174.672 E57.72971
G1 X133.769 Y175.137 E57.77868
G1 X132.487 Y175.578 E57.83787
G1 X131.284 Y175.865 E57.89186
G1 X129.861 Y176.058 E57.95454
G1 X129.055 Y176.101 E57.98978
G1 X106.721 Y176.072 E58.96475
G1 X105.371 Y175.919 E59.02406
G1 X103.145 Y175.343 E59.12443
G1 X102.168 Y174.941 E59.17055
G1 X100.565 Y174.077 E59.25005
G1 X100.041 Y173.723 E59.27765
G1 X87.642 Y173.693 E59.81892
G1 X86.543 Y173.572 E59.86718
G1 X84.96 Y173.234 E59.93784
G1 X83.599 Y172.785 E60.00041
G1 X81.699 Y171.844 E60.09297
G1 X80.952 Y171.343 E60.13223
G1 X69.995 Y171.321 E60.61055
G1 X69.056 Y171.241 E60.65169
G1 X68.223 Y171.119 E60.68844
G1 X67.376 Y170.948 E60.72616
G1 X66.634 Y170.755 E60.75963
G1 X65.671 Y170.442 E60.80383
G1 X64.881 Y170.135 E60.84083
G1 X64.069 Y169.775 E60.8796
G1 X62.968 Y168.985 E60.93876
G1 X62.087 Y167.862 E61.00107
G1 X61.88 Y167.393 E61.02345
G1 X61.349 Y167.568 E61.04786
G1 X60.511 Y167.676 E61.08474
G1 X56.994 Y167.691 E61.23827
G1 X55.584 Y167.407 E61.30106
G1 X54.858 Y167.005 E61.33729
G1 X54.389 Y167.571 E61.36938
G1 X52.992 Y168.436 E61.4411
G1 X52.829 Y168.503 E61.4488
G1 X51.429 Y168.812 E61.51138
G1 X48.824 Y168.81 E61.6251
G1 X47.981 Y168.772 E61.66194
G1 X46.873 Y168.644 E61.71063
G1 X45.358 Y168.292 E61.77853
G1 X43.829 Y167.759 E61.84921
G1 X42.503 Y167.103 E61.91379
G1 X41.076 Y166.164 E61.98837
G1 X40.17 Y165.418 E62.0396
G1 X38.751 Y163.942 E62.12898
G1 X37.973 Y162.872 E62.18673
G1 X37.186 Y161.516 E62.25517
G1 X36.74 Y160.547 E62.30174
G1 X36.016 Y158.103 E62.41301
G1 X35.862 Y157.043 E62.45977
G1 X35.78 Y155.58 E62.52374
G1 X35.778 Y125.202 E63.84986
G1 X36.061 Y123.787 E63.91285
G1 X36.707 Y122.617 E63.97119
G1 X37.385 Y121.804 E64.0174
G1 X37.565 Y121.656 E64.02758
G1 X37.232 Y121.117 E64.05524
G1 X36.904 Y119.633 E64.12158
G1 X36.903 Y103.26 E64.83633
G1 X37.186 Y101.841 E64.89949
G1 X37.59 Y101.121 E64.93553
G1 X37.018 Y100.648 E64.96793
G1 X36.156 Y99.256 E65.03941
G1 X36.089 Y99.092 E65.04714
G1 X35.78 Y97.678 E65.11033
G1 X35.802 Y92.427 E65.33955
G1 X35.869 Y91.732 E65.37003
G1 X36.054 Y90.595 E65.42032
G1 X36.174 Y90.069 E65.44387
G1 X36.46 Y89.081 E65.48877
G1 X36.699 Y88.421 E65.51942
G1 X37.068 Y87.576 E65.55967
G1 X37.45 Y86.829 E65.59629
G1 X52.065 Y60.6 E66.90705
G1 X52.587 Y59.761 E66.95018
G1 X53.383 Y58.688 E67.0085
G1 X54.496 Y57.518 E67.079
G0 X54.835 Y57.919
G1 X56.026 Y56.912 E67.14708
G1 X57.226 Y56.137 E67.20944
G1 X58.268 Y55.6 E67.26061
G1 X59.624 Y55.072 E67.32414
G1 X61.005 Y54.696 E67.38662
G1 X62.804 Y54.466 E67.46579
G1 X63.615 Y54.443 E67.50121
G1 X65.2 Y54.554 E67.57057
G1 X66.923 Y54.887 E67.64718
G1 X67.757 Y55.155 E67.68542
G1 X68.696 Y55.527 E67.72951
G1 X69.504 Y55.914 E67.76862
G1 X85.291 Y64.707 E68.55747
G1 X120.412 Y69.199 E70.10313
G1 X121.557 Y69.453 E70.15433
G1 X123.642 Y70.217 E70.25127
G1 X124.944 Y70.922 E70.3159
G1 X126.753 Y72.283 E70.41472
G1 X127.726 Y73.271 E70.47526
G1 X128.384 Y74.065 E70.52027
G1 X135.319 Y83.755 E71.04045
G1 X186.157 Y83.756 E73.25973
G1 X186.73 Y83.775 E73.28476
G1 X187.947 Y83.905 E73.33819
G1 X188.675 Y84.04 E73.37051
G1 X189.907 Y84.372 E73.42621
G1 X191.244 Y84.883 E73.48869
G1 X192.289 Y85.408 E73.53974
G1 X193.571 Y86.252 E73.60675
G1 X194.513 Y87.023 E73.65989
G1 X195.739 Y88.28 E73.73654
G1 X196.69 Y89.581 E73.80689
G1 X197.456 Y90.93 E73.87461
G1 X198.075 Y92.48 E73.94747
G1 X198.486 Y94.007 E74.0165
G1 X198.642 Y95.077 E74.0637
G1 X198.719 Y96.462 E74.12426
G1 X198.697 Y156.528 E76.74638
G1 X198.56 Y157.725 E76.79897
G1 X198.332 Y158.833 E76.84835
G1 X198.06 Y159.767 E76.89082
G1 X197.756 Y160.578 E76.92863
G1 X197.195 Y161.756 E76.98559
G1 X196.494 Y162.907 E77.04442
G1 X195.658 Y164.006 E77.1047
G1 X194.099 Y165.54 E77.20017
G1 X192.994 Y166.346 E77.25988
G1 X191.911 Y166.982 E77.31471
G1 X190.559 Y167.594 E77.37949
G1 X189.536 Y167.936 E77.42658
G1 X188.389 Y168.211 E77.47807
G1 X187.078 Y168.393 E77.53585
G1 X186.531 Y168.429 E77.55978
G1 X156.679 Y168.438 E78.86294
G1 X155.94 Y169.178 E78.90859
G1 X155.117 Y169.902 E78.95644
G1 X154.591 Y170.31 E78.9855
G1 X153.629 Y170.963 E79.03626
G1 X152.851 Y171.421 E79.07567
G1 X152.228 Y171.739 E79.1062
G1 X151.223 Y172.176 E79.15404
G1 X150.401 Y172.47 E79.19215
G1 X149.544 Y172.72 E79.23112
G1 X148.476 Y172.957 E79.27888
G1 X147.494 Y173.102 E79.32221
G1 X146.633 Y173.175 E79.35993
G1 X145.837 Y173.197 E79.39469
G1 X136.202 Y173.198 E79.8153
