;FLAVOR:Marlin
;TIME:13986
;Filament used: 20.0231m
;Layer height: 0.2
;MINX:3.604
;MINY:1.104
;MINZ:0.2
;MAXX:231.395
;MAXY:228.895
;MAXZ:18.4
;TARGET_MACHINE.NAME:ELEGOO NEPTUNE 4 Pro
;Generated with Cura_SteamEngine 5.7.2
M104 S255
M105
M109 S255
M82 ;absolute extrusion mode
;ELEGOO NEPTUNE 4 / 4 PRO
M220 S100 ;Set the feed speed to 100%
M221 S100 ;Set the flow rate to 100%
M104 S140 ;Start heating extruder
M190 S70 ;Wait for the bed to reach print temp
G90
G28 ;home
G1 Z10 F300
G1 X67.5 Y0 F6000
G1 Z0 F300
M109 S255.0 ;Wait for extruder to reach print temp
G92 E0 ;Reset Extruder
G1 X67.5 Y0 Z0.4 F300 ;Move to start position
G1 X167.5 E30 F400 ;Draw the first line
G1 Z0.6 F120.0 ;Move to side a little
G1 X162.5 F3000
G92 E0 ;Reset Extruder
G92 E0
G92 E0
G1 F2700 E-0.5
;LAYER_COUNT:92
;LAYER:0
M107
M204 S500
G0 F4800 X19.37 Y57.361 Z0.2
;TYPE:SKIRT
G1 F2700 E0
G1 F3600 X59.395 Y17.336 E2.47098
G1 X59.903 Y16.843 E2.50188
G1 X60.295 Y16.516 E2.52417
G1 X60.734 Y16.256 E2.54644
G1 X61.343 Y16.017 E2.575
G1 X115.996 Y1.374 E5.04497
G1 X116.708 Y1.195 E5.07702
G1 X117.211 Y1.11 E5.09929
G1 X117.721 Y1.104 E5.12155
G1 X118.361 Y1.201 E5.14981
G1 X173.047 Y15.855 E7.62129
G1 X173.71 Y16.043 E7.65138
G1 X174.189 Y16.22 E7.67367
G1 X174.634 Y16.47 E7.69595
G1 X175.141 Y16.872 E7.72419
G1 X215.153 Y56.884 E10.19437
G1 X215.659 Y57.407 E10.22614
G1 X215.985 Y57.8 E10.24843
G1 X216.245 Y58.239 E10.27071
G1 X216.48 Y58.838 E10.29879
G1 X231.122 Y113.486 E12.76854
G1 X231.304 Y114.212 E12.80121
G1 X231.389 Y114.715 E12.82348
G1 X231.395 Y115.226 E12.84579
G1 X231.297 Y115.863 E12.87392
G1 X216.644 Y170.548 E15.34535
G1 X216.456 Y171.21 E15.3754
G1 X216.278 Y171.689 E15.3977
G1 X216.029 Y172.134 E15.41996
G1 X215.62 Y172.647 E15.4486
G1 X175.593 Y212.673 E17.91968
G1 X175.101 Y213.153 E17.94969
G1 X174.709 Y213.48 E17.97197
G1 X174.27 Y213.741 E17.99426
G1 X173.662 Y213.98 E18.02278
G1 X119.003 Y228.625 E20.49303
G1 X118.297 Y228.803 E20.52481
G1 X117.794 Y228.889 E20.54709
G1 X117.284 Y228.895 E20.56935
G1 X116.645 Y228.799 E20.59756
G1 X61.95 Y214.144 E23.06943
G1 X61.285 Y213.955 E23.09961
G1 X60.807 Y213.777 E23.12188
G1 X60.362 Y213.527 E23.14416
G1 X59.855 Y213.123 E23.17246
G1 X19.846 Y173.114 E25.64246
G1 X19.347 Y172.601 E25.6737
G1 X19.02 Y172.209 E25.69598
G1 X18.758 Y171.771 E25.71826
G1 X18.518 Y171.159 E25.74696
G1 X3.872 Y116.496 E28.21738
G1 X3.696 Y115.798 E28.2488
G1 X3.61 Y115.294 E28.27112
G1 X3.604 Y114.784 E28.29339
G1 X3.7 Y114.145 E28.3216
G1 X18.354 Y59.453 E30.79333
G1 X18.542 Y58.789 E30.82346
G1 X18.719 Y58.311 E30.84571
G1 X18.969 Y57.865 E30.86803
G1 X19.37 Y57.361 E30.89615
G1 F2700 E30.39615
;MESH:Triangulated_Planter_Drip_Tray.stl
G0 F4800 X21.282 Y59.123
G0 X22.056 Y59.896
G0 X7.786 Y115
G0 X7.663 Y114.999
;TYPE:WALL-INNER
G1 F2700 E30.89615
G1 F3600 X22.374 Y169.912 E33.37784
G1 X62.584 Y210.122 E35.86025
G1 X117.499 Y224.833 E38.34203
G1 X172.412 Y210.122 E40.82373
G1 X212.622 Y169.912 E43.30613
G1 X227.333 Y114.999 E45.78783
G1 X212.622 Y60.084 E48.26961
G1 X172.412 Y19.874 E50.75202
G1 X117.499 Y5.163 E53.23371
G1 X62.584 Y19.874 E55.7155
G1 X22.374 Y60.084 E58.1979
G1 X7.663 Y114.999 E60.67968
G0 F4800 X7.12 Y114.999
;TYPE:WALL-OUTER
G1 F2400 X21.903 Y170.184 E63.17366
G1 X62.312 Y210.593 E65.66835
G1 X117.499 Y225.376 E68.16242
G1 X172.684 Y210.593 E70.6564
G1 X213.093 Y170.184 E73.15109
G1 X227.876 Y114.999 E75.64507
G1 X213.093 Y59.812 E78.13914
G1 X172.684 Y19.403 E80.63383
G1 X117.499 Y4.62 E83.12781
G1 X62.312 Y19.403 E85.62187
G1 X21.903 Y59.812 E88.11656
G1 X7.12 Y114.999 E90.61063
G0 F4800 X7.171 Y115.192
G0 X7.796 Y115.026
G0 X8.184 Y114.997
;TYPE:SKIN
G1 F2400 X22.823 Y60.348 E93.08038
G1 X62.844 Y20.323 E95.55124
G1 X117.497 Y5.684 E98.02116
G1 X172.148 Y20.323 E100.491
G1 X212.173 Y60.348 E102.96198
G1 X226.812 Y114.997 E105.43173
G1 X212.173 Y169.648 E107.90157
G1 X172.148 Y209.673 E110.37255
G1 X117.497 Y224.312 E112.84239
G1 X62.848 Y209.673 E115.31214
G1 X22.823 Y169.648 E117.78312
G1 X8.184 Y114.997 E120.25296
G1 F2700 E119.75296
G0 F4800 X7.835 Y114.904
G0 X22.386 Y169.413
G0 X22.988 Y169.253
G1 F2700 E120.25296
G1 F2400 X63.242 Y209.507 E122.73808
G0 F4800 X63.081 Y210.108
G0 X64.095 Y210.38
G0 X64.256 Y209.779
G1 F2400 X22.717 Y168.239 E125.30256
G0 F4800 X22.115 Y168.399
G0 X21.843 Y167.385
G0 X22.445 Y167.225
G1 F2400 X65.27 Y210.05 E127.94641
G0 F4800 X65.109 Y210.651
G0 X66.123 Y210.923
G0 X66.284 Y210.322
G1 F2400 X22.173 Y166.211 E130.66964
G0 F4800 X21.571 Y166.371
G0 X21.3 Y165.357
G0 X21.902 Y165.197
G1 F2400 X67.298 Y210.593 E133.47221
G1 X67.372 Y210.667
G0 F4800 X68.313 Y210.866
G1 F2400 X21.63 Y164.183 E136.35423
G1 X21.556 Y164.109
G0 F4800 X21.358 Y163.168
G1 F2400 X69.327 Y211.137 E139.31564
G0 F4800 X69.166 Y211.738
G0 X70.18 Y212.01
G0 X70.341 Y211.409
G1 F2400 X21.087 Y162.154 E142.35642
G0 F4800 X20.485 Y162.314
G0 X20.213 Y161.3
G0 X20.815 Y161.14
G1 F2400 X71.355 Y211.68 E145.47655
G0 F4800 X71.194 Y212.281
G0 X72.208 Y212.553
G0 X72.369 Y211.952
G1 F2400 X20.544 Y160.126 E148.67605
G0 F4800 X19.941 Y160.286
G0 X19.67 Y159.272
G0 X20.272 Y159.112
G1 F2400 X73.383 Y212.223 E151.95491
G1 X73.457 Y212.297
G0 F4800 X74.398 Y212.495
G1 F2400 X20 Y158.098 E155.31319
G0 F4800 X19.398 Y158.258
G0 X19.126 Y157.244
G0 X19.728 Y157.084
G1 F2400 X75.412 Y212.767 E158.75087
G0 F4800 X75.251 Y213.368
G0 X76.265 Y213.64
G0 X76.426 Y213.039
G1 F2400 X19.457 Y156.07 E162.2679
G0 F4800 X18.855 Y156.23
G0 X18.583 Y155.216
G0 X19.185 Y155.056
G1 F2400 X77.44 Y213.31 E165.8643
G0 F4800 X77.279 Y213.912
G0 X78.292 Y214.183
G0 X78.453 Y213.582
G1 F2400 X18.914 Y154.042 E169.54003
G0 F4800 X18.311 Y154.202
G0 X18.04 Y153.188
G0 X18.642 Y153.028
G1 F2400 X79.468 Y213.854 E173.29519
G0 F4800 X79.307 Y214.455
G0 X80.321 Y214.726
G0 X80.482 Y214.125
G1 F2400 X18.37 Y152.013 E177.12973
G0 F4800 X17.768 Y152.173
G0 X17.496 Y151.159
G0 X18.098 Y150.999
G1 F2400 X81.496 Y214.397 E181.04367
G0 F4800 X81.335 Y214.998
G0 X82.349 Y215.27
G0 X82.51 Y214.668
G1 F2400 X17.827 Y149.985 E185.03694
G0 F4800 X17.225 Y150.145
G0 X16.953 Y149.131
G0 X17.555 Y148.971
G1 F2400 X83.524 Y214.94 E189.1096
G1 X83.598 Y215.014
G0 F4800 X84.539 Y215.212
G1 F2400 X17.284 Y147.957 E193.26165
G0 F4800 X16.681 Y148.117
G0 X16.41 Y147.103
G0 X17.012 Y146.943
G1 F2400 X85.553 Y215.484 E197.49309
G0 F4800 X85.392 Y216.085
G0 X86.406 Y216.357
G0 X86.567 Y215.755
G1 F2400 X16.74 Y145.928 E201.80393
G0 F4800 X16.138 Y146.088
G0 X15.866 Y145.074
G0 X16.469 Y144.914
G1 F2400 X87.581 Y216.027 E206.19413
G0 F4800 X87.42 Y216.628
G0 X88.434 Y216.9
G0 X88.595 Y216.298
G1 F2400 X16.197 Y143.9 E210.66369
G0 F4800 X15.594 Y144.06
G0 X15.323 Y143.046
G0 X15.925 Y142.886
G1 F2400 X89.61 Y216.571 E215.21271
G0 F4800 X89.449 Y217.172
G0 X90.463 Y217.443
G0 X90.624 Y216.842
G1 F2400 X15.654 Y141.872 E219.84105
G0 F4800 X15.051 Y142.032
G0 X14.779 Y141.018
G0 X15.382 Y140.858
G1 F2400 X91.638 Y217.114 E224.54879
G0 F4800 X91.477 Y217.715
G0 X92.49 Y217.987
G0 X92.651 Y217.385
G1 F2400 X15.11 Y139.844 E229.33586
G0 F4800 X14.508 Y140.004
G0 X14.236 Y138.99
G0 X14.839 Y138.83
G1 F2400 X93.665 Y217.657 E234.20229
G1 X93.739 Y217.731
G0 F4800 X94.68 Y217.929
G1 F2400 X14.567 Y137.816 E239.14815
G0 F4800 X13.965 Y137.976
G0 X13.693 Y136.962
G0 X14.296 Y136.802
G1 F2400 X95.694 Y218.2 E244.17333
G0 F4800 X95.533 Y218.802
G0 X96.547 Y219.073
G0 X96.708 Y218.472
G1 F2400 X14.024 Y135.788 E249.27791
G1 X13.95 Y135.714
G0 F4800 X13.752 Y134.773
G1 F2400 X97.722 Y218.743 E254.46188
G0 F4800 X97.561 Y219.345
G0 X98.575 Y219.617
G0 X98.736 Y219.015
G1 F2400 X13.48 Y133.759 E259.72524
G0 F4800 X12.878 Y133.919
G0 X12.606 Y132.905
G0 X13.209 Y132.745
G1 F2400 X99.75 Y219.287 E265.06797
G1 X99.824 Y219.361
G0 F4800 X100.765 Y219.559
G1 F2400 X12.937 Y131.731 E270.49011
G0 F4800 X12.334 Y131.891
G0 X12.063 Y130.877
G0 X12.666 Y130.717
G1 F2400 X101.779 Y219.83 E275.99159
G0 F4800 X101.618 Y220.432
G0 X102.632 Y220.704
G0 X102.793 Y220.102
G1 F2400 X12.393 Y129.702 E281.57252
G0 F4800 X11.791 Y129.862
G0 X11.519 Y128.848
G0 X12.122 Y128.688
G1 F2400 X103.807 Y220.373 E287.23279
G0 F4800 X103.646 Y220.975
G0 X104.66 Y221.247
G0 X104.821 Y220.645
G1 F2400 X11.85 Y127.674 E292.97244
G0 F4800 X11.247 Y127.834
G0 X10.976 Y126.821
G0 X11.579 Y126.661
G1 F2400 X105.836 Y220.917 E298.79146
G0 F4800 X105.675 Y221.519
G0 X106.688 Y221.79
G0 X106.849 Y221.189
G1 F2400 X11.307 Y125.647 E304.68984
G0 F4800 X10.704 Y125.807
G0 X10.433 Y124.793
G0 X11.036 Y124.633
G1 F2400 X107.863 Y221.46 E310.66755
G0 F4800 X107.702 Y222.062
G0 X108.716 Y222.333
G0 X108.877 Y221.732
G1 F2400 X10.764 Y123.618 E316.72468
G0 F4800 X10.161 Y123.778
G0 X9.889 Y122.764
G0 X10.492 Y122.604
G1 F2400 X109.891 Y222.003 E322.86117
G1 X109.965 Y222.077
G0 F4800 X110.906 Y222.275
G1 F2400 X10.221 Y121.59 E329.07706
G0 F4800 X9.618 Y121.75
G0 X9.346 Y120.736
G0 X9.949 Y120.576
G1 F2400 X111.92 Y222.547 E335.37234
G0 F4800 X111.759 Y223.149
G0 X112.773 Y223.42
G0 X112.934 Y222.819
G1 F2400 X9.677 Y119.562 E341.74701
G1 X9.603 Y119.488
G0 F4800 X9.405 Y118.547
G1 F2400 X113.948 Y223.09 E348.20108
G0 F4800 X113.787 Y223.692
G0 X114.801 Y223.964
G0 X114.962 Y223.362
G1 F2400 X9.134 Y117.533 E354.7345
G0 F4800 X8.531 Y117.693
G0 X8.259 Y116.679
G0 X8.862 Y116.519
G1 F2400 X115.977 Y223.634 E361.34735
G0 F4800 X115.816 Y224.235
G0 X116.83 Y224.507
G0 X116.991 Y223.905
G1 F2400 X8.591 Y115.505 E368.03953
G0 F4800 X8.533 Y114.705
G1 F2400 X117.79 Y223.962 E374.78462
G0 F4800 X118.376 Y223.806
G1 F2400 X8.69 Y114.119 E381.55622
G0 F4800 X8.847 Y113.534
G1 F2400 X118.962 Y223.649 E388.35428
G0 F4800 X119.547 Y223.492
G1 F2400 X9.004 Y112.948 E395.17879
G0 F4800 X9.161 Y112.363
G1 F2400 X120.132 Y223.335 E402.02972
G0 F4800 X120.718 Y223.178
G1 F2400 X9.317 Y111.777 E408.90717
G0 F4800 X9.474 Y111.191
G1 F2400 X121.303 Y223.021 E415.81108
G0 F4800 X121.889 Y222.864
G1 F2400 X9.631 Y110.606 E422.74143
G0 F4800 X9.788 Y110.02
G1 F2400 X122.475 Y222.708 E429.69831
G0 F4800 X123.061 Y222.551
G1 F2400 X9.945 Y109.435 E436.68163
G0 F4800 X10.102 Y108.849
G1 F2400 X123.646 Y222.394 E443.69141
G0 F4800 X124.232 Y222.237
G1 F2400 X10.259 Y108.264 E450.72765
G0 F4800 X10.415 Y107.678
G1 F2400 X124.817 Y222.08 E457.79037
G0 F4800 X125.403 Y221.923
G1 F2400 X10.572 Y107.092 E464.87957
G0 F4800 X10.729 Y106.507
G1 F2400 X125.989 Y221.766 E471.99523
G0 F4800 X126.574 Y221.609
G1 F2400 X10.886 Y105.921 E479.13734
G0 F4800 X11.043 Y105.336
G1 F2400 X127.16 Y221.452 E486.30591
G0 F4800 X127.745 Y221.295
G1 F2400 X11.2 Y104.75 E493.50092
G0 F4800 X11.356 Y104.164
G1 F2400 X128.331 Y221.138 E500.72246
G0 F4800 X128.916 Y220.981
G1 F2400 X11.513 Y103.578 E507.97045
G0 F4800 X11.67 Y102.993
G1 F2400 X129.502 Y220.825 E515.24492
G0 F4800 X130.088 Y220.668
G1 F2400 X11.827 Y102.407 E522.54588
G0 F4800 X11.984 Y101.822
G1 F2400 X130.673 Y220.511 E529.87326
G0 F4800 X131.259 Y220.354
G1 F2400 X12.141 Y101.236 E537.22713
G0 F4800 X12.298 Y100.651
G1 F2400 X131.844 Y220.197 E544.60742
G0 F4800 X132.43 Y220.04
G1 F2400 X12.454 Y100.065 E552.01422
G0 F4800 X12.611 Y99.479
G1 F2400 X133.015 Y219.883 E559.44748
G0 F4800 X133.601 Y219.727
G1 F2400 X12.768 Y98.894 E566.90722
G0 F4800 X12.925 Y98.308
G1 F2400 X134.187 Y219.57 E574.39345
G0 F4800 X134.772 Y219.413
G1 F2400 X13.082 Y97.723 E581.9061
G0 F4800 X13.239 Y97.137
G1 F2400 X135.358 Y219.256 E589.44524
G0 F4800 X135.943 Y219.099
G1 F2400 X13.395 Y96.551 E597.01086
G0 F4800 X13.552 Y95.966
G1 F2400 X136.529 Y218.942 E604.60293
G0 F4800 X137.115 Y218.786
G1 F2400 X13.709 Y95.38 E612.22152
G0 F4800 X13.866 Y94.795
G1 F2400 X137.701 Y218.629 E619.86657
G0 F4800 X138.286 Y218.472
G1 F2400 X14.023 Y94.209 E627.53806
G0 F4800 X14.18 Y93.624
G1 F2400 X138.872 Y218.315 E635.23601
G0 F4800 X139.457 Y218.158
G1 F2400 X14.337 Y93.038 E642.96042
G0 F4800 X14.494 Y92.452
G1 F2400 X140.042 Y218.001 E650.71128
G0 F4800 X140.629 Y217.845
G1 F2400 X14.651 Y91.867 E658.48865
G0 F4800 X14.808 Y91.281
G1 F2400 X141.214 Y217.688 E666.29248
G0 F4800 X141.8 Y217.531
G1 F2400 X14.965 Y90.696 E674.12276
G0 F4800 X15.121 Y90.11
G1 F2400 X142.385 Y217.374 E681.97953
G0 F4800 X142.971 Y217.217
G1 F2400 X15.278 Y89.525 E689.86275
G0 F4800 X15.435 Y88.938
G1 F2400 X143.556 Y217.06 E697.77246
G0 F4800 X144.142 Y216.903
G1 F2400 X15.592 Y88.353 E705.70862
G0 F4800 X15.749 Y87.768
G1 F2400 X144.728 Y216.747 E713.67126
G0 F4800 X145.313 Y216.59
G1 F2400 X15.906 Y87.182 E721.66036
G0 F4800 X16.063 Y86.597
G1 F2400 X145.899 Y216.433 E729.67591
G0 F4800 X146.484 Y216.276
G1 F2400 X16.22 Y86.011 E737.71792
G0 F4800 X16.377 Y85.426
G1 F2400 X147.07 Y216.119 E745.78638
G0 F4800 X147.655 Y215.962
G1 F2400 X16.533 Y84.839 E753.88135
G0 F4800 X16.69 Y84.254
G1 F2400 X148.241 Y215.805 E762.00278
G0 F4800 X148.827 Y215.648
G1 F2400 X16.847 Y83.668 E770.1507
G0 F4800 X17.004 Y83.083
G1 F2400 X149.412 Y215.491 E778.32504
G0 F4800 X149.998 Y215.335
G1 F2400 X17.161 Y82.497 E786.52589
G0 F4800 X17.318 Y81.912
G1 F2400 X150.583 Y215.178 E794.75316
G0 F4800 X151.169 Y215.021
G1 F2400 X17.474 Y81.326 E803.00696
G0 F4800 X17.631 Y80.74
G1 F2400 X151.755 Y214.864 E811.28723
G0 F4800 X152.34 Y214.707
G1 F2400 X17.788 Y80.155 E819.59393
G0 F4800 X17.945 Y79.569
G1 F2400 X152.926 Y214.55 E827.92711
G0 F4800 X153.511 Y214.393
G1 F2400 X18.102 Y78.984 E836.28672
G0 F4800 X18.259 Y78.398
G1 F2400 X154.097 Y214.236 E844.67281
G0 F4800 X154.682 Y214.079
G1 F2400 X18.416 Y77.813 E853.08533
G0 F4800 X18.572 Y77.227
G1 F2400 X155.268 Y213.922 E861.52436
G0 F4800 X155.854 Y213.766
G1 F2400 X18.729 Y76.641 E869.9899
G0 F4800 X18.886 Y76.056
G1 F2400 X156.44 Y213.609 E878.4819
G0 F4800 X157.025 Y213.452
G1 F2400 X19.043 Y75.47 E887.00036
G0 F4800 X19.2 Y74.885
G1 F2400 X157.611 Y213.295 E895.54526
G0 F4800 X158.196 Y213.138
G1 F2400 X19.357 Y74.299 E904.11662
G0 F4800 X19.513 Y73.713
G1 F2400 X158.782 Y212.981 E912.7145
G0 F4800 X159.368 Y212.825
G1 F2400 X19.67 Y73.128 E921.33886
G0 F4800 X19.827 Y72.542
G1 F2400 X159.953 Y212.668 E929.98968
G0 F4800 X160.539 Y212.511
G1 F2400 X19.984 Y71.957 E938.66695
G0 F4800 X20.141 Y71.371
G1 F2400 X161.124 Y212.354 E947.37067
G0 F4800 X161.71 Y212.197
G1 F2400 X20.298 Y70.786 E956.10085
G0 F4800 X20.455 Y70.2
G1 F2400 X162.295 Y212.04 E964.85748
G0 F4800 X162.881 Y211.884
G1 F2400 X20.611 Y69.614 E973.64066
G0 F4800 X20.768 Y69.028
G1 F2400 X163.467 Y211.727 E982.45032
G0 F4800 X164.052 Y211.57
G1 F2400 X20.925 Y68.443 E991.2864
G0 F4800 X21.082 Y67.858
G1 F2400 X164.638 Y211.413 E1000.14894
G0 F4800 X165.223 Y211.256
G1 F2400 X21.239 Y67.272 E1009.03793
G0 F4800 X21.396 Y66.687
G1 F2400 X165.809 Y211.099 E1017.95338
G0 F4800 X166.394 Y210.942
G1 F2400 X21.553 Y66.1 E1026.89531
G0 F4800 X21.71 Y65.515
G1 F2400 X166.98 Y210.786 E1035.86373
G0 F4800 X167.566 Y210.629
G1 F2400 X21.867 Y64.929 E1044.85863
G0 F4800 X22.024 Y64.344
G1 F2400 X168.151 Y210.472 E1053.87995
G0 F4800 X168.737 Y210.315
G1 F2400 X22.181 Y63.758 E1062.92776
G0 F4800 X22.338 Y63.173
G1 F2400 X169.322 Y210.158 E1072.00199
G0 F4800 X169.908 Y210.001
G1 F2400 X22.494 Y62.587 E1081.10274
G0 F4800 X22.651 Y62.001
G1 F2400 X170.494 Y209.845 E1090.23
G0 F4800 X171.08 Y209.688
G1 F2400 X22.808 Y61.416 E1099.38372
G0 F4800 X22.965 Y60.83
G1 F2400 X171.665 Y209.531 E1108.56389
G0 F4800 X172.164 Y209.287
G1 F2400 X23.209 Y60.332 E1117.75977
G0 F4800 X23.58 Y59.961
G1 F2400 X172.535 Y208.915 E1126.95562
G0 F4800 X172.906 Y208.544
G1 F2400 X23.951 Y59.589 E1136.15151
G0 F4800 X24.322 Y59.218
G1 F2400 X173.277 Y208.173 E1145.34739
G0 F4800 X173.648 Y207.802
G1 F2400 X24.694 Y58.847 E1154.54324
G0 F4800 X25.065 Y58.476
G1 F2400 X174.02 Y207.43 E1163.73909
G0 F4800 X174.391 Y207.059
G1 F2400 X25.436 Y58.104 E1172.93497
G0 F4800 X25.807 Y57.733
G1 F2400 X174.762 Y206.688 E1182.13086
G0 F4800 X175.133 Y206.317
G1 F2400 X26.179 Y57.362 E1191.32671
G0 F4800 X26.55 Y56.991
G1 F2400 X175.505 Y205.946 E1200.52259
G0 F4800 X175.876 Y205.574
G1 F2400 X26.921 Y56.619 E1209.71847
G0 F4800 X27.292 Y56.248
