;FLAVOR:Marlin
;TIME:4164
;Filament used: 4.16168m
;Layer height: 0.2
;MINX:97.393
;MINY:97.903
;MINZ:0.2
;MAXX:137.563
;MAXY:130.667
;MAXZ:76.4
;TARGET_MACHINE.NAME:ELEGOO NEPTUNE 4 Pro
;Generated with Cura_SteamEngine 5.7.2
M104 S255
M105
M109 S255
M82 ;absolute extrusion mode
;ELEGOO NEPTUNE 4 / 4 PRO
M220 S100 ;Set the feed speed to 100%
M221 S100 ;Set the flow rate to 100%
M104 S140 ;Start heating extruder
M190 S70 ;Wait for the bed to reach print temp
G90
G28 ;home
G1 Z10 F300
G1 X67.5 Y0 F6000
G1 Z0 F300
M109 S255.0 ;Wait for extruder to reach print temp
G92 E0 ;Reset Extruder
G1 X67.5 Y0 Z0.4 F300 ;Move to start position
G1 X167.5 E30 F400 ;Draw the first line
G1 Z0.6 F120.0 ;Move to side a little
G1 X162.5 F3000
G92 E0 ;Reset Extruder
G92 E0
G92 E0
G1 F2700 E-0.5
;LAYER_COUNT:382
;LAYER:0
M106 S29.7
M204 S500
G0 F4800 X98.954 Y101.929 Z0.2
;TYPE:SKIRT
G1 F2700 E0
G1 F3600 X99.455 Y101.476 E0.02949
G1 X100.07 Y101.073 E0.06158
G1 X100.932 Y100.668 E0.10316
G1 X101.582 Y100.388 E0.13405
G1 X102.244 Y100.161 E0.16461
G1 X104.353 Y99.834 E0.25777
G1 X107.016 Y99.368 E0.37579
G1 X109.679 Y98.824 E0.49444
G1 X112.971 Y98.062 E0.64195
G1 X113.974 Y97.93 E0.68611
G1 X114.63 Y97.903 E0.71477
G1 X115.435 Y97.964 E0.75001
G1 X116.94 Y98.199 E0.81651
G1 X119.591 Y98.572 E0.93338
G1 X122.315 Y98.877 E1.05303
G1 X125.007 Y99.1 E1.17095
G1 X127.68 Y99.247 E1.28781
G1 X130.414 Y99.304 E1.40719
G1 X130.591 Y99.32 E1.41495
G1 X131.75 Y99.337 E1.46555
G1 X132.797 Y99.458 E1.51156
G1 X133.735 Y99.763 E1.55462
G1 X134.27 Y100.032 E1.58076
G1 X134.959 Y100.448 E1.61589
G1 X135.501 Y100.848 E1.6453
G1 X135.921 Y101.267 E1.6712
G1 X136.387 Y101.883 E1.70491
G1 X136.855 Y102.84 E1.75142
G1 X137.175 Y103.743 E1.79324
G1 X137.437 Y104.98 E1.84844
G1 X137.516 Y105.746 E1.88206
G1 X137.536 Y108.673 E2.00983
G1 X137.511 Y111.623 E2.13862
G1 X137.528 Y112.559 E2.17948
G1 X137.536 Y114.625 E2.26967
G1 X137.527 Y116.733 E2.3617
G1 X137.563 Y120.062 E2.50703
G1 X137.553 Y123.935 E2.6761
G1 X137.456 Y125.287 E2.73527
G1 X137.358 Y125.913 E2.76293
G1 X137.121 Y126.681 E2.79802
G1 X136.542 Y127.734 E2.85048
G1 X136.213 Y128.233 E2.87657
G1 X135.901 Y128.637 E2.89885
G1 X135.115 Y129.383 E2.94616
G1 X134.319 Y129.903 E2.98766
G1 X133.631 Y130.198 E3.02034
G1 X133.042 Y130.393 E3.04743
G1 X132.373 Y130.562 E3.07755
G1 X131.279 Y130.643 E3.12544
G1 X129.964 Y130.667 E3.18285
G1 X129.269 Y130.649 E3.2132
G1 X128.06 Y130.567 E3.2661
G1 X127.472 Y130.482 E3.29204
G1 X126.417 Y130.135 E3.34052
G1 X123.981 Y128.955 E3.45868
G1 X121.492 Y127.832 E3.57788
G1 X118.978 Y126.783 E3.6968
G1 X116.465 Y125.816 E3.81434
G1 X113.943 Y124.926 E3.93109
G1 X111.33 Y124.086 E4.05091
G1 X108.747 Y123.335 E4.16833
G1 X106.139 Y122.658 E4.28596
G1 X101.963 Y121.726 E4.47274
G1 X101.38 Y121.548 E4.49935
G1 X100.62 Y121.149 E4.53682
G1 X99.949 Y120.707 E4.5719
G1 X99.485 Y120.34 E4.59772
G1 X99.022 Y119.855 E4.62699
G1 X98.705 Y119.462 E4.64904
G1 X98.325 Y118.9 E4.67865
G1 X98.025 Y118.285 E4.70852
G1 X97.794 Y117.375 E4.74951
G1 X97.636 Y116.26 E4.79867
G1 X97.48 Y114.697 E4.86724
G1 X97.49 Y112.972 E4.94254
G1 X97.457 Y110.222 E5.0626
G1 X97.393 Y108.118 E5.15449
G1 X97.646 Y105.004 E5.29088
G1 X97.761 Y104.361 E5.31939
G1 X97.938 Y103.712 E5.34876
G1 X98.16 Y103.112 E5.37668
G1 X98.531 Y102.453 E5.4097
G1 X98.954 Y101.929 E5.4391
G0 F4800 X99.31 Y102.315
G1 F3600 X99.746 Y101.913 E5.46498
G1 X100.293 Y101.548 E5.49369
G1 X101.14 Y101.15 E5.53454
G1 X101.753 Y100.885 E5.5637
G1 X102.373 Y100.672 E5.59232
G1 X104.433 Y100.353 E5.68331
G1 X107.107 Y99.885 E5.80182
G1 X109.793 Y99.336 E5.9215
G1 X113.04 Y98.583 E6.067
G1 X114.043 Y98.451 E6.11117
G1 X114.65 Y98.428 E6.13768
G1 X115.354 Y98.483 E6.16851
G1 X116.859 Y98.718 E6.23501
G1 X119.529 Y99.094 E6.35271
G1 X122.257 Y99.399 E6.47254
G1 X124.972 Y99.624 E6.59147
G1 X127.669 Y99.772 E6.70938
G1 X130.366 Y99.827 E6.82714
G1 X130.561 Y99.845 E6.83569
G1 X131.742 Y99.862 E6.88725
G1 X132.684 Y99.973 E6.92865
G1 X133.501 Y100.233 E6.96608
G1 X134 Y100.482 E6.99043
G1 X134.651 Y100.873 E7.02358
G1 X135.13 Y101.22 E7.0494
G1 X135.55 Y101.639 E7.0753
G1 X135.938 Y102.16 E7.10365
G1 X136.361 Y103.018 E7.14541
G1 X136.662 Y103.853 E7.18416
G1 X136.915 Y105.035 E7.23693
G1 X136.991 Y105.75 E7.26832
G1 X137.011 Y108.669 E7.39575
G1 X136.986 Y111.619 E7.52453
G1 X137.003 Y112.561 E7.56566
G1 X137.011 Y114.623 E7.65567
G1 X137.002 Y116.731 E7.7477
G1 X137.038 Y120.061 E7.89307
G1 X137.029 Y123.898 E8.06057
G1 X136.937 Y125.206 E8.11781
G1 X136.839 Y125.832 E8.14547
G1 X136.635 Y126.476 E8.17496
G1 X136.103 Y127.446 E8.22326
G1 X135.797 Y127.912 E8.24759
G1 X135.485 Y128.316 E8.26988
G1 X134.79 Y128.968 E8.31148
G1 X134.068 Y129.439 E8.34911
G1 X133.464 Y129.7 E8.37783
G1 X132.914 Y129.884 E8.40315
G1 X132.292 Y130.041 E8.43116
G1 X131.24 Y130.119 E8.47721
G1 X129.977 Y130.142 E8.53235
G1 X129.304 Y130.125 E8.56174
G1 X128.135 Y130.047 E8.61288
G1 X127.588 Y129.968 E8.63701
G1 X126.646 Y129.662 E8.68025
G1 X124.21 Y128.483 E8.79839
G1 X121.694 Y127.347 E8.9189
G1 X119.18 Y126.298 E9.03781
G1 X116.654 Y125.326 E9.15597
G1 X114.104 Y124.426 E9.27401
G1 X111.491 Y123.586 E9.39383
G1 X108.894 Y122.831 E9.51189
G1 X106.271 Y122.15 E9.63019
G1 X102.116 Y121.224 E9.81603
G1 X101.582 Y121.061 E9.8404
G1 X100.908 Y120.71 E9.87357
G1 X100.275 Y120.295 E9.90661
G1 X99.811 Y119.928 E9.93244
G1 X99.431 Y119.525 E9.95662
G1 X99.114 Y119.132 E9.97866
G1 X98.761 Y118.607 E10.00628
G1 X98.52 Y118.101 E10.03074
G1 X98.314 Y117.301 E10.06681
G1 X98.158 Y116.207 E10.11505
G1 X98.005 Y114.7 E10.18117
G1 X98.015 Y112.975 E10.25648
G1 X97.982 Y110.216 E10.37693
G1 X97.918 Y108.102 E10.46925
G1 X98.163 Y105.095 E10.60096
G1 X98.268 Y104.499 E10.62737
G1 X98.445 Y103.85 E10.65674
G1 X98.652 Y103.295 E10.6826
G1 X98.943 Y102.779 E10.70846
G1 X99.31 Y102.315 E10.73428
G0 F4800 X99.67 Y102.697
G1 F3600 X100.042 Y102.347 E10.75658
G1 X100.517 Y102.023 E10.78168
G1 X101.35 Y101.631 E10.82187
G1 X101.924 Y101.381 E10.8492
G1 X102.497 Y101.184 E10.87565
G1 X104.513 Y100.872 E10.96471
G1 X107.198 Y100.402 E11.0837
G1 X109.907 Y99.848 E11.20441
G1 X113.109 Y99.103 E11.34792
G1 X114.063 Y98.976 E11.38993
G1 X114.67 Y98.953 E11.41645
G1 X115.273 Y99.002 E11.44286
G1 X116.778 Y99.237 E11.50935
G1 X119.467 Y99.616 E11.6279
G1 X122.199 Y99.921 E11.7479
G1 X124.937 Y100.148 E11.86784
G1 X127.658 Y100.297 E11.9868
G1 X130.355 Y100.352 E12.10456
G1 X130.537 Y100.37 E12.11254
G1 X131.735 Y100.387 E12.16484
G1 X132.573 Y100.488 E12.20169
G1 X133.268 Y100.704 E12.23346
G1 X133.731 Y100.933 E12.25601
G1 X134.347 Y101.301 E12.28733
G1 X134.763 Y101.596 E12.3096
G1 X135.129 Y101.953 E12.33192
G1 X135.489 Y102.436 E12.35821
G1 X135.868 Y103.199 E12.3954
G1 X136.149 Y103.964 E12.43098
G1 X136.393 Y105.093 E12.4814
G1 X136.466 Y105.754 E12.51043
G1 X136.486 Y108.665 E12.63751
G1 X136.461 Y111.615 E12.7663
G1 X136.478 Y112.563 E12.80769
G1 X136.486 Y114.621 E12.89753
G1 X136.477 Y116.729 E12.98955
G1 X136.513 Y120.06 E13.13497
G1 X136.505 Y123.861 E13.3009
G1 X136.413 Y125.169 E13.35814
G1 X136.338 Y125.674 E13.38043
G1 X136.15 Y126.268 E13.40763
G1 X135.663 Y127.159 E13.45195
G1 X135.381 Y127.591 E13.47447
G1 X135.069 Y127.995 E13.49676
G1 X134.469 Y128.55 E13.53244
G1 X133.816 Y128.976 E13.56647
G1 X133.296 Y129.203 E13.59124
G1 X132.786 Y129.375 E13.61474
G1 X132.211 Y129.52 E13.64062
G1 X131.201 Y129.595 E13.68484
G1 X129.99 Y129.617 E13.73771
G1 X129.338 Y129.601 E13.76618
G1 X128.21 Y129.527 E13.81553
G1 X127.705 Y129.454 E13.8378
G1 X126.875 Y129.189 E13.87584
G1 X124.439 Y128.01 E13.99398
G1 X121.91 Y126.869 E14.11509
G1 X119.369 Y125.808 E14.2353
G1 X116.843 Y124.836 E14.35345
G1 X114.265 Y123.926 E14.4728
G1 X111.652 Y123.086 E14.59261
G1 X109.041 Y122.327 E14.71131
G1 X106.403 Y121.642 E14.83029
G1 X102.269 Y120.722 E15.01517
G1 X101.781 Y120.573 E15.03745
G1 X101.195 Y120.27 E15.06624
G1 X100.596 Y119.879 E15.09747
G1 X100.192 Y119.567 E15.11975
G1 X99.84 Y119.195 E15.14211
G1 X99.523 Y118.802 E15.16415
G1 X99.235 Y118.381 E15.18642
G1 X99.015 Y117.92 E15.20872
G1 X98.834 Y117.226 E15.24003
G1 X98.68 Y116.153 E15.28735
G1 X98.53 Y114.703 E15.35098
G1 X98.54 Y112.978 E15.42629
G1 X98.507 Y110.21 E15.54713
G1 X98.443 Y108.086 E15.63989
G1 X98.68 Y105.186 E15.76691
G1 X98.785 Y104.59 E15.79333
G1 X98.939 Y104.028 E15.81877
G1 X99.112 Y103.548 E15.84104
G1 X99.358 Y103.1 E15.86335
G1 X99.67 Y102.697 E15.8856
G1 F2700 E15.3856
G0 F4800 X102.379 Y105.033
G1 F2700 E15.8856
G1 F3600 X103.266 Y104.632 E15.9281
G1 X104.008 Y104.709 E15.96066
G1 X104.799 Y104.845 E15.9957
G1 X104.851 Y104.849 E15.99797
G1 X105.745 Y104.825 E16.03702
G1 X105.788 Y104.82 E16.03891
G1 X106.377 Y104.705 E16.0651
G1 X106.392 Y104.702 E16.06577
G1 X107.461 Y104.431 E16.11391
G1 X107.5 Y104.418 E16.11571
G1 X108.235 Y104.103 E16.15062
G1 X108.346 Y104.012 E16.15688
G1 X108.355 Y103.985 E16.15812
G1 X108.952 Y103.985 E16.18419
G1 X109.077 Y104.014 E16.18979
G1 X109.973 Y103.995 E16.22891
G1 X110.026 Y103.988 E16.23124
G1 X111.007 Y103.764 E16.27517
G1 X111.045 Y103.752 E16.27691
G1 X112.054 Y103.35 E16.32432
G1 X112.086 Y103.335 E16.32587
G1 X113.101 Y102.762 E16.37675
G1 X113.717 Y102.569 E16.40493
G1 X114.499 Y102.464 E16.43937
G1 X114.744 Y102.478 E16.45008
G1 X115.079 Y102.57 E16.46525
G1 X116.785 Y103.336 E16.54689
G1 X116.816 Y103.348 E16.54834
G1 X117.799 Y103.647 E16.59319
G1 X117.815 Y103.651 E16.59391
G1 X118.567 Y103.83 E16.62766
G1 X118.687 Y103.83 E16.63289
G1 X118.753 Y103.815 E16.63585
G1 X118.888 Y103.862 E16.64209
G1 X119.453 Y103.88 E16.66677
G1 X119.584 Y103.85 E16.67263
G1 X119.614 Y103.834 E16.67412
G1 X119.643 Y103.857 E16.67573
G1 X119.748 Y103.877 E16.6804
G1 X120.336 Y103.867 E16.70607
G1 X120.408 Y103.856 E16.70925
G1 X120.483 Y103.833 E16.71267
G1 X120.497 Y103.846 E16.71351
G1 X120.612 Y103.874 E16.71868
G1 X121.004 Y103.878 E16.73579
G1 X121.067 Y103.871 E16.73856
G1 X121.15 Y103.852 E16.74227
G1 X121.293 Y103.87 E16.74856
G1 X121.38 Y103.84 E16.75258
G1 X121.405 Y103.826 E16.75383
G1 X121.522 Y103.84 E16.75898
G1 X121.551 Y103.83 E16.76032
G1 X121.576 Y103.85 E16.76171
G1 X121.709 Y103.871 E16.76759
G1 X122.451 Y103.793 E16.80016
G1 X123.19 Y103.839 E16.83248
G1 X123.2 Y103.84 E16.83292
G1 X123.968 Y103.857 E16.86646
G1 X124.107 Y103.821 E16.87272
G1 X124.112 Y103.816 E16.87303
G1 X124.127 Y103.821 E16.87372
G1 X124.27 Y103.831 E16.87998
G1 X124.327 Y103.801 E16.88279
G1 X124.466 Y103.835 E16.88904
G1 X124.525 Y103.842 E16.89163
G1 X125.418 Y103.852 E16.93062
G1 X125.557 Y103.814 E16.93691
G1 X125.592 Y103.781 E16.93901
G1 X125.708 Y103.806 E16.94419
G1 X125.851 Y103.797 E16.95044
G1 X125.875 Y103.78 E16.95173
G1 X126.114 Y103.854 E16.96265
G1 X126.168 Y103.865 E16.96506
G1 X127.291 Y103.967 E17.01428
G1 X127.432 Y103.94 E17.02055
G1 X127.452 Y103.926 E17.02161
G1 X128.09 Y104.039 E17.0499
G1 X128.139 Y104.043 E17.05205
G1 X128.981 Y104.033 E17.0888
G1 X129.012 Y104.031 E17.09016
G1 X129.671 Y103.945 E17.11917
G1 X129.771 Y103.902 E17.12392
G1 X131.673 Y103.902 E17.20695
G1 X131.98 Y103.974 E17.22072
G1 X132.492 Y104.286 E17.24689
G1 X132.703 Y104.725 E17.26816
G1 X132.925 Y105.688 E17.3113
G1 X132.889 Y105.815 E17.31706
G1 X132.925 Y106.324 E17.33933
G1 X132.899 Y106.455 E17.34517
G1 X132.916 Y106.531 E17.34856
G1 X132.883 Y106.692 E17.35574
G1 X132.919 Y106.912 E17.36547
G1 X132.898 Y107.026 E17.37053
G1 X132.929 Y107.163 E17.37666
G1 X132.901 Y107.27 E17.38149
G1 X132.952 Y107.749 E17.40252
G1 X132.908 Y107.857 E17.40761
G1 X132.912 Y107.945 E17.41146
G1 X132.938 Y108.063 E17.41673
G1 X132.905 Y108.146 E17.42063
G1 X132.91 Y108.229 E17.42426
G1 X132.916 Y108.258 E17.42555
G1 X132.882 Y108.418 E17.43269
G1 X132.921 Y108.651 E17.44301
G1 X132.904 Y108.74 E17.44696
G1 X132.937 Y108.91 E17.45452
G1 X132.894 Y108.999 E17.45884
G1 X132.894 Y109.087 E17.46268
G1 X132.91 Y109.186 E17.46706
G1 X132.891 Y109.242 E17.46964
G1 X132.898 Y109.315 E17.47284
G1 X132.922 Y109.419 E17.4775
G1 X132.883 Y109.59 E17.48515
G1 X132.918 Y109.8 E17.49445
G1 X132.899 Y109.906 E17.49915
G1 X132.915 Y109.974 E17.5022
G1 X132.879 Y110.145 E17.50983
G1 X132.893 Y110.232 E17.51367
G1 X132.867 Y110.363 E17.5195
G1 X132.893 Y110.525 E17.52667
G1 X132.869 Y110.648 E17.53214
G1 X132.89 Y110.78 E17.53797
G1 X132.867 Y110.912 E17.54382
G1 X132.917 Y111.482 E17.5688
G1 X132.894 Y111.607 E17.57435
G1 X132.914 Y111.694 E17.57824
G1 X132.879 Y111.862 E17.58574
G1 X132.893 Y111.944 E17.58937
G1 X132.871 Y112.078 E17.5953
G1 X132.896 Y112.226 E17.60185
G1 X132.872 Y112.356 E17.60762
G1 X132.947 Y112.945 E17.63354
G1 X132.908 Y113.042 E17.6381
G1 X132.913 Y113.128 E17.64186
G1 X132.916 Y113.142 E17.64249
G1 X132.883 Y113.287 E17.64898
G1 X132.895 Y113.387 E17.65338
G1 X132.874 Y113.5 E17.65839
G1 X132.947 Y114.082 E17.684
G1 X132.905 Y114.191 E17.6891
G1 X132.911 Y114.274 E17.69273
G1 X132.94 Y114.402 E17.69846
G1 X132.909 Y114.48 E17.70212
G1 X132.914 Y114.567 E17.70593
G1 X132.94 Y114.682 E17.71108
G1 X132.906 Y114.765 E17.71499
G1 X132.91 Y114.854 E17.71888
G1 X132.917 Y114.884 E17.72022
G1 X132.88 Y115.051 E17.72769
G1 X132.911 Y115.234 E17.73579
G1 X132.89 Y115.295 E17.73861
G1 X132.897 Y115.367 E17.74177
G1 X132.914 Y115.441 E17.74508
G1 X132.879 Y115.609 E17.75257
G1 X132.9 Y115.726 E17.75776
G1 X132.884 Y115.802 E17.76115
G1 X132.916 Y116.092 E17.77389
G1 X132.895 Y116.147 E17.77646
G1 X132.9 Y116.224 E17.77983
G1 X132.933 Y116.376 E17.78662
G1 X132.899 Y116.454 E17.79033
G1 X132.904 Y116.547 E17.7944
G1 X132.93 Y116.663 E17.79959
G1 X132.899 Y116.742 E17.80329
G1 X132.903 Y116.827 E17.80701
G1 X132.938 Y116.984 E17.81403
G1 X132.904 Y117.068 E17.81799
G1 X132.909 Y117.151 E17.82162
G1 X132.931 Y117.252 E17.82613
G1 X132.901 Y117.318 E17.82929
G1 X132.904 Y117.414 E17.83349
G1 X132.921 Y117.489 E17.83684
G1 X132.899 Y117.591 E17.8414
G1 X132.953 Y118.073 E17.86257
G1 X132.907 Y118.18 E17.86765
G1 X132.912 Y118.274 E17.87176
G1 X132.94 Y118.39 E17.87697
G1 X132.902 Y118.489 E17.8816
G1 X132.908 Y118.572 E17.88524
G1 X132.915 Y118.602 E17.88658
G1 X132.892 Y118.71 E17.8914
G1 X132.959 Y119.262 E17.91567
G1 X132.918 Y119.378 E17.92105
G1 X132.918 Y119.732 E17.9365
G1 X132.927 Y119.8 E17.93949
G1 X132.951 Y119.889 E17.94352
G1 X132.915 Y120.032 E17.94995
G1 X132.928 Y120.103 E17.95311
G1 X132.952 Y120.174 E17.95638
G1 X132.948 Y120.178 E17.95662
G1 X132.928 Y120.387 E17.96579
G1 X132.95 Y120.455 E17.96891
G1 X132.93 Y120.476 E17.97018
G1 X132.898 Y120.614 E17.97636
G1 X132.909 Y120.837 E17.98611
G1 X132.886 Y120.957 E17.99144
G1 X132.906 Y121.147 E17.99978
G1 X132.887 Y121.247 E18.00422
G1 X132.906 Y121.432 E18.01234
G1 X132.887 Y121.533 E18.01683
G1 X132.906 Y121.712 E18.02469
G1 X132.889 Y121.808 E18.02894
G1 X132.921 Y122.322 E18.05142
G1 X132.93 Y122.377 E18.05386
G1 X132.976 Y122.539 E18.06121
G1 X132.915 Y122.646 E18.06658
G1 X132.908 Y122.722 E18.06992
G1 X132.944 Y123.405 E18.09977
G1 X132.947 Y123.429 E18.10083
G1 X132.974 Y123.615 E18.10903
G1 X132.937 Y123.743 E18.11485
G1 X132.927 Y124.554 E18.15026
G1 X132.908 Y124.624 E18.15342
G1 X132.907 Y124.817 E18.16185
G1 X132.841 Y124.896 E18.16634
G1 X132.7 Y125.268 E18.18371
G1 X132.463 Y125.632 E18.20267
G1 X132.129 Y125.889 E18.22107
G1 X131.704 Y126.031 E18.24063
G1 X130.88 Y126.03 E18.2766
G1 X130.742 Y126.069 E18.28286
G1 X130.715 Y126.098 E18.28459
G1 X129.788 Y126.098 E18.32506
G1 X129.772 Y126.085 E18.32596
G1 X129.677 Y126.064 E18.3302
G1 X128.472 Y126.02 E18.38284
G1 X128.231 Y125.936 E18.39398
G1 X127.977 Y125.683 E18.40963
G1 X127.87 Y125.639 E18.41468
G1 X127.82 Y125.485 E18.42175
G1 X127.741 Y125.366 E18.42799
G1 X127.698 Y125.35 E18.42999
G1 X127.678 Y123.695 E18.50224
G1 X127.686 Y123.659 E18.50385
G1 X127.635 Y122.697 E18.54591
G1 X127.63 Y122.66 E18.54754
G1 X127.491 Y121.958 E18.57878
G1 X127.485 Y121.933 E18.5799
G1 X127.265 Y121.206 E18.61306
G1 X127.249 Y121.165 E18.61498
G1 X127.016 Y120.696 E18.63784
G1 X127.003 Y120.673 E18.63899
G1 X126.66 Y120.127 E18.66714
G1 X126.638 Y120.097 E18.66876
