;FLAVOR:Marlin
;TIME:5981
;Filament used: 7.4883m
;Layer height: 0.2
;MINX:74.165
;MINY:81.676
;MINZ:0.2
;MAXX:160.842
;MAXY:148.32
;MAXZ:50
;TARGET_MACHINE.NAME:ELEGOO NEPTUNE 4 Pro
;Generated with Cura_SteamEngine 5.7.2
M104 S255
M105
M109 S255
M82 ;absolute extrusion mode
;ELEGOO NEPTUNE 4 / 4 PRO
M220 S100 ;Set the feed speed to 100%
M221 S100 ;Set the flow rate to 100%
M104 S140 ;Start heating extruder
M190 S70 ;Wait for the bed to reach print temp
G90
G28 ;home
G1 Z10 F300
G1 X67.5 Y0 F6000
G1 Z0 F300
M109 S255.0 ;Wait for extruder to reach print temp
G92 E0 ;Reset Extruder
G1 X67.5 Y0 Z0.4 F300 ;Move to start position
G1 X167.5 E30 F400 ;Draw the first line
G1 Z0.6 F120.0 ;Move to side a little
G1 X162.5 F3000
G92 E0 ;Reset Extruder
G92 E0
G92 E0
G1 F2700 E-0.5
;LAYER_COUNT:250
;LAYER:0
M107
M204 S500
G0 F3600 X84.41 Y90.951 Z0.2
;TYPE:SKIRT
G1 F2700 E0
G1 F3600 X85.518 Y89.951 E0.06516
G1 X86.322 Y89.269 E0.11118
G1 X86.945 Y88.767 E0.14611
G1 X88.369 Y87.708 E0.22357
G1 X89.126 Y87.198 E0.26342
G1 X89.881 Y86.712 E0.30262
G1 X90.574 Y86.292 E0.33799
G1 X91.265 Y85.895 E0.37278
G1 X91.809 Y85.598 E0.39984
G1 X92.559 Y85.211 E0.43668
G1 X93.813 Y84.617 E0.49725
G1 X94.911 Y84.146 E0.54941
G1 X95.824 Y83.79 E0.59219
G1 X96.549 Y83.531 E0.6258
G1 X97.874 Y83.102 E0.68659
G1 X98.787 Y82.839 E0.72807
G1 X100.175 Y82.495 E0.79049
G1 X101.091 Y82.301 E0.83137
G1 X101.91 Y82.151 E0.86772
G1 X102.864 Y82.004 E0.90985
G1 X103.584 Y81.915 E0.94152
G1 X104.525 Y81.818 E0.98282
G1 X105.973 Y81.719 E1.04618
G1 X106.909 Y81.687 E1.08706
G1 X107.836 Y81.679 E1.12753
G1 X156.917 Y81.676 E3.27011
G1 X157.617 Y81.686 E3.30067
G1 X158.125 Y81.734 E3.32294
G1 X158.62 Y81.859 E3.34523
G1 X159.089 Y82.061 E3.36752
G1 X159.52 Y82.333 E3.38977
G1 X159.904 Y82.67 E3.41207
G1 X160.231 Y83.062 E3.43436
G1 X160.493 Y83.5 E3.45664
G1 X160.683 Y83.974 E3.47893
G1 X160.797 Y84.471 E3.50119
G1 X160.841 Y84.964 E3.5228
G1 X160.842 Y144.364 E6.11584
G1 X160.832 Y145.094 E6.14771
G1 X160.785 Y145.602 E6.16998
G1 X160.659 Y146.097 E6.19228
G1 X160.458 Y146.566 E6.21456
G1 X160.186 Y146.998 E6.23684
G1 X159.85 Y147.382 E6.25911
G1 X159.458 Y147.709 E6.2814
G1 X159.02 Y147.971 E6.30368
G1 X158.546 Y148.161 E6.32597
G1 X158.049 Y148.276 E6.34824
G1 X157.555 Y148.32 E6.36989
G1 X107.437 Y148.318 E8.55774
G1 X106.121 Y148.289 E8.6152
G1 X104.618 Y148.194 E8.68094
G1 X102.639 Y147.969 E8.76789
G1 X101.017 Y147.686 E8.83977
G1 X100.185 Y147.507 E8.87692
G1 X98.505 Y147.078 E8.95261
G1 X97.472 Y146.772 E8.99964
G1 X96.605 Y146.486 E9.0395
G1 X95.444 Y146.065 E9.09341
G1 X94.121 Y145.516 E9.15594
G1 X93.129 Y145.068 E9.20345
G1 X91.993 Y144.497 E9.25896
G1 X91.305 Y144.13 E9.293
G1 X90.479 Y143.654 E9.33461
G1 X89.505 Y143.052 E9.3846
G1 X88.7 Y142.522 E9.42667
G1 X87.654 Y141.775 E9.48278
G1 X86.818 Y141.137 E9.52869
G1 X85.989 Y140.46 E9.57541
G1 X85.421 Y139.97 E9.60816
G1 X84.575 Y139.191 E9.65836
G1 X83.421 Y138.06 E9.7289
G1 X82.249 Y136.75 E9.80563
G1 X81.69 Y136.088 E9.84346
G1 X81.291 Y135.595 E9.87114
G1 X80.279 Y134.241 E9.94494
G1 X79.949 Y133.76 E9.9704
G1 X79.111 Y132.469 E10.03759
G1 X78.768 Y131.898 E10.06667
G1 X77.98 Y130.466 E10.13802
G1 X77.422 Y129.372 E10.19163
G1 X77.204 Y128.913 E10.21381
G1 X76.66 Y127.655 E10.27364
G1 X76.401 Y127.006 E10.30415
G1 X75.96 Y125.797 E10.36033
G1 X75.775 Y125.229 E10.38641
G1 X75.519 Y124.386 E10.42486
G1 X75.277 Y123.514 E10.46437
G1 X75.067 Y122.668 E10.50242
G1 X74.779 Y121.389 E10.55965
G1 X74.589 Y120.321 E10.60701
G1 X74.484 Y119.624 E10.63778
G1 X74.409 Y119.027 E10.66404
G1 X74.274 Y117.68 E10.72314
G1 X74.206 Y116.637 E10.76877
G1 X74.176 Y115.889 E10.80145
G1 X74.165 Y115.31 E10.82673
G1 X74.17 Y114.496 E10.86226
G1 X74.211 Y113.378 E10.9111
G1 X74.302 Y112.036 E10.96982
G1 X74.445 Y110.685 E11.02912
G1 X74.519 Y110.147 E11.05283
G1 X74.705 Y109.014 E11.10295
G1 X74.877 Y108.139 E11.14188
G1 X75.151 Y106.961 E11.19468
G1 X75.449 Y105.857 E11.2446
G1 X75.659 Y105.16 E11.27638
G1 X75.959 Y104.236 E11.31878
G1 X76.527 Y102.684 E11.39093
G1 X76.839 Y101.936 E11.42631
G1 X77.241 Y101.03 E11.46958
G1 X77.776 Y99.907 E11.52388
G1 X78.012 Y99.452 E11.54626
G1 X78.566 Y98.449 E11.59628
G1 X79.294 Y97.244 E11.65773
G1 X79.735 Y96.56 E11.69326
G1 X80.67 Y95.227 E11.76434
G1 X81.105 Y94.646 E11.79602
G1 X81.544 Y94.096 E11.82674
G1 X82.331 Y93.146 E11.8806
G1 X83.296 Y92.093 E11.94295
G1 X84.41 Y90.951 E12.01259
G1 F2700 E11.51259
;MESH:amcrest_wall_mount.stl
G0 F3600 X105.057 Y102.462
G0 X105.222 Y102.622
;TYPE:WALL-INNER
G1 F2700 E12.01259
G1 X105.347 Y102.44 E12.02223
G1 X105.564 Y102.273 E12.03418
G1 X105.843 Y102.189 E12.0469
G1 X109.101 Y102.187 E12.18913
G1 X109.298 Y102.231 E12.19794
G1 X109.521 Y102.354 E12.20906
G1 X109.678 Y102.521 E12.21906
G1 X109.785 Y102.741 E12.22974
G1 X109.819 Y102.936 E12.23838
G1 X109.819 Y127.056 E13.29132
G1 X109.707 Y127.426 E13.30819
G1 X109.567 Y127.599 E13.31791
G1 X109.359 Y127.737 E13.3288
G1 X109.101 Y127.805 E13.34045
G1 X105.819 Y127.807 E13.48372
G1 X105.564 Y127.719 E13.4955
G1 X105.369 Y127.575 E13.50608
G1 X105.192 Y127.302 E13.52028
G1 X105.142 Y127.074 E13.53047
G1 X105.141 Y102.946 E14.58376
G1 X105.222 Y102.622 E14.59833
G1 F2700 E14.09833
G0 F3600 X105.081 Y102.643
G0 X104.924 Y115.01
G0 X78.435 Y114.621
G0 X78.208 Y115.003
G1 F2700 E14.59833
G1 X78.223 Y116.011 E14.64234
G1 X78.246 Y116.515 E14.66437
G1 X78.317 Y117.548 E14.70957
G1 X78.422 Y118.552 E14.75364
G1 X78.562 Y119.561 E14.7981
G1 X78.764 Y120.7 E14.8486
G1 X79.077 Y122.079 E14.91033
G1 X79.337 Y123.052 E14.9543
G1 X79.634 Y124.03 E14.99892
G1 X79.964 Y124.995 E15.04344
G1 X80.331 Y125.952 E15.08818
G1 X80.567 Y126.52 E15.11503
G1 X80.945 Y127.366 E15.15548
G1 X81.39 Y128.274 E15.19962
G1 X81.869 Y129.175 E15.24417
G1 X82.383 Y130.07 E15.28922
G1 X82.92 Y130.927 E15.33337
G1 X83.497 Y131.784 E15.37847
G1 X84.093 Y132.602 E15.42266
G1 X84.724 Y133.412 E15.46748
G1 X85.381 Y134.195 E15.5121
G1 X85.716 Y134.575 E15.53421
G1 X86.414 Y135.324 E15.57891
G1 X86.767 Y135.685 E15.60095
G1 X87.511 Y136.401 E15.64602
G1 X88.211 Y137.039 E15.68737
G1 X89.045 Y137.741 E15.73496
G1 X90.263 Y138.677 E15.80201
G1 X90.672 Y138.968 E15.82393
G1 X91.52 Y139.539 E15.86855
G1 X92.39 Y140.081 E15.9133
G1 X93.459 Y140.702 E15.96727
G1 X94.633 Y141.3 E16.02478
G1 X95.57 Y141.737 E16.06992
G1 X96.504 Y142.138 E16.11429
G1 X97.45 Y142.5 E16.15851
G1 X98.416 Y142.835 E16.20314
G1 X99.406 Y143.135 E16.2483
G1 X100.38 Y143.4 E16.29236
G1 X101.381 Y143.629 E16.33719
G1 X102.888 Y143.911 E16.40412
G1 X103.896 Y144.054 E16.44856
G1 X104.912 Y144.159 E16.49315
G1 X105.942 Y144.23 E16.53822
G1 X106.964 Y144.269 E16.58287
G1 X156.793 Y144.269 E18.7581
G1 X156.793 Y85.724 E21.31382
G1 X107.55 Y85.726 E23.46347
G1 X106.468 Y85.743 E23.51071
G1 X105.961 Y85.766 E23.53286
G1 X104.929 Y85.837 E23.57802
G1 X103.917 Y85.946 E23.62245
G1 X102.911 Y86.086 E23.66679
G1 X101.775 Y86.284 E23.71713
G1 X100.397 Y86.597 E23.77882
G1 X99.425 Y86.857 E23.82274
G1 X98.435 Y87.157 E23.8679
G1 X97.475 Y87.489 E23.91224
G1 X97.002 Y87.666 E23.93429
G1 X96.056 Y88.049 E23.97884
G1 X95.108 Y88.47 E24.02412
G1 X94.202 Y88.91 E24.06809
G1 X93.291 Y89.397 E24.11319
G1 X92.405 Y89.908 E24.15784
G1 X91.549 Y90.441 E24.20185
G1 X90.696 Y91.017 E24.24679
G1 X89.87 Y91.618 E24.29138
G1 X89.06 Y92.248 E24.33617
G1 X88.279 Y92.904 E24.3807
G1 X87.901 Y93.239 E24.40275
G1 X87.149 Y93.937 E24.44754
G1 X86.788 Y94.294 E24.4697
G1 X86.07 Y95.035 E24.51474
G1 X85.438 Y95.73 E24.55575
G1 X84.741 Y96.567 E24.6033
G1 X84.104 Y97.379 E24.64835
G1 X83.509 Y98.196 E24.69247
G1 X82.932 Y99.054 E24.73761
G1 X82.391 Y99.915 E24.782
G1 X81.878 Y100.805 E24.82684
G1 X81.404 Y101.702 E24.87113
G1 X81.173 Y102.16 E24.89353
G1 X80.739 Y103.089 E24.93829
G1 X80.338 Y104.032 E24.98302
G1 X79.972 Y104.982 E25.02746
G1 X79.637 Y105.952 E25.07226
G1 X79.341 Y106.925 E25.11666
G1 X79.075 Y107.915 E25.16141
G1 X78.956 Y108.406 E25.18346
G1 X78.745 Y109.411 E25.22829
G1 X78.524 Y110.653 E25.28336
G1 X78.371 Y111.884 E25.33751
G1 X78.27 Y113.023 E25.38743
G1 X78.223 Y113.97 E25.42882
G1 X78.208 Y115.003 E25.47392
G0 F3600 X77.683 Y115.003
;TYPE:WALL-OUTER
G1 F1800 X77.698 Y116.027 E25.51863
G1 X77.722 Y116.545 E25.54126
G1 X77.794 Y117.593 E25.58712
G1 X77.901 Y118.616 E25.63202
G1 X78.043 Y119.643 E25.67728
G1 X78.249 Y120.804 E25.72876
G1 X78.567 Y122.205 E25.79147
G1 X78.832 Y123.196 E25.83625
G1 X79.134 Y124.191 E25.88164
G1 X79.471 Y125.174 E25.92701
G1 X79.844 Y126.146 E25.97246
G1 X80.085 Y126.728 E25.99995
G1 X80.47 Y127.588 E26.04109
G1 X80.922 Y128.512 E26.08599
G1 X81.41 Y129.429 E26.13134
G1 X81.933 Y130.341 E26.17723
G1 X82.48 Y131.213 E26.22217
G1 X83.067 Y132.085 E26.26805
G1 X83.674 Y132.918 E26.31305
G1 X84.316 Y133.743 E26.35868
G1 X84.983 Y134.537 E26.40395
G1 X85.327 Y134.928 E26.42669
G1 X86.034 Y135.687 E26.47197
G1 X86.397 Y136.057 E26.49459
G1 X87.152 Y136.784 E26.54035
G1 X87.865 Y137.434 E26.58247
G1 X88.714 Y138.148 E26.63089
G1 X89.952 Y139.1 E26.69907
G1 X90.374 Y139.4 E26.72167
G1 X91.235 Y139.98 E26.76699
G1 X92.12 Y140.531 E26.8125
G1 X93.029 Y141.059 E26.85839
G1 X93.474 Y141.299 E26.88046
G1 X94.403 Y141.772 E26.92597
G1 X95.356 Y142.216 E26.97186
G1 X96.307 Y142.625 E27.01706
G1 X97.27 Y142.993 E27.06206
G1 X98.253 Y143.334 E27.10748
G1 X99.261 Y143.64 E27.15347
G1 X100.252 Y143.909 E27.19829
G1 X101.274 Y144.143 E27.24406
G1 X102.803 Y144.429 E27.31197
G1 X103.832 Y144.575 E27.35733
G1 X104.867 Y144.682 E27.40276
G1 X105.914 Y144.754 E27.44857
G1 X106.953 Y144.794 E27.49396
G1 X157.318 Y144.794 E29.69259
G1 X157.318 Y85.199 E32.29415
G1 X107.55 Y85.201 E34.46672
G1 X106.452 Y85.218 E34.51465
G1 X105.931 Y85.242 E34.53742
G1 X104.883 Y85.314 E34.58328
G1 X103.853 Y85.425 E34.6285
G1 X102.829 Y85.567 E34.67363
G1 X101.672 Y85.769 E34.7249
G1 X100.271 Y86.087 E34.78762
G1 X99.28 Y86.352 E34.8324
G1 X98.273 Y86.658 E34.87834
G1 X97.297 Y86.995 E34.92342
G1 X96.7 Y87.221 E34.95128
G1 X95.851 Y87.566 E34.99129
G1 X94.887 Y87.994 E35.03733
G1 X93.963 Y88.442 E35.08216
G1 X93.036 Y88.938 E35.12806
G1 X92.135 Y89.457 E35.17345
G1 X91.263 Y90 E35.21829
G1 X90.395 Y90.587 E35.26403
G1 X89.554 Y91.198 E35.30941
G1 X88.729 Y91.84 E35.35505
G1 X87.786 Y92.633 E35.40883
G1 X86.786 Y93.558 E35.4683
G1 X86.415 Y93.925 E35.49108
G1 X85.688 Y94.676 E35.53671
G1 X85.042 Y95.385 E35.57858
G1 X84.332 Y96.237 E35.62699
G1 X83.686 Y97.062 E35.67274
G1 X83.079 Y97.895 E35.71773
G1 X82.492 Y98.767 E35.76362
G1 X81.941 Y99.644 E35.80883
G1 X81.418 Y100.551 E35.85454
G1 X80.937 Y101.461 E35.89947
G1 X80.7 Y101.931 E35.92245
G1 X80.26 Y102.875 E35.96791
G1 X79.851 Y103.835 E36.01347
G1 X79.479 Y104.802 E36.0587
G1 X79.138 Y105.789 E36.10428
G1 X78.836 Y106.781 E36.14955
G1 X78.566 Y107.785 E36.19493
G1 X78.444 Y108.29 E36.21761
G1 X78.23 Y109.31 E36.26311
G1 X78.047 Y110.335 E36.30856
G1 X77.972 Y110.836 E36.33068
G1 X77.849 Y111.828 E36.37431
G1 X77.746 Y112.987 E36.42511
G1 X77.698 Y113.953 E36.46733
G1 X77.683 Y115.003 E36.51317
G0 F3600 X77.685 Y115.203
G1 F2700 E36.01317
G0 F3600 X78.334 Y115.193
G0 X78.464 Y116.004
G0 X104.924 Y116.009
G0 X105.018 Y127.059
G0 X105.668 Y127.059
G1 F2700 E36.51317
G1 F1800 X105.667 Y102.941 E37.56602
G1 X105.788 Y102.75 E37.57589
G1 X105.899 Y102.711 E37.58102
G1 X109.055 Y102.71 E37.71879
G1 X109.195 Y102.766 E37.72538
G1 X109.29 Y102.922 E37.73335
G1 X109.292 Y127.057 E38.78694
G1 X109.195 Y127.226 E38.79544
G1 X109.055 Y127.282 E38.80203
G1 X105.878 Y127.278 E38.94071
G1 X105.741 Y127.205 E38.94749
G1 X105.668 Y127.059 E38.95462
G0 F3600 X105.668 Y126.859
G1 F2700 E38.45462
G0 F3600 X105.018 Y126.859
G0 X104.924 Y115.008
G0 X78.435 Y114.619
G0 X78.711 Y115.003
;TYPE:SKIN
G1 F2700 E38.95462
G1 F1800 X78.726 Y113.989 E38.99889
G1 X78.77 Y113.05 E39.03992
G1 X78.869 Y111.941 E39.08853
G1 X79.024 Y110.719 E39.1423
G1 X79.234 Y109.51 E39.19587
G1 X79.487 Y108.302 E39.24975
G1 X79.824 Y107.069 E39.30555
G1 X80.114 Y106.113 E39.34916
G1 X80.443 Y105.158 E39.39325
G1 X80.799 Y104.227 E39.43676
G1 X81.196 Y103.3 E39.48078
G1 X81.518 Y102.612 E39.51395
G1 X81.51 Y102.596 E39.51473
G1 X82.314 Y101.051 E39.59076
G1 X82.817 Y100.18 E39.63466
G1 X83.348 Y99.331 E39.67838
G1 X83.923 Y98.479 E39.72325
G1 X84.502 Y97.686 E39.76611
G1 X85.128 Y96.885 E39.81049
G1 X85.822 Y96.057 E39.85765
G1 X86.432 Y95.384 E39.89731
G1 X87.356 Y94.428 E39.95535
G1 X88.442 Y93.421 E40.02
G1 X89.369 Y92.641 E40.07288
G1 X90.249 Y91.963 E40.12138
G1 X90.987 Y91.431 E40.16109
G1 X91.828 Y90.86 E40.20547
G1 X92.656 Y90.341 E40.24813
G1 X93.419 Y89.9 E40.2866
G1 X94.423 Y89.358 E40.33641
G1 X95.319 Y88.926 E40.37983
G1 X96.251 Y88.51 E40.42438
G1 X97.392 Y88.05 E40.47809
G1 X98.581 Y87.638 E40.53302
G1 X99.457 Y87.373 E40.57297
G1 X100.512 Y87.087 E40.62069
G1 X101.865 Y86.777 E40.68129
G1 X102.85 Y86.599 E40.72498
G1 X103.972 Y86.445 E40.77442
G1 X104.963 Y86.338 E40.81793
G1 X105.904 Y86.274 E40.85911
G1 X106.489 Y86.246 E40.88467
G1 X107.555 Y86.226 E40.93122
G1 X156.29 Y86.226 E43.05869
G1 X156.29 Y143.766 E45.57054
G1 X106.978 Y143.766 E47.7232
G1 X105.971 Y143.726 E47.76719
G1 X104.947 Y143.654 E47.81201
G1 X103.952 Y143.551 E47.85567
G1 X102.975 Y143.413 E47.89875
G1 X101.49 Y143.135 E47.9647
G1 X100.496 Y142.909 E48.0092
G1 X99.549 Y142.652 E48.05203
G1 X98.565 Y142.354 E48.09692
G1 X97.618 Y142.025 E48.14068
G1 X96.699 Y141.673 E48.18364
G1 X95.78 Y141.276 E48.22734
G1 X94.847 Y140.844 E48.27222
G1 X93.726 Y140.273 E48.32714
G1 X92.644 Y139.647 E48.38171
G1 X91.799 Y139.12 E48.42519
G1 X90.726 Y138.395 E48.48172
G1 X89.357 Y137.343 E48.55709
G1 X88.549 Y136.662 E48.60321
G1 X87.851 Y136.028 E48.64438
G1 X86.955 Y135.168 E48.69859
G1 X85.933 Y134.07 E48.76408
G1 X85.108 Y133.091 E48.81996
G1 X84.494 Y132.298 E48.86375
G1 X83.911 Y131.493 E48.90714
G1 X83.34 Y130.648 E48.95166
G1 X82.809 Y129.805 E48.99515
G1 X82.179 Y128.705 E49.05048
G1 X82.185 Y128.695 E49.05099
G1 X81.877 Y128.127 E49.0792
G1 X81.402 Y127.156 E49.12639
G1 X81.069 Y126.416 E49.16181
G1 X80.796 Y125.758 E49.19291
G1 X80.435 Y124.818 E49.23687
G1 X80.11 Y123.867 E49.28074
G1 X79.82 Y122.907 E49.32452
G1 X79.563 Y121.956 E49.36752
G1 X79.253 Y120.592 E49.42858
G1 X79.055 Y119.474 E49.47815
G1 X78.917 Y118.484 E49.52178
G1 X78.818 Y117.509 E49.56457
G1 X78.758 Y116.628 E49.60311
G1 X78.726 Y115.987 E49.63113
G1 X78.711 Y115.003 E49.67409
G1 F2700 E49.17409
G0 F3600 X78.349 Y115.003
G0 X78.464 Y116.004
G0 X104.924 Y116.009
G0 X105.033 Y127.264
G0 X104.682 Y127.36
G1 F2700 E49.67409
G1 F1800 X104.861 Y127.752 E49.6929
G1 X105.08 Y127.995 E49.70718
G1 X105.512 Y128.241 E49.72888
G1 X105.886 Y128.31 E49.74549
G1 X109.166 Y128.303 E49.88867
G1 X109.655 Y128.148 E49.91107
G1 X110.002 Y127.867 E49.93056
G1 X110.266 Y127.392 E49.95428
G1 X110.316 Y127.147 E49.9652
G1 X110.32 Y102.786 E51.02865
G1 X110.143 Y102.314 E51.05066
G1 X109.964 Y102.077 E51.06362
G1 X109.655 Y101.84 E51.08062
G1 X109.166 Y101.685 E51.10301
G1 X105.871 Y101.683 E51.24685
G1 X105.404 Y101.792 E51.26779
G1 X105.066 Y102.01 E51.28535
G1 X104.804 Y102.336 E51.3036
G1 X104.643 Y102.823 E51.32599
G1 X104.638 Y127.124 E52.38683
G1 X104.682 Y127.36 E52.39731
G1 F2700 E51.89731
G0 F3600 X105.033 Y127.264
G0 X85.742 Y134.249
G0 X84.49 Y132.881
G0 X84.982 Y132.499
G1 F2700 E52.39731
G1 F1800 X89.953 Y137.471 E52.70423
G1 X90.027 Y137.545
G0 F3600 X89.654 Y138.03
G0 X92.098 Y139.731
G0 X92.428 Y139.203
G1 F1800 X83.268 Y130.043 E53.26973
G1 X83.194 Y129.969
G0 F3600 X82.686 Y130.287
G0 X81.721 Y128.596
G0 X82.271 Y128.304
G1 F1800 X94.175 Y140.208 E54.00464
G1 X94.249 Y140.282
G0 F3600 X93.981 Y140.809
G0 X95.361 Y141.483
G0 X95.626 Y140.916
G1 F1800 X81.544 Y126.834 E54.874
G1 X81.47 Y126.76
G0 F3600 X80.936 Y126.997
G0 X80.41 Y125.761
G0 X80.991 Y125.539
G1 F1800 X96.935 Y141.483 E55.85832
G1 X97.009 Y141.557
G0 F3600 X96.801 Y142.1
G0 X97.911 Y142.51
G0 X98.115 Y141.921
G1 F1800 X80.554 Y124.36 E56.94247
G1 X80.48 Y124.286
G0 F3600 X79.935 Y124.472
G0 X79.604 Y123.444
G0 X80.201 Y123.264
