;FLAVOR:Marlin
;TIME:6913
;Filament used: 8.45782m
;Layer height: 0.2
;MINX:6.288
;MINY:99.238
;MINZ:0.2
;MAXX:228.712
;MAXY:130.762
;MAXZ:31.8
;TARGET_MACHINE.NAME:ELEGOO NEPTUNE 4 Pro
;Generated with Cura_SteamEngine 5.7.2
M104 S220
M105
M109 S220
M82 ;absolute extrusion mode
;ELEGOO NEPTUNE 4 / 4 PRO
M220 S100 ;Set the feed speed to 100%
M221 S100 ;Set the flow rate to 100%
M104 S140 ;Start heating extruder
M190 S60 ;Wait for the bed to reach print temp
G90
G28 ;home
G1 Z10 F300
G1 X67.5 Y0 F6000
G1 Z0 F300
M109 S220.0 ;Wait for extruder to reach print temp
G92 E0 ;Reset Extruder
G1 X67.5 Y0 Z0.4 F300 ;Move to start position
G1 X167.5 E30 F400 ;Draw the first line
G1 Z0.6 F120.0 ;Move to side a little
G1 X162.5 F3000
G92 E0 ;Reset Extruder
G92 E0
G92 E0
G1 F2700 E-0.5
;LAYER_COUNT:159
;LAYER:0
M107
M204 S500
G0 F3600 X14.062 Y99.377 Z0.2
;TYPE:SKIRT
G1 F2700 E0
G1 F3600 X15.165 Y99.267 E0.04839
G1 X16.586 Y99.238 E0.11043
G1 X219.79 Y99.238 E8.98109
G1 X220.619 Y99.25 E9.01728
G1 X221.419 Y99.329 E9.05237
G1 X221.98 Y99.401 E9.07706
G1 X222.598 Y99.542 E9.10473
G1 X223.101 Y99.71 E9.12789
G1 X223.733 Y99.94 E9.15724
G1 X224.3 Y100.212 E9.1847
G1 X224.819 Y100.527 E9.2112
G1 X225.326 Y100.855 E9.23756
G1 X225.818 Y101.245 E9.26497
G1 X226.277 Y101.69 E9.29288
G1 X226.682 Y102.105 E9.31819
G1 X227.083 Y102.606 E9.3462
G1 X227.385 Y103.071 E9.37041
G1 X227.726 Y103.63 E9.39899
G1 X227.995 Y104.182 E9.4258
G1 X228.227 Y104.808 E9.45494
G1 X228.411 Y105.362 E9.48042
G1 X228.551 Y105.976 E9.50792
G1 X228.618 Y106.5 E9.53098
G1 X228.701 Y107.343 E9.56796
G1 X228.712 Y108.114 E9.60162
G1 X228.712 Y126.809 E10.41773
G1 X228.702 Y127.536 E10.44947
G1 X228.655 Y128.044 E10.47174
G1 X228.529 Y128.539 E10.49403
G1 X228.328 Y129.008 E10.51631
G1 X228.056 Y129.44 E10.53859
G1 X227.72 Y129.824 E10.56087
G1 X227.328 Y130.151 E10.58315
G1 X226.89 Y130.413 E10.60543
G1 X226.416 Y130.604 E10.62774
G1 X225.919 Y130.718 E10.65
G1 X225.43 Y130.761 E10.67143
G1 X10.215 Y130.762 E20.06641
G1 X9.517 Y130.753 E20.09688
G1 X9.009 Y130.706 E20.11915
G1 X8.514 Y130.581 E20.14144
G1 X8.045 Y130.38 E20.16372
G1 X7.612 Y130.108 E20.18604
G1 X7.228 Y129.773 E20.20828
G1 X6.9 Y129.381 E20.2306
G1 X6.638 Y128.943 E20.25288
G1 X6.447 Y128.47 E20.27514
G1 X6.333 Y127.972 E20.29745
G1 X6.289 Y127.478 E20.3191
G1 X6.288 Y109.163 E21.11862
G1 X6.305 Y108.438 E21.15028
G1 X6.382 Y107.446 E21.19371
G1 X6.438 Y106.943 E21.2158
G1 X6.545 Y106.409 E21.23958
G1 X6.709 Y105.843 E21.2653
G1 X6.902 Y105.234 E21.29319
G1 X7.105 Y104.739 E21.31655
G1 X7.413 Y104.14 E21.34595
G1 X7.723 Y103.581 E21.37385
G1 X8.023 Y103.133 E21.39739
G1 X8.443 Y102.607 E21.42677
G1 X8.822 Y102.159 E21.45239
G1 X9.207 Y101.774 E21.47616
G1 X9.712 Y101.349 E21.50497
G1 X10.193 Y100.966 E21.53181
G1 X10.639 Y100.667 E21.55525
G1 X11.101 Y100.41 E21.57833
G1 X11.763 Y100.068 E21.61086
G1 X12.248 Y99.866 E21.6338
G1 X12.862 Y99.668 E21.66196
G1 X13.482 Y99.489 E21.69013
G1 X14.062 Y99.377 E21.71592
G1 F2700 E21.21592
;MESH:Sunglasses holdermk1.stl
G0 F3600 X14.355 Y101.95
G0 X14.461 Y103.038
G0 X12.729 Y104.286
G0 X11.966 Y104.914
G0 X11.333 Y105.682
G0 X10.865 Y106.56
G0 X10.631 Y107.334
G0 X10.414 Y108.541
G0 X10.335 Y108.536
;TYPE:WALL-INNER
G1 F2700 E21.71592
G1 X10.335 Y126.713 E22.50941
G1 X224.661 Y126.713 E31.86558
G1 X224.661 Y107.54 E32.70256
G1 X224.551 Y106.565 E32.74539
G1 X224.239 Y105.673 E32.78665
G1 X223.736 Y104.878 E32.82771
G1 X223.07 Y104.208 E32.86895
G1 X222.273 Y103.71 E32.90998
G1 X221.379 Y103.397 E32.95133
G1 X220.404 Y103.288 E32.99416
G1 X15.582 Y103.287 E41.93544
G1 X14.535 Y103.388 E41.98136
G1 X13.559 Y103.687 E42.02592
G1 X12.652 Y104.17 E42.07078
G1 X11.868 Y104.816 E42.11513
G1 X11.218 Y105.605 E42.15975
G1 X10.736 Y106.507 E42.2044
G1 X10.44 Y107.487 E42.24909
G1 X10.335 Y108.536 E42.29511
G1 F2700 E41.79511
G0 F3600 X10.414 Y108.541
G0 X10.513 Y110.575
G0 X11.784 Y110.577
G0 X11.941 Y110.589
G1 F2700 E42.29511
G1 X12.074 Y109.387 E42.3479
G1 X12.504 Y108.167 E42.40437
G1 X13.185 Y107.078 E42.46044
G1 X14.119 Y106.143 E42.51813
G1 X15.224 Y105.45 E42.57507
G1 X16.426 Y105.029 E42.63067
G1 X17.634 Y104.889 E42.68375
G1 X217.362 Y104.889 E51.40267
G1 X218.567 Y105.028 E51.45562
G1 X219.779 Y105.453 E51.51168
G1 X220.889 Y106.147 E51.56883
G1 X221.801 Y107.059 E51.62513
G1 X222.496 Y108.168 E51.68227
G1 X222.921 Y109.383 E51.73846
G1 X223.055 Y110.589 E51.79143
G1 X223.059 Y124.427 E52.39551
G1 X222.995 Y124.637 E52.4051
G1 X222.829 Y124.881 E52.41798
G1 X222.585 Y125.047 E52.43086
G1 X222.371 Y125.111 E52.44061
G1 X12.724 Y125.111 E61.59253
G1 X12.411 Y125.047 E61.60647
G1 X12.167 Y124.881 E61.61936
G1 X12.001 Y124.637 E61.63224
G1 X11.937 Y124.423 E61.64199
G1 X11.941 Y110.589 E62.2459
G0 F3600 X12.463 Y110.647
;TYPE:WALL-OUTER
G1 F1800 X12.59 Y109.5 E62.29628
G1 X12.979 Y108.391 E62.34758
G1 X13.613 Y107.389 E62.39934
G1 X14.442 Y106.557 E62.45061
G1 X15.416 Y105.945 E62.50083
G1 X16.562 Y105.541 E62.55387
G1 X17.694 Y105.411 E62.60362
G1 X217.302 Y105.411 E71.31729
G1 X218.448 Y105.542 E71.36764
G1 X219.58 Y105.945 E71.4201
G1 X220.568 Y106.568 E71.47108
G1 X221.398 Y107.404 E71.52251
G1 X222.013 Y108.382 E71.57294
G1 X222.406 Y109.5 E71.62468
G1 X222.533 Y110.647 E71.67505
G1 X222.531 Y124.37 E72.27412
G1 X222.458 Y124.51 E72.28101
G1 X222.318 Y124.583 E72.2879
G1 X12.65 Y124.586 E81.44073
G1 X12.538 Y124.51 E81.44664
G1 X12.465 Y124.37 E81.45353
G1 X12.463 Y110.647 E82.0526
G0 F3600 X12.485 Y110.449
G1 F2700 E81.5526
G0 F3600 X11.885 Y110.382
G0 X12.004 Y109.105
G0 X10.513 Y109.105
G0 X10.414 Y108.541
G0 X9.81 Y108.51
G1 F2700 E82.0526
G1 F1800 X9.81 Y127.238 E82.87015
G1 X225.186 Y127.238 E92.27216
G1 X225.186 Y107.511 E93.13332
G1 X225.066 Y106.447 E93.18006
G1 X224.714 Y105.443 E93.2265
G1 X224.149 Y104.549 E93.27267
G1 X223.399 Y103.795 E93.3191
G1 X222.501 Y103.234 E93.36532
G1 X221.497 Y102.882 E93.41176
G1 X220.433 Y102.763 E93.4585
G1 X15.557 Y102.762 E102.40214
G1 X14.432 Y102.871 E102.45148
G1 X13.357 Y103.2 E102.50056
G1 X12.359 Y103.731 E102.54991
G1 X11.495 Y104.443 E102.59878
G1 X10.779 Y105.311 E102.6479
G1 X10.248 Y106.305 E102.6971
G1 X9.923 Y107.384 E102.74629
G1 X9.81 Y108.51 E102.79569
G0 F3600 X9.81 Y108.71
G1 F2700 E102.29569
G0 F3600 X10.413 Y108.71
G0 X10.513 Y110.566
G0 X11.784 Y110.568
G0 X11.452 Y110.525
;TYPE:SKIN
G1 F2700 E102.79569
G1 F1507.2 X11.447 Y124.498 E103.52418
G1 F1620.9 X11.578 Y124.784 E103.53943
G1 F1776.3 X11.854 Y125.19 E103.56114
G1 F1800 X12.192 Y125.425 E103.57911
G1 F1637.8 X12.664 Y125.596 E103.6032
G1 F1504.8 X82.591 Y125.596 E107.25468
G1 X152.518 Y125.596 E110.90615
G1 F1507.2 X222.445 Y125.596 E114.55182
G1 F1620.9 X222.732 Y125.466 E114.56709
G1 F1776.3 X223.138 Y125.19 E114.58881
G1 X223.415 Y124.785 E114.61051
G1 F1620.9 X223.545 Y124.502 E114.62561
G1 F1507.2 X223.54 Y110.526 E115.35425
G1 F1429.7 X223.441 Y109.306 E115.42153
G1 X223.393 Y109.24 E115.42601
G1 F1637.8 X222.884 Y107.957 E115.49223
G1 F1800 X222.143 Y106.776 E115.5531
G1 X221.18 Y105.817 E115.61243
G1 X219.984 Y105.061 E115.67419
G1 F1632.1 X218.709 Y104.553 E115.74027
G1 F1421.1 X218.645 Y104.506 E115.74466
G1 F1436.2 X217.336 Y104.394 E115.81654
G1 F1524.2 X184.041 Y104.395 E117.533
G1 F1521.7 X150.746 Y104.396 E119.25224
G1 F1519.3 X117.451 Y104.397 E120.97424
G1 F1516.9 X84.156 Y104.398 E122.69901
G1 F1514.4 X50.861 Y104.399 E124.42655
G1 F1512 X17.566 Y104.401 E126.15685
G1 F1427.5 X16.324 Y104.507 E126.22547
G1 F1402.1 X16.276 Y104.546 E126.22893
G1 F1609.9 X15.8 Y104.779 E126.2548
G1 F1800 X15.016 Y105.054 E126.29107
G1 X13.814 Y105.817 E126.35322
G1 X12.842 Y106.803 E126.41366
G1 X12.114 Y107.954 E126.47311
G1 X11.827 Y108.761 E126.5105
G1 F1637.8 X11.604 Y109.234 E126.53559
G1 F1427.5 X11.554 Y109.301 E126.5402
G1 X11.452 Y110.525 E126.6078
G0 F3600 X10.825 Y110.56
G1 F1429.7 X10.86 Y109.263 E126.67912
G1 F1427.5 X10.827 Y109.101 E126.68822
G1 F1637.8 X10.774 Y108.553 E126.71463
G1 F1800 X10.871 Y107.576 E126.75749
G1 X11.144 Y106.677 E126.79851
G1 X11.587 Y105.843 E126.83973
G1 X12.178 Y105.127 E126.88026
G1 X12.891 Y104.54 E126.92058
G1 X13.729 Y104.095 E126.962
G1 X14.624 Y103.819 E127.00288
G1 X15.597 Y103.726 E127.04555
G1 F1609.9 X16.147 Y103.788 E127.07257
G1 F1402.1 X16.264 Y103.813 E127.07927
G1 F1427.5 X17.533 Y103.777 E127.14915
G1 F1512 X50.834 Y103.777 E128.87977
G1 F1514.4 X84.135 Y103.776 E130.60762
G1 F1516.9 X117.436 Y103.776 E132.3327
G1 F1519.3 X150.737 Y103.775 E134.05501
G1 F1521.7 X184.038 Y103.775 E135.77455
G1 F1524.2 X217.339 Y103.774 E137.49133
G1 F1436.2 X218.685 Y103.812 E137.565
G1 F1421.1 X218.839 Y103.78 E137.5737
G1 F1559.4 X220.31 Y103.719 E137.64788
G1 F1712 X221.277 Y103.83 E137.69256
G1 F1800 X222.085 Y104.11 E137.72989
G1 X222.791 Y104.555 E137.76632
G1 X223.386 Y105.149 E137.80302
G1 X223.838 Y105.863 E137.83991
G1 X224.119 Y106.663 E137.87693
G1 F1715.1 X224.224 Y107.619 E137.92099
G1 F1567.2 X224.166 Y109.109 E137.99575
G1 F1429.7 X224.133 Y109.269 E138.00473
G1 X224.166 Y110.492 E138.07198
G1 F1507.2 X224.167 Y124.556 E138.80521
G1 F1632.1 X224.218 Y124.971 E138.82534
G1 F1789.8 X224.218 Y126.27 E138.88237
G1 F1776.3 X222.851 Y126.263 E138.94284
G1 F1620.9 X222.5 Y126.219 E138.95999
G1 F1507.2 X152.534 Y126.219 E142.60768
G1 F1504.8 X82.568 Y126.219 E146.2612
G1 X12.602 Y126.219 E149.91471
G1 F1632.1 X12.205 Y126.268 E149.93397
G1 F1793.2 X10.774 Y126.27 E149.99668
G1 F1776.3 X10.781 Y124.903 E150.05715
G1 F1620.9 X10.825 Y124.552 E150.07429
G1 F1509.6 X10.825 Y110.56 E150.80261
G0 F3600 X10.413 Y110.56
G0 X10.485 Y126.563
G0 X11.666 Y126.635
G0 X11.666 Y126.005
G1 F1800 X11.037 Y125.376 E150.84144
G0 F3600 X11.403 Y125
G1 F1800 X11.102 Y124.698 E150.86005
G1 F2700 E150.36005
G0 F3600 X10.413 Y124.698
G0 X11.855 Y124.697
G0 X12.409 Y125.121
G0 X12.045 Y125.642
G1 F2700 E150.86005
G1 F1800 X12.366 Y125.963 E150.87987
G1 F2700 E150.37987
G0 F3600 X12.366 Y126.635
G0 X12.056 Y124.992
G0 X12.128 Y108.996
G0 X11.517 Y108.779
G1 F2700 E150.87987
G1 F1800 X11.061 Y108.324 E150.90799
G0 F3600 X11.731 Y108.251
G1 F1800 X11.127 Y107.647 E150.94528
G0 F3600 X11.296 Y107.074
G1 F1800 X11.946 Y107.723 E150.98538
G0 F3600 X12.236 Y107.271
G1 F1800 X11.51 Y106.545 E151.0302
G0 F3600 X11.768 Y106.06
G1 F1800 X12.526 Y106.818 E151.07699
G0 F3600 X12.862 Y106.412
G1 F1800 X12.092 Y105.642 E151.12453
G0 F3600 X12.442 Y105.249
G1 F1800 X13.231 Y106.038 E151.17324
G0 F3600 X13.6 Y105.665
G1 F1800 X12.849 Y104.914 E151.2196
G0 F3600 X13.298 Y104.621
G1 F1800 X14.041 Y105.364 E151.26547
G0 F3600 X14.496 Y105.076
G1 F1800 X13.783 Y104.363 E151.30949
G0 F3600 X14.342 Y104.18
G1 F1800 X14.962 Y104.8 E151.34777
G0 F3600 X15.509 Y104.604
G1 F1800 X14.955 Y104.051 E151.38194
G0 F3600 X15.639 Y103.992
G1 F1800 X15.996 Y104.349 E151.40398
G1 F2700 E150.90398
G0 F3600 X16.228 Y105.015
G0 X17.402 Y104.862
G0 X217.338 Y104.726
G0 X217.34 Y103.446
G0 X219.153 Y103.366
G0 X219.152 Y104.071
G1 F2700 E151.40398
G1 F1800 X219.755 Y104.673 E151.44117
G0 F3600 X219.838 Y104.014
G1 F1800 X223.931 Y108.107 E151.69386
G0 F3600 X223.27 Y108.189
G1 F1800 X223.877 Y108.795 E151.7313
G0 F3600 X224.583 Y108.795
G0 X224.555 Y107.296
G0 X223.933 Y107.366
G1 F1800 X220.581 Y104.015 E151.93821
G0 F3600 X221.491 Y104.182
G1 F1800 X223.771 Y106.462 E152.07897
G1 X223.845 Y106.536
G1 F2700 E151.57897
G0 F3600 X224.391 Y106.346
G0 X224.483 Y124.641
G0 X223.218 Y124.446
G0 X223.648 Y124.901
G1 F2700 E152.07897
G1 F1800 X223.956 Y125.209 E152.09798
G0 F3600 X223.347 Y125.342
G1 F1800 X223.956 Y125.951 E152.13558
G0 F3600 X223.27 Y126.008
G1 F1800 X222.92 Y125.658 E152.15719
G1 F2700 E151.65719
;MESH:NONMESH
G0 F600 X222.92 Y125.658 Z0.4
G0 F3600 X222.591 Y125.125
G0 X222.724 Y110.65
G0 X222.59 Y109.462
G0 X222.188 Y108.31
G0 X221.538 Y107.277
G0 X220.673 Y106.412
G0 X219.64 Y105.762
G0 X218.488 Y105.36
G0 X217.526 Y105.251
G0 X17.607 Y104.733
G0 X14.062 Y99.377
;TIME_ELAPSED:115.145401
;LAYER:1
M106 S51
;TYPE:SKIRT
G1 F2700 E152.15719
G1 F3600 X15.165 Y99.267 E152.1959
G1 X16.586 Y99.238 E152.24554
G1 X219.79 Y99.238 E159.34206
G1 X220.619 Y99.25 E159.37101
G1 X221.419 Y99.329 E159.39909
G1 X221.98 Y99.401 E159.41884
G1 X222.598 Y99.542 E159.44098
G1 X223.101 Y99.71 E159.4595
G1 X223.733 Y99.94 E159.48298
G1 X224.3 Y100.212 E159.50495
G1 X224.819 Y100.527 E159.52615
G1 X225.326 Y100.855 E159.54724
G1 X225.818 Y101.245 E159.56916
G1 X226.277 Y101.69 E159.59149
G1 X226.682 Y102.105 E159.61174
G1 X227.083 Y102.606 E159.63415
G1 X227.385 Y103.071 E159.65351
G1 X227.726 Y103.63 E159.67638
G1 X227.995 Y104.182 E159.69783
G1 X228.227 Y104.808 E159.72114
G1 X228.411 Y105.362 E159.74153
G1 X228.551 Y105.976 E159.76352
G1 X228.618 Y106.5 E159.78197
G1 X228.701 Y107.343 E159.81155
G1 X228.712 Y108.114 E159.83848
G1 X228.712 Y126.809 E160.49137
G1 X228.702 Y127.536 E160.51676
G1 X228.655 Y128.044 E160.53458
G1 X228.529 Y128.539 E160.55242
G1 X228.328 Y129.008 E160.57024
G1 X228.056 Y129.44 E160.58806
G1 X227.72 Y129.824 E160.60588
G1 X227.328 Y130.151 E160.62371
G1 X226.89 Y130.413 E160.64153
G1 X226.416 Y130.604 E160.65938
G1 X225.919 Y130.718 E160.67719
G1 X225.43 Y130.761 E160.69433
G1 X10.215 Y130.762 E168.21032
G1 X9.517 Y130.753 E168.23469
G1 X9.009 Y130.706 E168.25251
G1 X8.514 Y130.581 E168.27034
G1 X8.045 Y130.38 E168.28816
G1 X7.612 Y130.108 E168.30602
G1 X7.228 Y129.773 E168.32381
G1 X6.9 Y129.381 E168.34166
G1 X6.638 Y128.943 E168.35949
G1 X6.447 Y128.47 E168.3773
G1 X6.333 Y127.972 E168.39515
G1 X6.289 Y127.478 E168.41247
G1 X6.288 Y109.163 E169.05208
G1 X6.305 Y108.438 E169.07741
G1 X6.382 Y107.446 E169.11216
G1 X6.438 Y106.943 E169.12983
G1 X6.545 Y106.409 E169.14885
G1 X6.709 Y105.843 E169.16943
G1 X6.902 Y105.234 E169.19174
G1 X7.105 Y104.739 E169.21043
G1 X7.413 Y104.14 E169.23395
G1 X7.723 Y103.581 E169.25627
G1 X8.023 Y103.133 E169.2751
G1 X8.443 Y102.607 E169.29861
G1 X8.822 Y102.159 E169.3191
G1 X9.207 Y101.774 E169.33812
G1 X9.712 Y101.349 E169.36117
G1 X10.193 Y100.966 E169.38264
G1 X10.639 Y100.667 E169.40139
G1 X11.101 Y100.41 E169.41985
G1 X11.763 Y100.068 E169.44588
G1 X12.248 Y99.866 E169.46422
G1 X12.862 Y99.668 E169.48675
G1 X13.482 Y99.489 E169.50929
G1 X14.062 Y99.377 E169.52992
M204 S5250
G1 F2700 E169.02992
;MESH:Sunglasses holdermk1.stl
G0 F3600 X13.103 Y102.309
G0 X13.421 Y103.354
G0 X10.459 Y108.542
G0 X10.178 Y108.528
M204 S2750
;TYPE:WALL-INNER
G1 F2700 E169.52992
G1 X10.178 Y126.87 E170.17048
G1 X224.818 Y126.87 E177.66638
G1 X224.818 Y107.531 E178.34176
G1 X224.705 Y106.53 E178.37694
G1 X224.381 Y105.604 E178.4112
G1 X223.86 Y104.78 E178.44525
G1 X223.168 Y104.084 E178.47953
G1 X222.341 Y103.568 E178.51357
G1 X221.414 Y103.243 E178.54787
G1 X220.412 Y103.131 E178.58309
G1 X15.575 Y103.13 E185.73664
G1 X14.504 Y103.233 E185.77421
G1 X13.499 Y103.541 E185.81092
G1 X12.564 Y104.039 E185.84792
G1 X11.756 Y104.704 E185.88446
G1 X11.086 Y105.517 E185.92125
G1 X10.59 Y106.447 E185.95806
G1 X10.285 Y107.456 E185.99488
G1 X10.178 Y108.528 E186.0325
M204 S5250
G0 F3600 X10.459 Y108.542
G0 X11.821 Y110.575
G0 X12.097 Y110.606
M204 S2750
G1 F2700 X12.229 Y109.421 E186.07414
G1 X12.646 Y108.234 E186.11808
G1 X13.329 Y107.155 E186.16267
G1 X14.216 Y106.267 E186.20651
G1 X15.278 Y105.597 E186.25036
G1 X16.461 Y105.183 E186.29413
G1 X17.652 Y105.045 E186.336
G1 X217.344 Y105.045 E193.30987
G1 X218.534 Y105.183 E193.35171
G1 X219.732 Y105.609 E193.39611
G1 X220.79 Y106.27 E193.43968
G1 X221.678 Y107.158 E193.48354
G1 X222.339 Y108.212 E193.52699
G1 X222.767 Y109.416 E193.57161
G1 X222.899 Y110.606 E193.61343
G1 X222.902 Y124.407 E194.0954
G1 X222.851 Y124.575 E194.10153
G1 X222.718 Y124.77 E194.10977
G1 X222.523 Y124.903 E194.11802
G1 X222.351 Y124.954 E194.12428
G1 X12.724 Y124.954 E201.44512
G1 X12.473 Y124.903 E201.45406
G1 X12.278 Y124.77 E201.4623
G1 X12.145 Y124.575 E201.47055
G1 X12.094 Y124.403 E201.47681
G1 X12.097 Y110.606 E201.95865
M204 S5250
G0 F3600 X12.515 Y110.652
M204 S2750
;TYPE:WALL-OUTER
G1 F1800 X12.649 Y109.49 E201.9995
G1 X13.038 Y108.391 E202.04021
