;FLAVOR:Marlin
;TIME:12592
;Filament used: 18.9508m
;Layer height: 0.2
;MINX:23.442
;MINY:64.311
;MINZ:0.2
;MAXX:211.554
;MAXY:165.688
;MAXZ:18.8
;TARGET_MACHINE.NAME:ELEGOO NEPTUNE 4 Pro
;Generated with Cura_SteamEngine 5.7.2
M104 S210
M105
M109 S210
M82 ;absolute extrusion mode
;ELEGOO NEPTUNE 4 / 4 PRO
M220 S100 ;Set the feed speed to 100%
M221 S100 ;Set the flow rate to 100%
M104 S140 ;Start heating extruder
M190 S60 ;Wait for the bed to reach print temp
G90
G28 ;home
G1 Z10 F300
G1 X67.5 Y0 F6000
G1 Z0 F300
M109 S210 ;Wait for extruder to reach print temp
G92 E0 ;Reset Extruder
G1 X67.5 Y0 Z0.4 F300 ;Move to start position
G1 X167.5 E30 F400 ;Draw the first line
G1 Z0.6 F120.0 ;Move to side a little
G1 X162.5 F3000
G92 E0 ;Reset Extruder
G92 E0
G92 E0
G1 F2700 E-0.5
;LAYER_COUNT:94
;LAYER:0
M107
M204 S500
G0 F4800 X29.173 Y65.688 Z0.2
;TYPE:SKIRT
G1 F2700 E0
G1 F3600 X31.145 Y64.888 E0.0929
G1 X32.559 Y64.538 E0.15649
G1 X34.223 Y64.331 E0.22969
G1 X34.918 Y64.311 E0.26004
G1 X200.405 Y64.325 E7.4842
G1 X202.001 Y64.463 E7.55413
G1 X203.277 Y64.725 E7.61099
G1 X204.893 Y65.257 E7.68526
G1 X206.024 Y65.797 E7.73998
G1 X207.713 Y66.902 E7.82808
G1 X208.584 Y67.677 E7.87898
G1 X209.695 Y68.916 E7.95163
G1 X210.608 Y70.444 E8.02933
G1 X211.216 Y72.08 E8.10552
G1 X211.52 Y73.837 E8.18336
G1 X211.492 Y156.033 E11.77154
G1 X211.356 Y157.332 E11.82855
G1 X210.924 Y158.803 E11.89548
G1 X210.145 Y160.414 E11.9736
G1 X209.032 Y161.851 E12.05294
G1 X208.007 Y162.856 E12.11561
G1 X206.968 Y163.637 E12.17235
G1 X205.687 Y164.377 E12.23693
G1 X203.731 Y165.15 E12.32875
G1 X202.378 Y165.474 E12.38948
G1 X200.764 Y165.67 E12.46045
G1 X200.066 Y165.688 E12.49093
G1 X34.604 Y165.675 E19.714
G1 X33.001 Y165.537 E19.78424
G1 X31.796 Y165.296 E19.83788
G1 X30.306 Y164.817 E19.9062
G1 X28.636 Y164.016 E19.98706
G1 X27.447 Y163.222 E20.04947
G1 X26.397 Y162.306 E20.1103
G1 X25.369 Y161.161 E20.17747
G1 X24.448 Y159.659 E20.25439
G1 X23.795 Y157.98 E20.33303
G1 X23.48 Y156.155 E20.41388
G1 X23.508 Y73.965 E24.00179
G1 X23.644 Y72.69 E24.05777
G1 X24.072 Y71.208 E24.12511
G1 X24.797 Y69.694 E24.19838
G1 X25.848 Y68.238 E24.27677
G1 X27.189 Y66.98 E24.35704
G1 X28.161 Y66.273 E24.40951
G1 X29.173 Y65.688 E24.46054
G0 F4800 X29.436 Y66.143
G1 F3600 X31.271 Y65.398 E24.54699
G1 X32.685 Y65.048 E24.61058
G1 X34.238 Y64.856 E24.67889
G1 X34.918 Y64.836 E24.70859
G1 X200.361 Y64.848 E31.93083
G1 X201.897 Y64.978 E31.99812
G1 X203.114 Y65.224 E32.05232
G1 X204.669 Y65.732 E32.12373
G1 X205.738 Y66.237 E32.17534
G1 X207.365 Y67.295 E32.26007
G1 X208.193 Y68.027 E32.30831
G1 X209.269 Y69.227 E32.37867
G1 X210.133 Y70.673 E32.4522
G1 X210.707 Y72.218 E32.52415
G1 X210.995 Y73.881 E32.59783
G1 X210.97 Y155.978 E36.18169
G1 X210.839 Y157.228 E36.23655
G1 X210.433 Y158.612 E36.29952
G1 X209.694 Y160.139 E36.37357
G1 X208.663 Y161.477 E36.44731
G1 X207.69 Y162.437 E36.50698
G1 X206.705 Y163.182 E36.56089
G1 X205.424 Y163.922 E36.62547
G1 X203.607 Y164.64 E36.71076
G1 X202.314 Y164.953 E36.76883
G1 X200.75 Y165.145 E36.83762
G1 X200.066 Y165.163 E36.86749
G1 X34.648 Y165.152 E44.08864
G1 X33.104 Y165.022 E44.15628
G1 X31.899 Y164.781 E44.20992
G1 X30.532 Y164.343 E44.27258
G1 X28.926 Y163.578 E44.35024
G1 X27.792 Y162.826 E44.40964
G1 X26.742 Y161.91 E44.47047
G1 X25.793 Y160.848 E44.53264
G1 X24.919 Y159.422 E44.60565
G1 X24.303 Y157.839 E44.6798
G1 X24.005 Y156.112 E44.75631
G1 X24.03 Y74.021 E48.3399
G1 X24.161 Y72.79 E48.39395
G1 X24.564 Y71.395 E48.45733
G1 X25.249 Y69.965 E48.52655
G1 X26.245 Y68.586 E48.60081
G1 X27.499 Y67.404 E48.67604
G1 X28.424 Y66.728 E48.72605
G1 X29.436 Y66.143 E48.77708
G0 F4800 X29.699 Y66.598
G1 F3600 X31.397 Y65.908 E48.85709
G1 X32.811 Y65.558 E48.92068
G1 X34.254 Y65.381 E48.98414
G1 X34.918 Y65.361 E49.01314
G1 X200.318 Y65.371 E56.2335
G1 X201.795 Y65.493 E56.2982
G1 X202.952 Y65.723 E56.34969
G1 X204.447 Y66.208 E56.41831
G1 X205.453 Y66.678 E56.46678
G1 X207.019 Y67.69 E56.54817
G1 X207.802 Y68.377 E56.59364
G1 X208.843 Y69.538 E56.66172
G1 X209.658 Y70.902 E56.73108
G1 X210.199 Y72.357 E56.79884
G1 X210.47 Y73.924 E56.86827
G1 X210.448 Y155.923 E60.44784
G1 X210.322 Y157.124 E60.50056
G1 X209.942 Y158.421 E60.55956
G1 X209.244 Y159.863 E60.6295
G1 X208.294 Y161.103 E60.69769
G1 X207.321 Y162.063 E60.75736
G1 X206.442 Y162.727 E60.80545
G1 X205.161 Y163.467 E60.87003
G1 X203.482 Y164.13 E60.94883
G1 X202.249 Y164.432 E61.00424
G1 X200.736 Y164.62 E61.0708
G1 X200.066 Y164.638 E61.10006
G1 X34.691 Y164.629 E68.31933
G1 X33.205 Y164.507 E68.38442
G1 X32.058 Y164.281 E68.43545
G1 X30.756 Y163.868 E68.49508
G1 X29.216 Y163.14 E68.56944
G1 X28.082 Y162.388 E68.62884
G1 X27.134 Y161.56 E68.68378
G1 X26.214 Y160.53 E68.74407
G1 X25.39 Y159.187 E68.81285
G1 X24.811 Y157.698 E68.8826
G1 X24.53 Y156.069 E68.95476
G1 X24.552 Y74.076 E72.53408
G1 X24.678 Y72.89 E72.58614
G1 X25.056 Y71.582 E72.64558
G1 X25.701 Y70.236 E72.71073
G1 X26.642 Y68.933 E72.7809
G1 X27.859 Y67.786 E72.8539
G1 X28.687 Y67.183 E72.89861
G1 X29.699 Y66.598 E72.94964
G0 F4800 X29.962 Y67.053
G1 F3600 X31.523 Y66.418 E73.02321
G1 X32.937 Y66.068 E73.0868
G1 X34.27 Y65.906 E73.14542
G1 X34.918 Y65.886 E73.17372
G1 X200.276 Y65.894 E80.39224
G1 X201.694 Y66.008 E80.45435
G1 X202.791 Y66.223 E80.50315
G1 X204.227 Y66.685 E80.569
G1 X205.169 Y67.12 E80.61429
G1 X206.674 Y68.086 E80.69236
G1 X207.411 Y68.728 E80.73503
G1 X208.419 Y69.852 E80.80094
G1 X209.183 Y71.131 E80.86597
G1 X209.69 Y72.495 E80.9295
G1 X209.945 Y73.968 E80.99475
G1 X209.926 Y155.868 E84.57001
G1 X209.805 Y157.021 E84.62062
G1 X209.45 Y158.234 E84.67579
G1 X208.796 Y159.584 E84.74128
G1 X207.925 Y160.729 E84.80408
G1 X206.952 Y161.689 E84.86375
G1 X206.179 Y162.272 E84.90601
G1 X204.898 Y163.012 E84.9706
G1 X203.355 Y163.62 E85.04299
G1 X202.183 Y163.911 E85.09571
G1 X200.722 Y164.095 E85.15999
G1 X200.066 Y164.113 E85.18864
G1 X34.733 Y164.106 E92.40607
G1 X33.305 Y163.992 E92.46861
G1 X32.215 Y163.78 E92.51709
G1 X30.979 Y163.393 E92.57362
G1 X29.505 Y162.701 E92.64471
G1 X28.426 Y161.991 E92.70109
G1 X27.526 Y161.21 E92.75311
G1 X26.635 Y160.212 E92.81152
G1 X25.861 Y158.952 E92.87607
G1 X25.319 Y157.557 E92.9414
G1 X25.055 Y156.026 E93.00922
G1 X25.074 Y74.131 E96.58426
G1 X25.195 Y72.99 E96.63435
G1 X25.548 Y71.769 E96.68983
G1 X26.153 Y70.507 E96.75093
G1 X27.039 Y69.28 E96.817
G1 X28.169 Y68.21 E96.88493
G1 X28.95 Y67.638 E96.92719
G1 X29.962 Y67.053 E96.97822
G0 F4800 X30.225 Y67.508
G1 F3600 X31.651 Y66.927 E97.04544
G1 X33.001 Y66.589 E97.10619
G1 X34.287 Y66.431 E97.16275
G1 X34.918 Y66.411 E97.19031
G1 X200.235 Y66.417 E104.40705
G1 X201.595 Y66.524 E104.4666
G1 X202.631 Y66.723 E104.51265
G1 X204.007 Y67.162 E104.5757
G1 X204.949 Y67.597 E104.621
G1 X206.331 Y68.483 E104.69266
G1 X207.02 Y69.079 E104.73243
G1 X207.995 Y70.166 E104.79617
G1 X208.708 Y71.36 E104.85688
G1 X209.182 Y72.634 E104.91622
G1 X209.42 Y74.011 E104.97722
G1 X209.404 Y155.813 E108.5482
G1 X209.288 Y156.918 E108.5967
G1 X208.958 Y158.047 E108.64805
G1 X208.348 Y159.305 E108.70908
G1 X207.507 Y160.411 E108.76974
G1 X206.634 Y161.271 E108.82323
G1 X205.915 Y161.818 E108.86267
G1 X204.704 Y162.524 E108.92386
G1 X203.228 Y163.11 E108.99319
G1 X202.056 Y163.401 E109.04591
G1 X200.707 Y163.57 E109.10526
G1 X200.066 Y163.588 E109.13325
G1 X34.774 Y163.583 E116.34889
G1 X33.404 Y163.476 E116.40888
G1 X32.37 Y163.278 E116.45484
G1 X31.201 Y162.917 E116.50825
G1 X29.794 Y162.262 E116.576
G1 X28.715 Y161.552 E116.63239
G1 X27.918 Y160.86 E116.67846
G1 X27.056 Y159.894 E116.73498
G1 X26.332 Y158.717 E116.7953
G1 X25.827 Y157.416 E116.85623
G1 X25.58 Y155.983 E116.9197
G1 X25.596 Y74.186 E120.49046
G1 X25.712 Y73.09 E120.53858
G1 X26.04 Y71.956 E120.59011
G1 X26.605 Y70.778 E120.64714
G1 X27.437 Y69.626 E120.70918
G1 X28.53 Y68.591 E120.77489
G1 X29.213 Y68.093 E120.81179
G1 X30.225 Y67.508 E120.86281
G0 F4800 X30.488 Y67.963
G1 F3600 X31.78 Y67.436 E120.92373
G1 X33.066 Y67.11 E120.98164
G1 X34.304 Y66.956 E121.0361
G1 X34.918 Y66.936 E121.06292
G1 X200.195 Y66.94 E128.27791
G1 X201.496 Y67.04 E128.33487
G1 X202.532 Y67.239 E128.38092
G1 X203.787 Y67.639 E128.43842
G1 X204.729 Y68.074 E128.48372
G1 X206.046 Y68.924 E128.55215
G1 X206.629 Y69.43 E128.58584
G1 X207.571 Y70.48 E128.64742
G1 X208.233 Y71.589 E128.70381
G1 X208.673 Y72.772 E128.7589
G1 X208.895 Y74.055 E128.81574
G1 X208.882 Y155.758 E132.3824
G1 X208.771 Y156.816 E132.42884
G1 X208.466 Y157.86 E132.47632
G1 X207.9 Y159.026 E132.5329
G1 X207.089 Y160.093 E132.59141
G1 X206.314 Y160.855 E132.63885
G1 X205.651 Y161.364 E132.67534
G1 X204.44 Y162.07 E132.73653
G1 X203.101 Y162.6 E132.7994
G1 X201.929 Y162.891 E132.85212
G1 X200.692 Y163.045 E132.90653
G1 X200.066 Y163.063 E132.93387
G1 X34.814 Y163.06 E140.14777
G1 X33.503 Y162.96 E140.20517
G1 X32.469 Y162.762 E140.25112
G1 X31.421 Y162.44 E140.29898
G1 X30.081 Y161.822 E140.3634
G1 X29.058 Y161.154 E140.41674
G1 X28.31 Y160.51 E140.45983
G1 X27.476 Y159.576 E140.51449
G1 X26.803 Y158.482 E140.57056
G1 X26.335 Y157.275 E140.62707
G1 X26.105 Y155.94 E140.68621
G1 X26.118 Y74.241 E144.25269
G1 X26.229 Y73.19 E144.29882
G1 X26.532 Y72.143 E144.34641
G1 X27.057 Y71.049 E144.39938
G1 X27.835 Y69.972 E144.45738
G1 X28.841 Y69.014 E144.51802
G1 X29.476 Y68.548 E144.5524
G1 X30.488 Y67.963 E144.60343
G0 F4800 X30.751 Y68.418
G1 F3600 X31.977 Y67.923 E144.66115
G1 X33.132 Y67.631 E144.71316
G1 X34.322 Y67.481 E144.76551
G1 X34.918 Y67.461 E144.79155
G1 X200.156 Y67.464 E152.00483
G1 X201.397 Y67.556 E152.05916
G1 X202.433 Y67.755 E152.10521
G1 X203.567 Y68.116 E152.15716
G1 X204.509 Y68.551 E152.20246
G1 X205.704 Y69.323 E152.26456
G1 X206.238 Y69.781 E152.29527
G1 X207.147 Y70.794 E152.35469
G1 X207.758 Y71.818 E152.40674
G1 X208.164 Y72.91 E152.4576
G1 X208.37 Y74.099 E152.51028
G1 X208.36 Y155.703 E156.07261
G1 X208.254 Y156.714 E156.11699
G1 X207.974 Y157.673 E156.1606
G1 X207.452 Y158.747 E156.21273
G1 X206.671 Y159.775 E156.26909
G1 X205.992 Y160.44 E156.31058
G1 X205.387 Y160.91 E156.34402
G1 X204.176 Y161.616 E156.40521
G1 X202.974 Y162.09 E156.46162
G1 X201.802 Y162.381 E156.51433
G1 X200.677 Y162.52 E156.56382
G1 X200.066 Y162.538 E156.5905
G1 X34.853 Y162.536 E163.8027
G1 X33.602 Y162.444 E163.85746
G1 X32.568 Y162.246 E163.90342
G1 X31.641 Y161.963 E163.94573
G1 X30.301 Y161.345 E164.01014
G1 X29.401 Y160.756 E164.0571
G1 X28.653 Y160.112 E164.10019
G1 X27.898 Y159.261 E164.14985
G1 X27.276 Y158.25 E164.20167
G1 X26.843 Y157.131 E164.25404
G1 X26.63 Y155.897 E164.30871
G1 X26.64 Y74.296 E167.87091
G1 X26.746 Y73.29 E167.91507
G1 X27.024 Y72.33 E167.9587
G1 X27.509 Y71.32 E168.00761
G1 X28.233 Y70.317 E168.06161
G1 X29.153 Y69.436 E168.11722
G1 X29.739 Y69.003 E168.14903
G1 X30.751 Y68.418 E168.20005
G0 F4800 X31.014 Y68.873
G1 F3600 X32.107 Y68.432 E168.25151
G1 X33.199 Y68.152 E168.30072
G1 X34.34 Y68.006 E168.35093
G1 X34.918 Y67.986 E168.37618
G1 X200.119 Y67.988 E175.58785
G1 X201.298 Y68.072 E175.63945
G1 X202.334 Y68.271 E175.6855
G1 X203.347 Y68.593 E175.73191
G1 X204.289 Y69.028 E175.7772
G1 X205.362 Y69.722 E175.83298
G1 X205.896 Y70.18 E175.86369
G1 X206.721 Y71.106 E175.91783
G1 X207.283 Y72.047 E175.96568
G1 X207.656 Y73.049 E176.01236
G1 X207.845 Y74.142 E176.06078
G1 X207.838 Y155.648 E179.61883
G1 X207.737 Y156.612 E179.66115
G1 X207.483 Y157.483 E179.70075
G1 X207.002 Y158.472 E179.74876
G1 X206.302 Y159.401 E179.79954
G1 X205.67 Y160.025 E179.83831
G1 X205.065 Y160.495 E179.87176
G1 X203.982 Y161.128 E179.92652
G1 X202.846 Y161.581 E179.9799
G1 X201.737 Y161.86 E180.02982
G1 X200.661 Y161.995 E180.07716
G1 X200.066 Y162.013 E180.10315
G1 X34.89 Y162.012 E187.31373
G1 X33.701 Y161.928 E187.36577
G1 X32.667 Y161.73 E187.41172
G1 X31.796 Y161.461 E187.45152
G1 X30.587 Y160.905 E187.50961
G1 X29.744 Y160.358 E187.55348
G1 X28.996 Y159.714 E187.59657
G1 X28.32 Y158.946 E187.64123
G1 X27.75 Y158.019 E187.68874
G1 X27.35 Y156.986 E187.73709
G1 X27.155 Y155.854 E187.78724
G1 X27.162 Y74.351 E191.34516
G1 X27.263 Y73.39 E191.38734
G1 X27.516 Y72.518 E191.42698
G1 X27.961 Y71.592 E191.47183
G1 X28.632 Y70.662 E191.52189
G1 X29.467 Y69.857 E191.57252
G1 X30.002 Y69.458 E191.60166
G1 X31.014 Y68.873 E191.65269
G1 F2700 E191.15269
G0 F4800 X31.475 Y69.814
G1 F2700 E191.65269
G1 F3600 X32.369 Y69.449 E191.69484
G1 X33.396 Y69.182 E191.74116
G1 X34.378 Y69.056 E191.78438
G1 X34.937 Y69.036 E191.8088
G1 X200.049 Y69.036 E199.01659
G1 X201.105 Y69.104 E199.06278
G1 X202.022 Y69.274 E199.1035
G1 X202.907 Y69.547 E199.14393
G1 X203.849 Y69.982 E199.18922
G1 X204.678 Y70.52 E199.23236
G1 X205.212 Y70.978 E199.26307
G1 X205.869 Y71.728 E199.3066
G1 X206.333 Y72.505 E199.34611
G1 X206.638 Y73.325 E199.3843
G1 X206.795 Y74.23 E199.42439
G1 X206.794 Y155.538 E202.97381
G1 X206.703 Y156.408 E203.01199
G1 X206.501 Y157.103 E203.04359
G1 X206.101 Y157.922 E203.08338
G1 X205.564 Y158.653 E203.12297
G1 X204.932 Y159.277 E203.16175
G1 X204.427 Y159.661 E203.18944
G1 X203.522 Y160.187 E203.23514
G1 X202.585 Y160.564 E203.27923
G1 X201.602 Y160.818 E203.32355
G1 X200.629 Y160.945 E203.36638
G1 X200.05 Y160.963 E203.39167
G1 X34.958 Y160.964 E210.59858
G1 X33.894 Y160.896 E210.64513
G1 X32.977 Y160.726 E210.68584
G1 X32.106 Y160.457 E210.72563
G1 X31.155 Y160.021 E210.7713
G1 X30.368 Y159.516 E210.81212
G1 X29.784 Y159.02 E210.84557
G1 X29.166 Y158.318 E210.8864
G1 X28.697 Y157.556 E210.92546
G1 X28.365 Y156.697 E210.96566
G1 X28.205 Y155.769 E211.00677
G1 X28.206 Y74.461 E214.55618
G1 X28.297 Y73.592 E214.59433
G1 X28.499 Y72.897 E214.62592
G1 X28.867 Y72.132 E214.66298
G1 X29.432 Y71.349 E214.70513
G1 X30.102 Y70.693 E214.74606
G1 X30.53 Y70.366 E214.76958
G1 X31.475 Y69.814 E214.81735
G0 F4800 X31.277 Y69.328
G1 F3600 X32.237 Y68.941 E214.86254
G1 X33.329 Y68.661 E214.91175
G1 X34.359 Y68.531 E214.95707
G1 X34.918 Y68.511 E214.98149
G1 X200.083 Y68.512 E222.19159
G1 X201.201 Y68.588 E222.24051
G1 X202.177 Y68.772 E222.28386
G1 X203.127 Y69.07 E222.32733
G1 X204.069 Y69.505 E222.37262
G1 X205.02 Y70.121 E222.42209
G1 X205.554 Y70.579 E222.4528
G1 X206.295 Y71.417 E222.50163
G1 X206.808 Y72.276 E222.54531
G1 X207.147 Y73.187 E222.58774
G1 X207.32 Y74.186 E222.632
G1 X207.316 Y155.593 E226.18573
G1 X207.22 Y156.51 E226.22598
G1 X206.992 Y157.293 E226.26158
G1 X206.552 Y158.196 E226.30543
G1 X205.933 Y159.027 E226.35067
G1 X205.301 Y159.651 E226.38944
G1 X204.745 Y160.079 E226.42007
G1 X203.786 Y160.641 E226.46859
G1 X202.716 Y161.072 E226.51895
G1 X201.67 Y161.339 E226.56607
G1 X200.645 Y161.47 E226.61118
G1 X200.05 Y161.488 E226.63717
G1 X34.925 Y161.488 E233.84552
G1 X33.798 Y161.412 E233.89483
G1 X32.822 Y161.228 E233.93819
G1 X31.951 Y160.959 E233.97799
G1 X30.871 Y160.463 E234.02987
G1 X30.084 Y159.958 E234.07069
G1 X29.39 Y159.367 E234.11048
G1 X28.743 Y158.632 E234.15323
G1 X28.224 Y157.788 E234.19648
G1 X27.857 Y156.841 E234.24081
G1 X27.68 Y155.812 E234.28639
G1 X27.684 Y74.406 E237.84008
G1 X27.78 Y73.49 E237.88029
G1 X28.007 Y72.708 E237.91584
G1 X28.414 Y71.862 E237.95682
G1 X29.032 Y71.006 E238.00291
G1 X29.783 Y70.276 E238.04863
G1 X30.265 Y69.913 E238.07497
G1 X31.277 Y69.328 E238.126
G1 F2700 E237.626
;MESH:tray.STL
G0 F4800 X31.804 Y70.533
G0 X30.39 Y72.213
G0 X29.982 Y72.779
G0 X29.739 Y73.275
G0 X29.429 Y74.54
G0 X29.351 Y74.528
;TYPE:WALL-INNER
G1 F2700 E238.126
G1 F3600 X29.351 Y155.705 E241.66969
G1 X29.474 Y156.389 E241.70003
G1 X29.71 Y157.012 E241.72911
G1 X30.077 Y157.612 E241.75982
G1 X30.606 Y158.217 E241.7949
G1 X31.032 Y158.576 E241.81922
G1 X31.726 Y159.019 E241.85516
G1 X32.491 Y159.371 E241.89192
G1 X33.283 Y159.617 E241.92813
G1 X34.039 Y159.753 E241.96166
G1 X34.989 Y159.813 E242.00321
G1 X200.03 Y159.813 E249.2079
G1 X200.542 Y159.794 E249.23027
G1 X201.4 Y159.682 E249.26804
G1 X202.251 Y159.459 E249.30644
G1 X203.039 Y159.139 E249.34357
G1 X203.806 Y158.692 E249.38232
G1 X204.159 Y158.424 E249.40167
G1 X204.712 Y157.877 E249.43563
G1 X205.13 Y157.301 E249.46669
G1 X205.414 Y156.72 E249.49492
G1 X205.575 Y156.158 E249.52045
G1 X205.645 Y155.468 E249.55072
