;FLAVOR:Marlin
;TIME:9089
;Filament used: 16.9027m
;Layer height: 0.2
;MINX:43.696
;MINY:68.47
;MINZ:0.2
;MAXX:191.292
;MAXY:161.519
;MAXZ:7.8
;TARGET_MACHINE.NAME:ELEGOO NEPTUNE 4 Pro
;Generated with Cura_SteamEngine 5.7.2
M104 S250
M105
M109 S250
M82 ;absolute extrusion mode
;ELEGOO NEPTUNE 4 / 4 PRO
M220 S100 ;Set the feed speed to 100%
M221 S100 ;Set the flow rate to 100%
M104 S140 ;Start heating extruder
M190 S70 ;Wait for the bed to reach print temp
G90
G28 ;home
G1 Z10 F300
G1 X67.5 Y0 F6000
G1 Z0 F300
M109 S250 ;Wait for extruder to reach print temp
G92 E0 ;Reset Extruder
G1 X67.5 Y0 Z0.4 F300 ;Move to start position
G1 X167.5 E30 F400 ;Draw the first line
G1 Z0.6 F120.0 ;Move to side a little
G1 X162.5 F3000
G92 E0 ;Reset Extruder
G92 E0
G92 E0
G1 F2700 E-0.5
;LAYER_COUNT:39
;LAYER:0
M107
M204 S500
G0 F6000 X59.402 Y76.84 Z0.2
;TYPE:SKIRT
G1 F2700 E0
G1 F3600 X60.816 Y75.794 E0.07678
G1 X62.445 Y74.694 E0.16259
G1 X63.54 Y74.019 E0.21874
G1 X65.172 Y73.107 E0.30035
G1 X66.526 Y72.42 E0.36663
G1 X67.453 Y71.996 E0.41113
G1 X68.258 Y71.659 E0.44923
G1 X69.344 Y71.247 E0.49993
G1 X70.592 Y70.824 E0.55746
G1 X71.148 Y70.645 E0.58296
G1 X72.056 Y70.38 E0.62425
G1 X73.639 Y69.954 E0.69581
G1 X74.791 Y69.675 E0.74755
G1 X75.292 Y69.565 E0.76995
G1 X77.209 Y69.183 E0.85528
G1 X78.266 Y69.008 E0.90205
G1 X78.825 Y68.928 E0.9267
G1 X80.261 Y68.748 E0.98988
G1 X81.852 Y68.597 E1.05964
G1 X82.823 Y68.534 E1.10212
G1 X83.671 Y68.498 E1.13917
G1 X84.784 Y68.472 E1.18777
G1 X85.716 Y68.475 E1.22846
G1 X86.524 Y68.495 E1.26374
G1 X87.523 Y68.538 E1.30739
G1 X88.542 Y68.608 E1.35198
G1 X89.382 Y68.685 E1.3888
G1 X90.427 Y68.804 E1.43471
G1 X91.113 Y68.899 E1.46495
G1 X92.09 Y69.053 E1.50812
G1 X93.011 Y69.219 E1.54898
G1 X94.397 Y69.51 E1.6108
G1 X97.572 Y70.233 E1.75295
G1 X100.234 Y70.755 E1.87137
G1 X102.973 Y71.211 E1.99258
G1 X105.63 Y71.578 E2.10967
G1 X108.395 Y71.878 E2.23108
G1 X111.069 Y72.094 E2.34819
G1 X113.852 Y72.239 E2.46985
G1 X116.564 Y72.303 E2.58827
G1 X119.313 Y72.291 E2.70828
G1 X122.025 Y72.202 E2.82673
G1 X124.77 Y72.034 E2.94678
G1 X127.513 Y71.787 E3.06701
G1 X130.209 Y71.469 E3.18552
G1 X132.924 Y71.07 E3.30531
G1 X135.607 Y70.597 E3.42424
G1 X138.274 Y70.049 E3.5431
G1 X140.733 Y69.476 E3.65332
G1 X142.293 Y69.156 E3.72284
G1 X143.179 Y69.001 E3.7621
G1 X143.866 Y68.896 E3.79244
G1 X145.336 Y68.708 E3.85713
G1 X146.684 Y68.587 E3.91622
G1 X147.735 Y68.521 E3.96219
G1 X149.154 Y68.474 E4.02417
G1 X150.129 Y68.47 E4.06673
G1 X151.523 Y68.504 E4.1276
G1 X153.175 Y68.598 E4.19983
G1 X154.67 Y68.737 E4.26538
G1 X155.959 Y68.899 E4.32209
G1 X157.146 Y69.076 E4.37448
G1 X158.182 Y69.259 E4.42041
G1 X159.551 Y69.535 E4.48137
G1 X161.066 Y69.883 E4.54923
G1 X161.605 Y70.019 E4.5735
G1 X162.865 Y70.366 E4.63055
G1 X164.242 Y70.782 E4.69334
G1 X165.283 Y71.131 E4.74127
G1 X166.282 Y71.501 E4.78778
G1 X167.27 Y71.904 E4.83436
G1 X167.886 Y72.181 E4.86384
G1 X169.21 Y72.826 E4.92813
G1 X170.722 Y73.639 E5.00307
G1 X172.152 Y74.487 E5.07565
G1 X173.578 Y75.413 E5.14987
G1 X174.959 Y76.396 E5.22387
G1 X176.366 Y77.483 E5.30149
G1 X177.183 Y78.164 E5.34792
G1 X178.645 Y79.494 E5.4342
G1 X179.981 Y80.821 E5.5164
G1 X181.107 Y82.038 E5.58878
G1 X182.172 Y83.292 E5.6606
G1 X183.221 Y84.634 E5.73496
G1 X184.225 Y86.036 E5.81023
G1 X185.195 Y87.51 E5.88726
G1 X185.683 Y88.31 E5.92817
G1 X186.839 Y90.418 E6.03312
G1 X187.276 Y91.286 E6.07554
G1 X188.184 Y93.329 E6.17314
G1 X188.804 Y94.911 E6.24732
G1 X189.352 Y96.5 E6.32069
G1 X189.837 Y98.123 E6.39464
G1 X190.246 Y99.73 E6.46703
G1 X190.593 Y101.369 E6.54016
G1 X190.869 Y103.01 E6.6128
G1 X191.081 Y104.699 E6.68711
G1 X191.221 Y106.368 E6.76023
G1 X191.29 Y108.016 E6.83223
G1 X191.292 Y109.709 E6.90614
G1 X191.223 Y111.404 E6.98019
G1 X191.097 Y112.975 E7.04899
G1 X190.92 Y114.457 E7.11415
G1 X190.806 Y115.193 E7.14666
G1 X190.637 Y116.095 E7.18672
G1 X190.416 Y117.1 E7.23164
G1 X190.124 Y118.258 E7.28378
G1 X189.581 Y120.168 E7.37046
G1 X189.211 Y121.325 E7.42349
G1 X188.785 Y122.566 E7.48076
G1 X188.456 Y123.465 E7.52255
G1 X187.727 Y125.312 E7.60924
G1 X187.293 Y126.319 E7.6571
G1 X186.464 Y128.095 E7.74266
G1 X186.007 Y129.009 E7.78727
G1 X185.518 Y129.93 E7.83279
G1 X185.073 Y130.732 E7.87283
G1 X184.632 Y131.481 E7.91078
G1 X184.111 Y132.333 E7.95437
G1 X183.55 Y133.208 E7.99975
G1 X183.043 Y133.959 E8.0393
G1 X182.452 Y134.791 E8.08385
G1 X182.019 Y135.374 E8.11555
G1 X181.224 Y136.394 E8.17201
G1 X179.923 Y137.936 E8.26008
G1 X179.217 Y138.71 E8.30581
G1 X178.143 Y139.818 E8.37318
G1 X176.966 Y140.956 E8.44464
G1 X175.913 Y141.908 E8.50661
G1 X175.126 Y142.583 E8.55187
G1 X174.456 Y143.133 E8.58972
G1 X173.352 Y144.01 E8.65127
G1 X172.426 Y144.711 E8.70197
G1 X171.334 Y145.503 E8.76085
G1 X170.209 Y146.286 E8.82069
G1 X169.131 Y147.01 E8.87738
G1 X167.887 Y147.812 E8.94199
G1 X166.618 Y148.592 E9.00701
G1 X165.174 Y149.438 E9.08007
G1 X164.179 Y150.003 E9.13002
G1 X163.118 Y150.581 E9.18276
G1 X161.834 Y151.251 E9.24599
G1 X160.595 Y151.87 E9.30645
G1 X159.506 Y152.39 E9.35913
G1 X158.045 Y153.058 E9.42926
G1 X157.172 Y153.438 E9.47082
G1 X155.382 Y154.181 E9.55543
G1 X153.973 Y154.73 E9.62144
G1 X152.644 Y155.22 E9.68327
G1 X151.429 Y155.646 E9.73948
G1 X149.587 Y156.253 E9.82414
G1 X148.33 Y156.64 E9.88156
G1 X146.488 Y157.179 E9.96534
G1 X144.877 Y157.618 E10.03823
G1 X142.798 Y158.147 E10.13188
G1 X141.325 Y158.496 E10.19796
G1 X139.267 Y158.951 E10.28997
G1 X136.724 Y159.465 E10.40323
G1 X134.45 Y159.876 E10.50411
G1 X131.962 Y160.275 E10.6141
G1 X129.903 Y160.569 E10.7049
G1 X128.344 Y160.766 E10.7735
G1 X127.234 Y160.893 E10.82227
G1 X125.045 Y161.117 E10.91833
G1 X122.601 Y161.312 E11.02536
G1 X121.229 Y161.402 E11.08538
G1 X119.63 Y161.479 E11.15526
G1 X118.296 Y161.519 E11.21352
G1 X116.707 Y161.518 E11.28289
G1 X115.145 Y161.469 E11.35111
G1 X113.483 Y161.387 E11.42375
G1 X111.337 Y161.239 E11.51765
G1 X109.068 Y161.037 E11.6171
G1 X106.92 Y160.804 E11.71142
G1 X104.704 Y160.523 E11.80893
G1 X103.271 Y160.32 E11.87211
G1 X101.177 Y159.992 E11.96463
G1 X98.638 Y159.544 E12.07718
G1 X97.367 Y159.298 E12.1337
G1 X94.805 Y158.764 E12.24794
G1 X92.611 Y158.259 E12.34622
G1 X91.575 Y158.004 E12.3928
G1 X89.455 Y157.453 E12.48842
G1 X87.466 Y156.893 E12.57862
G1 X86.315 Y156.547 E12.63109
G1 X84.854 Y156.085 E12.69798
G1 X83.107 Y155.494 E12.77849
G1 X82.038 Y155.116 E12.82799
G1 X80.404 Y154.502 E12.90419
G1 X79.491 Y154.143 E12.94701
G1 X77.907 Y153.486 E13.02187
G1 X76.93 Y153.064 E13.06833
G1 X76.011 Y152.648 E13.11237
G1 X74.579 Y151.977 E13.1814
G1 X73.043 Y151.215 E13.25625
G1 X71.405 Y150.355 E13.33702
G1 X69.494 Y149.284 E13.43265
G1 X68.367 Y148.614 E13.48988
G1 X67.064 Y147.81 E13.55672
G1 X65.682 Y146.919 E13.6285
G1 X64.804 Y146.329 E13.67468
G1 X63.275 Y145.259 E13.75615
G1 X62.259 Y144.513 E13.81117
G1 X61.46 Y143.902 E13.85508
G1 X60.423 Y143.077 E13.91293
G1 X59.71 Y142.486 E13.95335
G1 X58.803 Y141.699 E14.00578
G1 X58.167 Y141.121 E14.04329
G1 X57.439 Y140.438 E14.08687
G1 X56.563 Y139.573 E14.14061
G1 X56.055 Y139.048 E14.1725
G1 X55.147 Y138.066 E14.23089
G1 X54.614 Y137.452 E14.26638
G1 X53.943 Y136.649 E14.31206
G1 X53.287 Y135.824 E14.35808
G1 X52.343 Y134.556 E14.42708
G1 X51.429 Y133.231 E14.49735
G1 X50.946 Y132.49 E14.53596
G1 X50.468 Y131.72 E14.57553
G1 X49.948 Y130.837 E14.62026
G1 X49.496 Y130.034 E14.66049
G1 X49.042 Y129.191 E14.70229
G1 X48.704 Y128.527 E14.73481
G1 X48.179 Y127.447 E14.78723
G1 X47.298 Y125.473 E14.8816
G1 X46.918 Y124.556 E14.92493
G1 X46.412 Y123.235 E14.98668
G1 X45.882 Y121.735 E15.05613
G1 X45.49 Y120.527 E15.11157
G1 X44.918 Y118.573 E15.20045
G1 X44.732 Y117.858 E15.2327
G1 X44.525 Y116.984 E15.27191
G1 X44.276 Y115.716 E15.32832
G1 X44.107 Y114.643 E15.37574
G1 X43.86 Y112.554 E15.46757
G1 X43.773 Y111.458 E15.51556
G1 X43.696 Y109.263 E15.61144
G1 X43.699 Y108.064 E15.66378
G1 X43.807 Y105.891 E15.75876
G1 X43.966 Y104.174 E15.83404
G1 X44.13 Y102.914 E15.8895
G1 X44.501 Y100.842 E15.98139
G1 X44.882 Y99.147 E16.05723
G1 X45.32 Y97.522 E16.1307
G1 X45.835 Y95.887 E16.20553
G1 X46.426 Y94.242 E16.28184
G1 X46.906 Y93.054 E16.33777
G1 X47.849 Y90.995 E16.43663
G1 X48.415 Y89.883 E16.4911
G1 X49.331 Y88.262 E16.57238
G1 X50.29 Y86.718 E16.65173
G1 X51.24 Y85.327 E16.72526
G1 X52.323 Y83.872 E16.80444
G1 X53.04 Y82.979 E16.85443
G1 X54.523 Y81.297 E16.95232
G1 X55.341 Y80.436 E17.00417
G1 X56.983 Y78.863 E17.10343
G1 X57.835 Y78.107 E17.15316
G1 X59.402 Y76.84 E17.24112
G1 F2700 E16.74112
;MESH:WritstRestBaseFlat-v2.1.stl
G0 F6000 X56.908 Y82.54
G0 X58.116 Y83.753
G0 X48.177 Y111.607
G0 X47.857 Y111.632
;TYPE:WALL-INNER
G1 F2700 E17.24112
G1 F3600 X48.002 Y113.148 E17.30761
G1 X48.233 Y114.806 E17.38068
G1 X48.451 Y115.918 E17.43015
G1 X48.578 Y116.49 E17.45573
G1 X48.902 Y117.729 E17.51163
G1 X49.435 Y119.539 E17.594
G1 X49.967 Y121.118 E17.66674
G1 X50.491 Y122.537 E17.73277
G1 X50.792 Y123.292 E17.76825
G1 X51.407 Y124.739 E17.83689
G1 X52.097 Y126.218 E17.90813
G1 X52.488 Y127.003 E17.94642
G1 X53.192 Y128.325 E18.0118
G1 X53.738 Y129.263 E18.05918
G1 X54.111 Y129.883 E18.09077
G1 X54.649 Y130.735 E18.13475
G1 X55.169 Y131.514 E18.17564
G1 X55.652 Y132.196 E18.21212
G1 X56.217 Y132.969 E18.25392
G1 X56.8 Y133.717 E18.29532
G1 X57.409 Y134.463 E18.33736
G1 X57.952 Y135.1 E18.3739
G1 X58.596 Y135.811 E18.41578
G1 X59.21 Y136.468 E18.45503
G1 X59.86 Y137.118 E18.49516
G1 X60.677 Y137.907 E18.54474
G1 X61.965 Y139.061 E18.62024
G1 X62.734 Y139.709 E18.66413
G1 X63.53 Y140.355 E18.70889
G1 X64.27 Y140.93 E18.7498
G1 X65.203 Y141.63 E18.80071
G1 X65.995 Y142.201 E18.84334
G1 X67.279 Y143.088 E18.91146
G1 X68.346 Y143.8 E18.96746
G1 X70.006 Y144.854 E19.0533
G1 X71.244 Y145.595 E19.11628
G1 X73.069 Y146.627 E19.20781
G1 X73.665 Y146.948 E19.23736
G1 X75.021 Y147.654 E19.3041
G1 X76.445 Y148.358 E19.37344
G1 X78.038 Y149.099 E19.45014
G1 X78.858 Y149.462 E19.48928
G1 X80.461 Y150.144 E19.56533
G1 X81.245 Y150.459 E19.60221
G1 X83.049 Y151.153 E19.68659
G1 X84.943 Y151.823 E19.77429
G1 X86.818 Y152.441 E19.86048
G1 X88.868 Y153.064 E19.95401
G1 X90.884 Y153.623 E20.04534
G1 X93.064 Y154.183 E20.14359
G1 X95.169 Y154.676 E20.23797
G1 X97.561 Y155.188 E20.34475
G1 X99.87 Y155.633 E20.44741
G1 X102.207 Y156.039 E20.55095
G1 X104.742 Y156.424 E20.66288
G1 X106.927 Y156.706 E20.75906
G1 X109.093 Y156.953 E20.85423
G1 X111.631 Y157.187 E20.96549
G1 X113.913 Y157.338 E21.06533
G1 X116.144 Y157.441 E21.16282
G1 X117.476 Y157.46 E21.22098
G1 X118.808 Y157.441 E21.27913
G1 X120.839 Y157.35 E21.36788
G1 X122.848 Y157.215 E21.45578
G1 X125.141 Y157.02 E21.55624
G1 X127.388 Y156.782 E21.65488
G1 X129.482 Y156.516 E21.74702
G1 X131.959 Y156.162 E21.85625
G1 X134.268 Y155.776 E21.95845
G1 X136.7 Y155.331 E22.06638
G1 X138.872 Y154.878 E22.16323
G1 X140.958 Y154.406 E22.2566
G1 X143.218 Y153.846 E22.35824
G1 X145.545 Y153.218 E22.46345
G1 X147.649 Y152.595 E22.55924
G1 X148.842 Y152.219 E22.61385
G1 X149.8 Y151.902 E22.6579
G1 X150.857 Y151.537 E22.70672
G1 X151.904 Y151.158 E22.75532
G1 X153.837 Y150.416 E22.84571
G1 X155.794 Y149.602 E22.93824
G1 X157.569 Y148.799 E23.02328
G1 X159.379 Y147.93 E23.11093
G1 X160.241 Y147.493 E23.15312
G1 X161.83 Y146.649 E23.23166
G1 X163.253 Y145.848 E23.30295
G1 X164.167 Y145.316 E23.34911
G1 X166.165 Y144.083 E23.45161
G1 X167.409 Y143.27 E23.51648
G1 X168.56 Y142.479 E23.57745
G1 X169.619 Y141.724 E23.63422
G1 X170.591 Y140.997 E23.68721
G1 X171.463 Y140.322 E23.73535
G1 X172.164 Y139.755 E23.77471
G1 X172.852 Y139.181 E23.81382
G1 X173.711 Y138.428 E23.86369
G1 X174.728 Y137.474 E23.92456
G1 X175.951 Y136.255 E23.99994
G1 X176.919 Y135.193 E24.06267
G1 X177.463 Y134.562 E24.09904
G1 X177.933 Y133.999 E24.13105
G1 X178.456 Y133.339 E24.16781
G1 X178.975 Y132.648 E24.20554
G1 X179.426 Y132.027 E24.23904
G1 X179.927 Y131.307 E24.27733
G1 X180.357 Y130.651 E24.31158
G1 X181.317 Y129.096 E24.39135
G1 X181.767 Y128.306 E24.43104
G1 X182.566 Y126.803 E24.50535
G1 X182.919 Y126.086 E24.54024
G1 X183.296 Y125.287 E24.5788
G1 X183.658 Y124.476 E24.61757
G1 X183.962 Y123.767 E24.65125
G1 X184.292 Y122.964 E24.68915
G1 X184.598 Y122.168 E24.72637
G1 X185.139 Y120.679 E24.79553
G1 X185.616 Y119.218 E24.86262
G1 X186.038 Y117.791 E24.92759
G1 X186.431 Y116.313 E24.99435
G1 X186.738 Y114.874 E25.05858
G1 X186.861 Y114.148 E25.09072
G1 X186.974 Y113.327 E25.1269
G1 X187.123 Y111.836 E25.19231
G1 X187.217 Y110.316 E25.25879
G1 X187.244 Y108.811 E25.3245
G1 X187.209 Y107.299 E25.39053
G1 X187.111 Y105.796 E25.45628
G1 X186.951 Y104.293 E25.52226
G1 X186.728 Y102.801 E25.58812
G1 X186.446 Y101.332 E25.65341
G1 X186.101 Y99.852 E25.71975
G1 X185.694 Y98.395 E25.78579
G1 X185.232 Y96.962 E25.85152
G1 X184.707 Y95.545 E25.91749
G1 X184.128 Y94.163 E25.9829
G1 X183.485 Y92.788 E26.04916
G1 X182.792 Y91.449 E26.11498
G1 X182.049 Y90.15 E26.1803
G1 X181.238 Y88.861 E26.24678
G1 X180.389 Y87.628 E26.31214
G1 X179.48 Y86.418 E26.3782
G1 X178.517 Y85.244 E26.44449
G1 X177.522 Y84.127 E26.50979
G1 X176.468 Y83.03 E26.5762
G1 X175.384 Y81.997 E26.64157
G1 X174.241 Y80.995 E26.70792
G1 X173.067 Y80.052 E26.77366
G1 X171.86 Y79.163 E26.8391
G1 X170.678 Y78.356 E26.90157
G1 X169.331 Y77.518 E26.97083
G1 X168.003 Y76.774 E27.03728
G1 X166.659 Y76.084 E27.10323
G1 X165.922 Y75.745 E27.13864
G1 X165.148 Y75.418 E27.17532
G1 X164.379 Y75.119 E27.21134
G1 X163.658 Y74.867 E27.24468
G1 X162.233 Y74.414 E27.30996
G1 X161.164 Y74.112 E27.35845
G1 X160.237 Y73.867 E27.4003
G1 X159.462 Y73.675 E27.43516
G1 X158.183 Y73.4 E27.49227
G1 X156.831 Y73.144 E27.55234
G1 X156.19 Y73.039 E27.58069
G1 X154.738 Y72.838 E27.64468
G1 X153.05 Y72.661 E27.71877
G1 X151.65 Y72.579 E27.77999
G1 X150.787 Y72.547 E27.81769
G1 X150.035 Y72.536 E27.85053
G1 X149.271 Y72.539 E27.88388
G1 X148.373 Y72.559 E27.92309
G1 X147.466 Y72.606 E27.96274
G1 X146.842 Y72.653 E27.99005
G1 X145.762 Y72.751 E28.03739
G1 X144.998 Y72.841 E28.07097
G1 X144.006 Y72.982 E28.11471
G1 X142.516 Y73.252 E28.18082
G1 X141.09 Y73.566 E28.24456
G1 X139.759 Y73.904 E28.30451
G1 X138.267 Y74.337 E28.37233
G1 X137.027 Y74.736 E28.42919
G1 X135.716 Y75.18 E28.48961
G1 X131.793 Y76.588 E28.67156
G1 X130.621 Y76.994 E28.72571
G1 X129.215 Y77.445 E28.79017
G1 X127.947 Y77.81 E28.84777
G1 X127.195 Y78.006 E28.88169
G1 X126.41 Y78.193 E28.91692
G1 X125.509 Y78.391 E28.95719
G1 X124.146 Y78.638 E29.01766
G1 X123.255 Y78.777 E29.05703
G1 X122.356 Y78.895 E29.09661
G1 X120.534 Y79.078 E29.17655
G1 X119.346 Y79.159 E29.22853
G1 X117.45 Y79.227 E29.31135
G1 X116.527 Y79.197 E29.35166
G1 X114.676 Y79.096 E29.43259
G1 X113.013 Y78.945 E29.50548
G1 X111.465 Y78.742 E29.57364
G1 X110.638 Y78.612 E29.61018
G1 X109.896 Y78.475 E29.64312
G1 X108.482 Y78.181 E29.70617
G1 X107.889 Y78.037 E29.7328
G1 X106.603 Y77.695 E29.7909
G1 X105.48 Y77.361 E29.84204
G1 X104.18 Y76.937 E29.90173
G1 X103.109 Y76.569 E29.95117
G1 X99.597 Y75.307 E30.11408
G1 X98.376 Y74.882 E30.17052
G1 X97.12 Y74.471 E30.22821
G1 X95.822 Y74.081 E30.28737
G1 X94.597 Y73.746 E30.34281
G1 X93.856 Y73.563 E30.37613
G1 X92.422 Y73.248 E30.44022
G1 X91.633 Y73.099 E30.47528
G1 X90.937 Y72.982 E30.50609
G1 X90.051 Y72.853 E30.54517
G1 X88.576 Y72.688 E30.60996
G1 X87.595 Y72.61 E30.65292
G1 X86.867 Y72.571 E30.68475
G1 X86.07 Y72.547 E30.71956
G1 X85.269 Y72.536 E30.75453
G1 X84.361 Y72.543 E30.79416
G1 X83.45 Y72.575 E30.83396
G1 X82.67 Y72.614 E30.86805
G1 X81.946 Y72.669 E30.89975
G1 X81 Y72.756 E30.94122
G1 X80.124 Y72.853 E30.97969
G1 X78.504 Y73.086 E31.05114
G1 X76.925 Y73.372 E31.12119
G1 X75.392 Y73.707 E31.18969
G1 X73.905 Y74.08 E31.25662
G1 X72.458 Y74.497 E31.32235
G1 X71.072 Y74.942 E31.3859
G1 X70.231 Y75.241 E31.42486
G1 X69.401 Y75.574 E31.4639
G1 X68.496 Y75.97 E31.50703
G1 X67.783 Y76.321 E31.54172
G1 X66.42 Y77.044 E31.60907
G1 X64.948 Y77.906 E31.68354
G1 X64.946 Y77.918 E31.68407
G1 X63.805 Y78.653 E31.74332
G1 X62.564 Y79.529 E31.80963
G1 X61.338 Y80.478 E31.87731
G1 X60.113 Y81.503 E31.94704
G1 X59.117 Y82.425 E32.00629
G1 X57.942 Y83.588 E32.07846
G1 X56.91 Y84.703 E32.14478
