;FLAVOR:Marlin
;TIME:3965
;Filament used: 3.99114m
;Layer height: 0.2
;MINX:40.227
;MINY:37.712
;MINZ:0.2
;MAXX:194.62
;MAXY:192.117
;MAXZ:8
;TARGET_MACHINE.NAME:ELEGOO NEPTUNE 4 Pro
;Generated with Cura_SteamEngine 5.7.2
M104 S220
M105
M109 S220
M82 ;absolute extrusion mode
;ELEGOO NEPTUNE 4 / 4 PRO
M220 S100 ;Set the feed speed to 100%
M221 S100 ;Set the flow rate to 100%
M104 S140 ;Start heating extruder
M190 S60 ;Wait for the bed to reach print temp
G90
G28 ;home
G1 Z10 F300
G1 X67.5 Y0 F6000
G1 Z0 F300
M109 S220.0 ;Wait for extruder to reach print temp
G92 E0 ;Reset Extruder
G1 X67.5 Y0 Z0.4 F300 ;Move to start position
G1 X167.5 E30 F400 ;Draw the first line
G1 Z0.6 F120.0 ;Move to side a little
G1 X162.5 F3000
G92 E0 ;Reset Extruder
G92 E0
G92 E0
G1 F2700 E-0.5
;LAYER_COUNT:40
;LAYER:0
M107
M204 S500
G0 F3600 X49.563 Y150.323 Z0.2
;TYPE:SKIRT
G1 F2700 E0
G1 F3600 X50.286 Y150.16 E0.03235
G1 X52.221 Y149.951 E0.11732
G1 X52.896 Y149.924 E0.14681
G1 X55.873 Y149.964 E0.27678
G1 X58.621 Y149.921 E0.39675
G1 X61.369 Y149.8 E0.51683
G1 X64.068 Y149.605 E0.63496
G1 X66.782 Y149.33 E0.75404
G1 X69.5 Y148.978 E0.87368
G1 X72.227 Y148.546 E0.99421
G1 X74.888 Y148.047 E1.1124
G1 X77.588 Y147.461 E1.23301
G1 X80.222 Y146.812 E1.35143
G1 X82.844 Y146.085 E1.47021
G1 X85.501 Y145.267 E1.59157
G1 X88.066 Y144.398 E1.7098
G1 X90.642 Y143.442 E1.82974
G1 X93.173 Y142.421 E1.94888
G1 X95.695 Y141.319 E2.06903
G1 X98.146 Y140.166 E2.18727
G1 X100.602 Y138.923 E2.30744
G1 X103.008 Y137.62 E2.42688
G1 X105.373 Y136.249 E2.54621
G1 X107.687 Y134.822 E2.66489
G1 X109.983 Y133.314 E2.78481
G1 X112.243 Y131.734 E2.90519
G1 X114.442 Y130.105 E3.02465
G1 X116.576 Y128.426 E3.14319
G1 X118.684 Y126.67 E3.26295
G1 X120.722 Y124.872 E3.38159
G1 X122.748 Y122.982 E3.50255
G1 X124.68 Y121.071 E3.62117
G1 X126.559 Y119.107 E3.73983
G1 X128.437 Y117.028 E3.86213
G1 X130.174 Y114.992 E3.97896
G1 X131.915 Y112.831 E4.1001
G1 X133.553 Y110.675 E4.2183
G1 X135.135 Y108.468 E4.33684
G1 X136.68 Y106.178 E4.45743
G1 X138.136 Y103.881 E4.57615
G1 X139.566 Y101.478 E4.69822
G1 X140.863 Y99.152 E4.81448
G1 X142.143 Y96.695 E4.93542
G1 X143.332 Y94.245 E5.0543
G1 X144.471 Y91.719 E5.17526
G1 X145.506 Y89.238 E5.29262
G1 X146.505 Y86.64 E5.41413
G1 X147.403 Y84.089 E5.53218
G1 X148.243 Y81.474 E5.65208
G1 X149.004 Y78.848 E5.77144
G1 X149.69 Y76.203 E5.89072
G1 X150.299 Y73.555 E6.00933
G1 X150.848 Y70.81 E6.13154
G1 X151.296 Y68.186 E6.24774
G1 X151.687 Y65.426 E6.36943
G1 X151.991 Y62.729 E6.48791
G1 X152.22 Y60.023 E6.60646
G1 X152.374 Y57.276 E6.72657
G1 X152.45 Y54.532 E6.8464
G1 X152.444 Y51.54 E6.97701
G1 X152.425 Y50.272 E7.03237
G1 X152.463 Y49.58 E7.06263
G1 X152.56 Y48.743 E7.09941
G1 X152.694 Y47.712 E7.14479
G1 X152.799 Y47.212 E7.1671
G1 X152.981 Y46.735 E7.18938
G1 X153.235 Y46.292 E7.21168
G1 X153.677 Y45.773 E7.24144
G1 X154.349 Y45.131 E7.28201
G1 X156.323 Y43.192 E7.4028
G1 X156.965 Y42.527 E7.44315
G1 X157.683 Y41.811 E7.48741
G1 X158.444 Y41.127 E7.53208
G1 X159.647 Y40.005 E7.60389
G1 X160.714 Y39.028 E7.66705
G1 X161.363 Y38.535 E7.70263
G1 X162.117 Y38.112 E7.74037
G1 X163.079 Y37.809 E7.7844
G1 X164.067 Y37.712 E7.82773
G1 X164.99 Y37.811 E7.86826
G1 X165.78 Y38.041 E7.90418
G1 X166.554 Y38.46 E7.9426
G1 X166.982 Y38.737 E7.96485
G1 X167.337 Y39.053 E7.9856
G1 X169.142 Y40.905 E8.09849
G1 X170.495 Y42.322 E8.18402
G1 X171.69 Y43.597 E8.2603
G1 X172.899 Y44.914 E8.33835
G1 X174.552 Y46.762 E8.44658
G1 X175.89 Y48.304 E8.53571
G1 X176.682 Y49.24 E8.58923
G1 X177.73 Y50.508 E8.66104
G1 X178.77 Y51.802 E8.73352
G1 X179.823 Y53.155 E8.80836
G1 X180.768 Y54.41 E8.87694
G1 X181.626 Y55.588 E8.94056
G1 X182.475 Y56.794 E9.00494
G1 X183.285 Y57.99 E9.068
G1 X183.994 Y59.075 E9.12458
G1 X184.784 Y60.335 E9.1895
G1 X185.286 Y61.166 E9.23188
G1 X186.147 Y62.654 E9.30693
G1 X187.116 Y64.434 E9.3954
G1 X187.795 Y65.768 E9.46075
G1 X188.354 Y66.927 E9.51692
G1 X189.066 Y68.496 E9.59213
G1 X189.552 Y69.637 E9.64627
G1 X190.211 Y71.284 E9.72371
G1 X190.713 Y72.635 E9.78663
G1 X191.157 Y73.909 E9.84552
G1 X191.543 Y75.091 E9.8998
G1 X192.044 Y76.753 E9.97558
G1 X192.433 Y78.171 E10.03977
G1 X192.795 Y79.613 E10.10467
G1 X193.142 Y81.152 E10.17354
G1 X193.424 Y82.54 E10.23537
G1 X193.725 Y84.222 E10.30996
G1 X193.916 Y85.457 E10.36452
G1 X194.171 Y87.432 E10.45145
G1 X194.312 Y88.781 E10.51066
G1 X194.457 Y90.562 E10.58867
G1 X194.549 Y92.194 E10.66002
G1 X194.607 Y94.027 E10.74008
G1 X194.62 Y95.802 E10.81757
G1 X194.593 Y97.591 E10.89567
G1 X194.518 Y99.514 E10.97968
G1 X194.405 Y101.339 E11.0595
G1 X194.236 Y103.339 E11.14712
G1 X194.027 Y105.315 E11.23386
G1 X193.781 Y107.268 E11.31979
G1 X193.482 Y109.317 E11.41019
G1 X193.154 Y111.316 E11.49862
G1 X192.788 Y113.328 E11.58789
G1 X192.489 Y114.853 E11.65573
G1 X192.125 Y116.59 E11.73321
G1 X191.885 Y117.684 E11.7821
G1 X191.555 Y119.121 E11.84646
G1 X191.16 Y120.762 E11.92015
G1 X190.723 Y122.473 E11.99723
G1 X190.28 Y124.123 E12.07181
G1 X189.628 Y126.384 E12.17454
G1 X189.213 Y127.743 E12.23657
G1 X188.822 Y128.968 E12.2927
G1 X188.479 Y129.997 E12.34005
G1 X187.966 Y131.468 E12.40806
G1 X187.588 Y132.504 E12.4562
G1 X187.051 Y133.923 E12.52243
G1 X186.586 Y135.078 E12.57679
G1 X186.262 Y135.853 E12.61346
G1 X185.594 Y137.379 E12.68618
G1 X185.055 Y138.543 E12.74217
G1 X184.513 Y139.662 E12.79645
G1 X183.931 Y140.809 E12.8526
G1 X183.326 Y141.951 E12.90901
G1 X182.712 Y143.058 E12.96427
G1 X182.067 Y144.173 E13.02051
G1 X181.601 Y144.95 E13.06006
G1 X180.81 Y146.219 E13.12533
G1 X180.099 Y147.312 E13.18226
G1 X179.363 Y148.404 E13.23974
G1 X178.479 Y149.661 E13.30683
G1 X177.651 Y150.797 E13.36819
G1 X176.806 Y151.917 E13.42944
G1 X175.906 Y153.069 E13.49326
G1 X174.57 Y154.716 E13.58583
G1 X173.024 Y156.539 E13.69018
G1 X171.958 Y157.75 E13.76061
G1 X170.866 Y158.959 E13.83173
G1 X169.717 Y160.199 E13.90552
G1 X168.554 Y161.422 E13.9792
G1 X167.364 Y162.65 E14.05385
G1 X166.45 Y163.573 E14.11055
G1 X164.841 Y165.164 E14.20933
G1 X163.504 Y166.455 E14.29046
G1 X162.663 Y167.25 E14.34098
G1 X160.922 Y168.855 E14.44435
G1 X159.722 Y169.926 E14.51457
G1 X158.452 Y171.03 E14.58803
G1 X157.299 Y172.002 E14.65386
G1 X155.522 Y173.443 E14.75373
G1 X154.418 Y174.305 E14.81488
G1 X153.297 Y175.151 E14.87618
G1 X152.129 Y176.002 E14.93927
G1 X150.915 Y176.856 E15.00407
G1 X150.214 Y177.332 E15.04105
G1 X148.958 Y178.157 E15.10665
G1 X147.462 Y179.094 E15.18371
G1 X146.369 Y179.745 E15.23925
G1 X145.196 Y180.416 E15.29824
G1 X144.085 Y181.023 E15.35351
G1 X142.964 Y181.61 E15.40875
G1 X142.109 Y182.039 E15.45051
G1 X140.982 Y182.584 E15.50515
G1 X139.496 Y183.265 E15.57651
G1 X138.291 Y183.789 E15.63387
G1 X137.085 Y184.287 E15.69083
G1 X136.149 Y184.658 E15.73478
G1 X133.985 Y185.46 E15.83553
G1 X132.497 Y185.979 E15.90432
G1 X131.468 Y186.322 E15.95167
G1 X130.189 Y186.73 E16.01028
G1 X127.952 Y187.403 E16.11226
G1 X126.572 Y187.794 E16.17487
G1 X123.935 Y188.49 E16.29393
G1 X122.366 Y188.877 E16.36447
G1 X120.134 Y189.396 E16.46451
G1 X117.309 Y189.998 E16.5906
G1 X115.783 Y190.297 E16.65848
G1 X113.762 Y190.663 E16.74814
G1 X111.792 Y190.986 E16.83529
G1 X109.77 Y191.281 E16.92449
G1 X107.815 Y191.527 E17.01051
G1 X105.838 Y191.736 E17.09729
G1 X103.889 Y191.901 E17.18268
G1 X102.713 Y191.979 E17.23413
G1 X100.701 Y192.073 E17.32206
G1 X98.738 Y192.117 E17.40777
G1 X96.538 Y192.107 E17.50381
G1 X94.695 Y192.049 E17.5843
G1 X93.063 Y191.957 E17.65566
G1 X91.282 Y191.812 E17.73367
G1 X89.527 Y191.623 E17.81072
G1 X88.03 Y191.426 E17.87663
G1 X86.312 Y191.156 E17.95255
G1 X84.827 Y190.883 E18.01846
G1 X83.279 Y190.563 E18.08747
G1 X81.792 Y190.219 E18.1541
G1 X80.432 Y189.87 E18.21539
G1 X79.169 Y189.519 E18.27261
G1 X77.663 Y189.065 E18.34128
G1 X76.184 Y188.58 E18.40923
G1 X75.07 Y188.19 E18.46075
G1 X73.719 Y187.686 E18.5237
G1 X72.445 Y187.18 E18.58354
G1 X70.925 Y186.535 E18.65562
G1 X69.359 Y185.822 E18.73073
G1 X68.204 Y185.264 E18.78673
G1 X66.858 Y184.576 E18.85272
G1 X65.229 Y183.69 E18.93367
G1 X63.679 Y182.793 E19.01185
G1 X62.485 Y182.068 E19.07283
G1 X61.58 Y181.497 E19.11954
G1 X60.48 Y180.778 E19.17691
G1 X59.238 Y179.936 E19.24241
G1 X57.545 Y178.734 E19.33305
G1 X55.613 Y177.291 E19.43832
G1 X54.302 Y176.27 E19.51085
G1 X53.008 Y175.23 E19.58333
G1 X51.703 Y174.151 E19.65724
G1 X50.314 Y172.969 E19.73686
G1 X48.945 Y171.773 E19.81622
G1 X47.425 Y170.409 E19.90537
G1 X46.016 Y169.114 E19.98891
G1 X44.489 Y167.68 E20.08036
G1 X43.11 Y166.359 E20.16372
G1 X42.005 Y165.283 E20.23105
G1 X41.518 Y164.796 E20.26112
G1 X40.944 Y164.069 E20.30155
G1 X40.597 Y163.393 E20.33472
G1 X40.341 Y162.555 E20.37297
G1 X40.247 Y162.054 E20.39523
G1 X40.227 Y161.404 E20.42361
G1 X40.316 Y160.549 E20.46114
G1 X40.599 Y159.657 E20.50199
G1 X40.979 Y158.956 E20.5368
G1 X41.53 Y158.209 E20.57732
G1 X42.676 Y156.97 E20.651
G1 X43.311 Y156.253 E20.69281
G1 X43.419 Y156.149 E20.69935
G1 X44.176 Y155.307 E20.74878
G1 X44.661 Y154.805 E20.77925
G1 X45.073 Y154.404 E20.80435
G1 X47.021 Y152.457 E20.92458
G1 X48.284 Y151.143 E21.00414
G1 X48.666 Y150.803 E21.02647
G1 X49.095 Y150.528 E21.04871
G1 X49.563 Y150.323 E21.07102
G1 F2700 E20.57102
G0 F3600 X50.728 Y153.723
G1 F2700 E21.07102
G1 F3600 X50.862 Y153.782 E21.07741
G1 X50.825 Y153.93 E21.08407
G1 X50.82 Y154.036 E21.0887
G1 X50.924 Y154.679 E21.11713
G1 X50.985 Y155.051 E21.13359
G1 X51.003 Y155.113 E21.13641
G1 X51.009 Y155.127 E21.13707
G1 X51.059 Y155.245 E21.14267
G1 X50.126 Y156.163 E21.19981
G1 X48.313 Y157.977 E21.31177
G1 X48.173 Y157.907 E21.3186
G1 X47.916 Y157.778 E21.33115
G1 X47.902 Y157.771 E21.33183
G1 X47.895 Y157.768 E21.33217
G1 X47.859 Y157.756 E21.33382
G1 X47.42 Y157.639 E21.35366
G1 X47.389 Y157.633 E21.35504
G1 X47.037 Y157.583 E21.37056
G1 X47.011 Y157.465 E21.37583
G1 X47.325 Y157.26 E21.3922
G1 X47.368 Y157.226 E21.39459
G1 X50.415 Y154.185 E21.58252
G1 X50.448 Y154.145 E21.58478
G1 X50.728 Y153.723 E21.60689
G1 F2700 E21.10689
G0 F3600 X50.43 Y154.912
G1 F2700 E21.60689
G1 F3600 X50.46 Y155.096 E21.61503
G1 X49.757 Y155.788 E21.65809
G1 X49.753 Y155.793 E21.65837
G1 X48.21 Y157.338 E21.75369
G1 X48.152 Y157.309 E21.75652
G1 X48.108 Y157.289 E21.75863
G1 X48.101 Y157.286 E21.75896
G1 X48.064 Y157.273 E21.76068
G1 X50.43 Y154.912 E21.90659
G1 F2700 E21.40659
G0 F3600 X51.807 Y156.199
G1 F2700 E21.90659
G1 F3600 X51.906 Y156.269 E21.91188
G1 X52.066 Y156.383 E21.92046
G1 X52.119 Y156.413 E21.92312
G1 X52.255 Y156.468 E21.92952
G1 X52.96 Y156.756 E21.96276
G1 X53.105 Y156.829 E21.96985
G1 X53.102 Y156.939 E21.97466
G1 X52.756 Y157.097 E21.99126
G1 X52.705 Y157.127 E21.99384
G1 X52.295 Y157.442 E22.01641
G1 X52.269 Y157.465 E22.01793
G1 X51.629 Y158.108 E22.05753
G1 X51.595 Y158.149 E22.05986
G1 X51.312 Y158.579 E22.08233
G1 X51.269 Y158.716 E22.0886
G1 X51.282 Y158.77 E22.09102
G1 X50.98 Y159.078 E22.10985
G1 X50.942 Y159.127 E22.11256
G1 X50.626 Y159.655 E22.13942
G1 X50.604 Y159.704 E22.14177
G1 X50.391 Y160.318 E22.17014
G1 X49.942 Y159.883 E22.19743
G1 X49.648 Y159.517 E22.21792
G1 X49.483 Y159.28 E22.23053
G1 X49.26 Y158.961 E22.24752
G1 X49.182 Y158.849 E22.25348
G1 X51.807 Y156.199 E22.41631
G0 X51.877 Y156.875
G1 X51.923 Y156.9 E22.41859
G1 X52.059 Y156.955 E22.425
G1 X52.065 Y156.957 E22.42527
G1 X51.975 Y157.026 E22.43022
G1 X51.896 Y157.095 E22.4348
G1 X51.256 Y157.738 E22.47441
G1 X51.157 Y157.861 E22.4813
G1 X50.874 Y158.291 E22.50377
G1 X50.771 Y158.519 E22.51469
G1 X50.768 Y158.543 E22.51575
G1 X50.605 Y158.71 E22.52593
G1 X50.492 Y158.857 E22.53403
G1 X50.193 Y159.357 E22.55946
G1 X50.071 Y159.205 E22.56797
G1 X49.914 Y158.98 E22.57995
G1 X49.863 Y158.908 E22.5838
G1 X51.877 Y156.875 E22.70872
G1 F2700 E22.20872
G0 F3600 X54.414 Y157.187
G0 X55.121 Y157.124
G0 X156.279 Y48.356
G1 F2700 E22.70872
G1 F3600 X156.235 Y48.229 E22.71459
G1 X156.646 Y47.949 E22.7363
G1 X156.684 Y47.918 E22.73844
G1 X159.601 Y44.994 E22.91874
G1 X159.624 Y44.968 E22.92026
G1 X159.97 Y44.517 E22.94507
G1 X160.079 Y44.542 E22.94995
G1 X160.245 Y45.329 E22.98506
G1 X160.267 Y45.393 E22.98802
G1 X160.477 Y45.813 E23.00852
G1 X158.663 Y47.625 E23.12044
G1 X157.743 Y48.561 E23.17774
G1 X157.622 Y48.51 E23.18347
G1 X157.563 Y48.491 E23.18617
G1 X157.193 Y48.423 E23.2026
G1 X156.693 Y48.332 E23.22478
G1 X156.624 Y48.329 E23.2278
G1 X156.279 Y48.356 E23.2429
G1 F2700 E22.7429
G0 F3600 X157.414 Y47.93
G1 F2700 E23.2429
G1 F3600 X159.775 Y45.564 E23.38882
G1 X159.797 Y45.627 E23.39173
G1 X159.838 Y45.709 E23.39573
G1 X158.292 Y47.254 E23.49115
G1 X158.287 Y47.258 E23.49142
G1 X157.593 Y47.963 E23.53461
G1 X157.414 Y47.93 E23.54256
G1 F2700 E23.04256
G0 F3600 X158.699 Y49.307
G1 F2700 E23.54256
G1 F3600 X161.35 Y46.681 E23.70545
G1 X161.463 Y46.76 E23.71147
G1 X161.78 Y46.982 E23.72836
G1 X162.035 Y47.161 E23.74196
G1 X162.4 Y47.463 E23.76264
G1 X162.815 Y47.889 E23.78861
G1 X162.191 Y48.125 E23.81773
G1 X162.152 Y48.144 E23.81962
G1 X161.686 Y48.415 E23.84315
G1 X161.64 Y48.449 E23.84565
G1 X161.284 Y48.778 E23.86681
G1 X161.177 Y48.767 E23.87151
G1 X161.062 Y48.816 E23.87697
G1 X160.491 Y49.249 E23.90825
G1 X160.464 Y49.273 E23.90982
G1 X159.871 Y49.864 E23.94637
G1 X159.835 Y49.909 E23.94889
G1 X159.539 Y50.373 E23.97291
G1 X159.523 Y50.401 E23.97432
G1 X159.432 Y50.592 E23.98356
G1 X159.325 Y50.594 E23.98823
G1 X159.253 Y50.456 E23.99502
G1 X158.97 Y49.751 E24.02819
G1 X158.917 Y49.62 E24.03436
G1 X158.886 Y49.565 E24.03711
G1 X158.768 Y49.402 E24.0459
G1 X158.699 Y49.307 E24.05102
G0 X159.377 Y49.375
G1 X161.408 Y47.362 E24.17585
G1 X161.479 Y47.412 E24.17965
G1 X161.703 Y47.569 E24.19159
G1 X161.866 Y47.703 E24.2008
G1 X161.422 Y47.961 E24.22321
G1 X161.283 Y48.063 E24.23074
G1 X161.066 Y48.263 E24.24362
G1 X160.961 Y48.282 E24.24828
G1 X160.745 Y48.398 E24.25898
G1 X160.174 Y48.831 E24.29027
G1 X160.094 Y48.901 E24.29491
G1 X159.501 Y49.492 E24.33146
G1 X159.455 Y49.549 E24.33465
G1 X159.403 Y49.422 E24.34064
G1 X159.377 Y49.375 E24.34299
G1 F2700 E23.84299
;MESH:160mm+basket+handle.stl
G0 F3600 X173.43 Y59.786
G0 X176.087 Y58.045
;TYPE:WALL-OUTER
G1 F2700 E24.34299
G1 F1820.8 X175.646 Y57.444 E24.37516
G1 F1502.4 X175.204 Y56.843 E24.41418
G1 F1278.8 X174.512 Y55.976 E24.48234
G1 F1156.7 X174.112 Y55.468 E24.52627
G1 F2700 E24.02627
G0 F3600 X173.292 Y54.438
G0 X168.545 Y49.198
G0 X166.215 Y46.782
G0 X162.954 Y43.488
G0 X162.585 Y43.117
G0 X162.894 Y43.263
G1 F2700 E24.52627
G1 F1314.3 X162.999 Y43.11 E24.53736
G1 X163.172 Y43.009 E24.54934
G1 F1323.5 X163.398 Y43.01 E24.56275
G1 F1340.4 X164.996 Y44.648 E24.6969
G1 F1375.5 X166.381 Y46.112 E24.81202
G1 F1425.3 X167.618 Y47.448 E24.9124
G1 F1483.5 X168.898 Y48.866 E25.01358
G1 F1551.7 X170.161 Y50.296 E25.11019
G1 F1637.8 X171.284 Y51.599 E25.19272
G1 F1766.4 X172.378 Y52.928 E25.2693
G1 F1936.5 X173.404 Y54.209 E25.33589
G1 F2104.7 X174.024 Y55.011 E25.37374
G1 F1483.5 X174.112 Y55.468 E25.39839
G1 X173.685 Y55.279 E25.42312
G1 F2109.4 X173.088 Y54.553 E25.45814
G1 F1944.4 X172.023 Y53.299 E25.52462
G1 F1769.7 X170.897 Y52.003 E25.60085
G1 F1637.8 X169.717 Y50.692 E25.68548
G1 F1551.7 X168.471 Y49.321 E25.77929
G1 F1483.5 X167.171 Y47.923 E25.88041
G1 F1425.3 X165.895 Y46.579 E25.98257
G1 F1375.5 X164.494 Y45.136 E26.09746
G1 F1331 X162.883 Y43.513 E26.23247
G1 F1314.3 X162.894 Y43.263 E26.24743
G0 F3600 X162.886 Y43.463
G1 F2700 E25.74743
G0 F3600 X162.493 Y43.069
G0 X161.835 Y44.058
G0 X161.988 Y44.828
G0 X163.619 Y46.144
G0 X167.38 Y50.134
G0 X170.824 Y54.065
G0 X173.769 Y57.723
G0 X176.27 Y61.148
G0 X178.387 Y64.384
G0 X180.554 Y68.186
G0 X182.336 Y71.879
G0 X183.826 Y75.569
G0 X185.087 Y79.368
G0 X186.13 Y83.375
G0 X186.937 Y87.686
G0 X187.31 Y90.652
G0 X187.562 Y93.992
G0 X187.65 Y97.396
G0 X187.571 Y100.961
G0 X187.323 Y104.667
G0 X186.638 Y110.405
G0 X185.78 Y115.479
G0 X184.464 Y121.632
G0 X183.073 Y126.903
G0 X181.641 Y131.359
G0 X180.4 Y134.611
G0 X178.983 Y137.807
G0 X177.35 Y140.979
G0 X175.468 Y144.155
G0 X173.3 Y147.369
G0 X170.814 Y150.649
G0 X168.023 Y153.984
G0 X164.77 Y157.544
G0 X161.188 Y161.169
G0 X157.709 Y164.433
G0 X154.345 Y167.342
