;FLAVOR:Marlin
;TIME:1108
;Filament used: 0.990451m
;Layer height: 0.2
;MINX:25.868
;MINY:92.653
;MINZ:0.2
;MAXX:209.125
;MAXY:137.346
;MAXZ:2
;TARGET_MACHINE.NAME:ELEGOO NEPTUNE 4 Pro
;Generated with Cura_SteamEngine 5.7.2
M104 S255
M105
M109 S255
M82 ;absolute extrusion mode
;ELEGOO NEPTUNE 4 / 4 PRO
M220 S100 ;Set the feed speed to 100%
M221 S100 ;Set the flow rate to 100%
M104 S140 ;Start heating extruder
M190 S70 ;Wait for the bed to reach print temp
G90
G28 ;home
G1 Z10 F300
G1 X67.5 Y0 F6000
G1 Z0 F300
M109 S255.0 ;Wait for extruder to reach print temp
G92 E0 ;Reset Extruder
G1 X67.5 Y0 Z0.4 F300 ;Move to start position
G1 X167.5 E30 F400 ;Draw the first line
G1 Z0.6 F120.0 ;Move to side a little
G1 X162.5 F3000
G92 E0 ;Reset Extruder
G92 E0
G92 E0
G1 F2700 E-0.5
;LAYER_COUNT:10
;LAYER:0
M107
M204 S500
G0 F3600 X28.166 Y110.201 Z0.2
;TYPE:SKIRT
G1 F2700 E0
G1 F3600 X28.664 Y110.087 E0.0223
G1 X29.15 Y110.044 E0.0436
G1 X124.781 Y110.043 E4.21827
G1 X127.577 Y110.003 E4.34034
G1 X130.287 Y109.888 E4.45875
G1 X133.034 Y109.694 E4.57896
G1 X135.734 Y109.426 E4.69741
G1 X138.492 Y109.073 E4.81879
G1 X141.15 Y108.655 E4.93625
G1 X143.854 Y108.153 E5.0563
G1 X146.541 Y107.575 E5.17628
G1 X149.16 Y106.933 E5.294
G1 X151.821 Y106.201 E5.41448
G1 X154.431 Y105.402 E5.53363
G1 X157.054 Y104.517 E5.65448
G1 X159.598 Y103.578 E5.77286
G1 X162.129 Y102.562 E5.89192
G1 X164.634 Y101.472 E6.01117
G1 X167.16 Y100.288 E6.13295
G1 X169.572 Y99.073 E6.25085
G1 X171.965 Y97.78 E6.36959
G1 X174.604 Y96.254 E6.50267
G1 X175.653 Y95.626 E6.55604
G1 X176.574 Y95.177 E6.60077
G1 X178.248 Y94.397 E6.68139
G1 X179.11 Y94.008 E6.72267
G1 X180.207 Y93.697 E6.77245
G1 X181.963 Y93.227 E6.8518
G1 X182.875 Y92.995 E6.89288
G1 X183.96 Y92.883 E6.9405
G1 X185.841 Y92.718 E7.02293
G1 X186.748 Y92.653 E7.06262
G1 X187.909 Y92.735 E7.11343
G1 X189.735 Y92.895 E7.19345
G1 X190.625 Y92.985 E7.2325
G1 X191.777 Y93.275 E7.28436
G1 X194.134 Y93.916 E7.39099
G1 X194.613 Y94.088 E7.4132
G1 X195.454 Y94.465 E7.45344
G1 X197.033 Y95.201 E7.52949
G1 X197.931 Y95.636 E7.57304
G1 X198.856 Y96.261 E7.62178
G1 X200.341 Y97.301 E7.70092
G1 X201.129 Y97.87 E7.74335
G1 X201.93 Y98.646 E7.79204
G1 X203.258 Y99.975 E7.87405
G1 X203.873 Y100.607 E7.91255
G1 X204.54 Y101.527 E7.96215
G1 X205.585 Y103.02 E8.04171
G1 X206.117 Y103.805 E8.0831
G1 X206.616 Y104.83 E8.13287
G1 X207.382 Y106.472 E8.21197
G1 X207.769 Y107.334 E8.25321
G1 X208.079 Y108.424 E8.30268
G1 X208.565 Y110.24 E8.38475
G1 X208.78 Y111.087 E8.4229
G1 X208.892 Y112.171 E8.47047
G1 X209.051 Y113.977 E8.54961
G1 X209.125 Y114.964 E8.59282
G1 X209.042 Y116.132 E8.64394
G1 X208.88 Y117.967 E8.72435
G1 X208.788 Y118.863 E8.76367
G1 X208.522 Y119.92 E8.81125
G1 X207.866 Y122.343 E8.92084
G1 X207.694 Y122.823 E8.94309
G1 X207.315 Y123.669 E8.98356
G1 X206.536 Y125.34 E9.06404
G1 X206.145 Y126.149 E9.10327
G1 X205.488 Y127.118 E9.15438
G1 X204.476 Y128.563 E9.23139
G1 X203.907 Y129.351 E9.27382
G1 X203.131 Y130.152 E9.3225
G1 X201.802 Y131.48 E9.40452
G1 X201.17 Y132.095 E9.44301
G1 X200.25 Y132.762 E9.49262
G1 X198.757 Y133.807 E9.57218
G1 X197.972 Y134.339 E9.61357
G1 X196.946 Y134.839 E9.6634
G1 X195.33 Y135.591 E9.7412
G1 X194.432 Y135.994 E9.78417
G1 X193.368 Y136.297 E9.83247
G1 X191.598 Y136.771 E9.91246
G1 X190.693 Y137 E9.95321
G1 X189.529 Y137.122 E10.0043
G1 X187.809 Y137.273 E10.07967
G1 X186.796 Y137.346 E10.12401
G1 X185.697 Y137.268 E10.17211
G1 X183.819 Y137.103 E10.2544
G1 X182.925 Y137.012 E10.29363
G1 X181.808 Y136.731 E10.34391
G1 X180.058 Y136.262 E10.423
G1 X179.164 Y136.01 E10.46355
G1 X178.12 Y135.542 E10.5135
G1 X176.451 Y134.763 E10.5939
G1 X175.744 Y134.42 E10.6282
G1 X174.611 Y133.832 E10.68393
G1 X172.106 Y132.576 E10.80626
G1 X169.653 Y131.431 E10.92443
G1 X167.142 Y130.345 E11.04386
G1 X164.538 Y129.306 E11.16625
G1 X162.04 Y128.389 E11.28241
G1 X159.436 Y127.517 E11.40229
G1 X156.814 Y126.719 E11.52193
G1 X154.157 Y125.994 E11.64216
G1 X151.507 Y125.349 E11.76122
G1 X148.833 Y124.779 E11.88058
G1 X146.162 Y124.287 E11.99914
G1 X143.416 Y123.862 E12.12044
G1 X140.755 Y123.526 E12.23752
G1 X137.984 Y123.256 E12.35906
G1 X135.305 Y123.072 E12.47629
G1 X132.182 Y122.95 E12.61272
G1 X130.677 Y122.915 E12.67844
G1 X128.155 Y122.82 E12.78861
G1 X125.407 Y122.794 E12.90858
G1 X122.691 Y122.846 E13.02716
G1 X121.906 Y122.883 E13.06147
G1 X120.741 Y122.922 E13.11236
G1 X117.978 Y122.82 E13.23305
G1 X115.227 Y122.794 E13.35315
G1 X112.51 Y122.846 E13.47178
G1 X111.725 Y122.883 E13.50609
G1 X110.562 Y122.922 E13.55688
G1 X107.798 Y122.82 E13.67763
G1 X105.047 Y122.794 E13.79772
G1 X102.313 Y122.846 E13.91709
G1 X100.387 Y122.922 E14.00124
G1 X97.617 Y122.82 E14.12224
G1 X94.866 Y122.794 E14.24234
G1 X92.149 Y122.846 E14.36097
G1 X91.364 Y122.883 E14.39527
G1 X90.201 Y122.922 E14.44607
G1 X87.437 Y122.82 E14.56681
G1 X84.686 Y122.794 E14.68691
G1 X81.969 Y122.846 E14.80554
G1 X81.184 Y122.883 E14.83985
G1 X80.021 Y122.922 E14.89064
G1 X77.257 Y122.82 E15.01139
G1 X74.506 Y122.794 E15.13148
G1 X71.772 Y122.846 E15.25086
G1 X69.846 Y122.922 E15.335
G1 X67.076 Y122.82 E15.456
G1 X64.325 Y122.794 E15.5761
G1 X61.608 Y122.846 E15.69473
G1 X60.823 Y122.883 E15.72903
G1 X59.66 Y122.922 E15.77983
G1 X56.896 Y122.82 E15.90057
G1 X54.145 Y122.794 E16.02067
G1 X51.428 Y122.846 E16.1393
G1 X50.643 Y122.883 E16.17361
G1 X49.48 Y122.922 E16.22441
G1 X46.716 Y122.82 E16.34515
G1 X43.965 Y122.794 E16.46524
G1 X41.234 Y122.846 E16.58448
G1 X39.471 Y122.916 E16.66151
G1 X38.961 Y122.897 E16.68379
G1 X38.431 Y122.789 E16.7074
G1 X37.379 Y122.482 E16.75524
G1 X28.782 Y119.794 E17.14845
G1 X28.125 Y119.579 E17.17862
G1 X27.654 Y119.383 E17.20089
G1 X27.219 Y119.116 E17.22318
G1 X26.832 Y118.784 E17.24543
G1 X26.5 Y118.395 E17.26776
G1 X26.234 Y117.96 E17.29002
G1 X26.038 Y117.489 E17.31229
G1 X25.883 Y116.843 E17.34129
G1 X25.868 Y115.951 E17.38023
G1 X25.868 Y113.956 E17.46732
G1 X25.878 Y113.267 E17.4974
G1 X25.926 Y112.758 E17.51972
G1 X26.052 Y112.264 E17.54198
G1 X26.253 Y111.795 E17.56425
G1 X26.526 Y111.363 E17.58656
G1 X26.862 Y110.979 E17.60884
G1 X27.254 Y110.652 E17.63112
G1 X27.692 Y110.391 E17.65338
G1 X28.166 Y110.201 E17.67567
G1 F2700 E17.17567
;MESH:unclog.STL
G0 F3600 X29.554 Y112.64
G0 X29.554 Y113.729
G0 X30.01 Y114.185
G0 X29.915 Y114.091
;TYPE:WALL-INNER
G1 F2700 E17.67567
G1 X29.915 Y115.905 E17.75486
G1 X37.481 Y118.272 E18.10093
G1 X36.717 Y117.081 E18.1627
G1 X36.593 Y116.677 E18.18115
G1 X36.646 Y116.371 E18.19471
G1 X36.777 Y116.112 E18.20738
G1 X37.039 Y115.826 E18.22431
G1 X37.364 Y115.697 E18.23957
G1 X39.308 Y115.697 E18.32444
G1 X39.544 Y115.732 E18.33485
G1 X47.661 Y118.272 E18.70613
G1 X46.897 Y117.081 E18.7679
G1 X46.773 Y116.677 E18.78635
G1 X46.826 Y116.371 E18.79991
G1 X46.968 Y116.1 E18.81326
G1 X47.231 Y115.821 E18.83
G1 X47.548 Y115.697 E18.84486
G1 X49.488 Y115.697 E18.92955
G1 X49.724 Y115.732 E18.93996
G1 X57.841 Y118.272 E19.31125
G1 X57.077 Y117.081 E19.37302
G1 X56.953 Y116.677 E19.39146
G1 X57.006 Y116.371 E19.40502
G1 X57.148 Y116.1 E19.41838
G1 X57.411 Y115.821 E19.43511
G1 X57.728 Y115.697 E19.44997
G1 X59.668 Y115.697 E19.53466
G1 X59.904 Y115.732 E19.54508
G1 X68.021 Y118.272 E19.91636
G1 X67.257 Y117.081 E19.97813
G1 X67.133 Y116.677 E19.99658
G1 X67.186 Y116.371 E20.01013
G1 X67.328 Y116.1 E20.02349
G1 X67.591 Y115.821 E20.04023
G1 X67.908 Y115.697 E20.05509
G1 X69.848 Y115.697 E20.13978
G1 X70.084 Y115.732 E20.15019
G1 X78.201 Y118.272 E20.52147
G1 X77.437 Y117.081 E20.58324
G1 X77.313 Y116.677 E20.60169
G1 X77.366 Y116.371 E20.61525
G1 X77.508 Y116.1 E20.6286
G1 X77.771 Y115.821 E20.64534
G1 X78.088 Y115.697 E20.6602
G1 X80.032 Y115.697 E20.74506
G1 X80.268 Y115.732 E20.75548
G1 X88.381 Y118.272 E21.1266
G1 X87.617 Y117.081 E21.18837
G1 X87.493 Y116.676 E21.20686
G1 X87.546 Y116.371 E21.22037
G1 X87.688 Y116.1 E21.23373
G1 X87.951 Y115.821 E21.25046
G1 X88.268 Y115.697 E21.26532
G1 X90.212 Y115.697 E21.35019
G1 X90.448 Y115.732 E21.3606
G1 X98.561 Y118.272 E21.73172
G1 X97.797 Y117.081 E21.79349
G1 X97.673 Y116.676 E21.81198
G1 X97.726 Y116.371 E21.82549
G1 X97.868 Y116.1 E21.83885
G1 X98.131 Y115.821 E21.85558
G1 X98.448 Y115.697 E21.87044
G1 X100.392 Y115.697 E21.95531
G1 X100.628 Y115.732 E21.96572
G1 X108.744 Y118.272 E22.33696
G1 X107.981 Y117.081 E22.39871
G1 X107.857 Y116.677 E22.41716
G1 X107.91 Y116.371 E22.43071
G1 X108.041 Y116.112 E22.44338
G1 X108.303 Y115.826 E22.46032
G1 X108.628 Y115.697 E22.47558
G1 X110.572 Y115.697 E22.56044
G1 X110.808 Y115.732 E22.57086
G1 X118.924 Y118.272 E22.9421
G1 X118.161 Y117.081 E23.00384
G1 X118.037 Y116.677 E23.02229
G1 X118.09 Y116.371 E23.03585
G1 X118.221 Y116.112 E23.04852
G1 X118.483 Y115.826 E23.06545
G1 X118.808 Y115.697 E23.08072
G1 X120.752 Y115.697 E23.16558
G1 X120.988 Y115.732 E23.17599
G1 X129.104 Y118.272 E23.54724
G1 X128.341 Y117.081 E23.60898
G1 X128.217 Y116.677 E23.62743
G1 X128.27 Y116.371 E23.64099
G1 X128.401 Y116.112 E23.65366
G1 X128.663 Y115.826 E23.67059
G1 X128.988 Y115.697 E23.68585
G1 X130.932 Y115.697 E23.77072
G1 X131.168 Y115.732 E23.78113
G1 X139.285 Y118.272 E24.15241
G1 X138.521 Y117.081 E24.21418
G1 X138.397 Y116.677 E24.23263
G1 X138.45 Y116.371 E24.24619
G1 X138.581 Y116.112 E24.25886
G1 X138.843 Y115.826 E24.27579
G1 X139.168 Y115.697 E24.29105
G1 X141.112 Y115.697 E24.37592
G1 X141.348 Y115.732 E24.38633
G1 X149.465 Y118.272 E24.75762
G1 X148.701 Y117.081 E24.81939
G1 X148.577 Y116.677 E24.83783
G1 X148.63 Y116.371 E24.85139
G1 X148.761 Y116.112 E24.86406
G1 X149.023 Y115.826 E24.88099
G1 X149.348 Y115.697 E24.89626
G1 X162.602 Y115.697 E25.47485
G1 X163.654 Y115.782 E25.52092
G1 X164.736 Y116.035 E25.56943
G1 X165.811 Y116.474 E25.62012
G1 X166.778 Y117.065 E25.66959
G1 X167.613 Y117.78 E25.71758
G1 X168.352 Y118.644 E25.76721
G1 X168.94 Y119.605 E25.81639
G1 X169.364 Y120.639 E25.86518
G1 X169.563 Y121.216 E25.89182
G1 X170.933 Y124.152 E26.03326
G1 X172.758 Y126.756 E26.17207
G1 X175.016 Y129.018 E26.31159
G1 X177.623 Y130.839 E26.45041
G1 X180.527 Y132.193 E26.59029
G1 X183.598 Y133.017 E26.72909
G1 X186.776 Y133.298 E26.86836
G1 X189.954 Y133.017 E27.00764
G1 X193.025 Y132.193 E27.14644
G1 X195.929 Y130.839 E27.28631
G1 X198.536 Y129.018 E27.42513
G1 X200.794 Y126.756 E27.56466
G1 X202.619 Y124.152 E27.70347
G1 X203.973 Y121.246 E27.84342
G1 X204.793 Y118.174 E27.98222
G1 X205.073 Y115 E28.12132
G1 X204.794 Y111.822 E28.26058
G1 X203.973 Y108.75 E28.39939
G1 X202.619 Y105.844 E28.53935
G1 X200.794 Y103.24 E28.67816
G1 X198.536 Y100.978 E28.81768
G1 X195.929 Y99.157 E28.9565
G1 X193.025 Y97.803 E29.09638
G1 X189.954 Y96.979 E29.23518
G1 X186.776 Y96.699 E29.37445
G1 X183.598 Y96.979 E29.51372
G1 X180.527 Y97.803 E29.65252
G1 X177.623 Y99.157 E29.7924
G1 X175.016 Y100.978 E29.93122
G1 X172.758 Y103.24 E30.07074
G1 X170.933 Y105.844 E30.20955
G1 X169.563 Y108.78 E30.35099
G1 X169.413 Y109.217 E30.37116
G1 X168.999 Y110.2 E30.41772
G1 X168.394 Y111.18 E30.468
G1 X167.666 Y112.024 E30.51665
G1 X166.812 Y112.744 E30.56541
G1 X165.862 Y113.326 E30.61405
G1 X164.869 Y113.732 E30.66088
G1 X163.778 Y113.996 E30.70988
G1 X162.666 Y114.091 E30.7586
G1 X29.915 Y114.091 E36.5537
G1 F2700 E36.0537
G0 F3600 X30.01 Y114.185
G0 X162.611 Y115.457
G0 X173.036 Y114.988
G0 X173.258 Y114.988
G1 F2700 E36.5537
G1 X173.466 Y112.648 E36.65626
G1 X174.076 Y110.368 E36.75929
G1 X175.074 Y108.237 E36.86201
G1 X176.42 Y106.314 E36.96448
G1 X178.09 Y104.644 E37.06758
G1 X180.014 Y103.297 E37.17011
G1 X182.156 Y102.299 E37.27326
G1 X184.427 Y101.692 E37.37588
G1 X186.776 Y101.484 E37.47883
G1 X189.125 Y101.692 E37.58177
G1 X191.399 Y102.299 E37.68451
G1 X193.538 Y103.297 E37.78755
G1 X195.462 Y104.644 E37.89008
G1 X197.128 Y106.314 E37.99306
G1 X198.481 Y108.236 E38.09566
G1 X199.477 Y110.377 E38.19875
G1 X200.086 Y112.648 E38.30139
G1 X200.288 Y115 E38.40444
G1 X200.084 Y117.345 E38.50719
G1 X199.477 Y119.619 E38.60994
G1 X198.478 Y121.759 E38.71304
G1 X197.128 Y123.682 E38.8156
G1 X195.462 Y125.352 E38.91858
G1 X193.538 Y126.699 E39.02111
G1 X191.399 Y127.697 E39.12415
G1 X189.125 Y128.304 E39.22689
G1 X186.77 Y128.515 E39.33011
G1 X184.427 Y128.304 E39.4328
G1 X182.156 Y127.697 E39.53542
G1 X180.019 Y126.702 E39.63833
G1 X178.09 Y125.352 E39.74111
G1 X176.424 Y123.682 E39.84408
G1 X175.074 Y121.759 E39.94665
G1 X174.075 Y119.627 E40.04943
G1 X173.466 Y117.348 E40.15241
G1 X173.258 Y114.988 E40.25583
G0 F3600 X173.786 Y114.976
;TYPE:WALL-OUTER
G1 F1800 X173.99 Y112.72 E40.35472
G1 X174.566 Y110.564 E40.45214
G1 X175.541 Y108.481 E40.55254
G1 X176.842 Y106.634 E40.65116
G1 X178.427 Y105.047 E40.74907
G1 X180.28 Y103.753 E40.84773
G1 X182.356 Y102.786 E40.94771
G1 X184.518 Y102.209 E41.04539
G1 X186.776 Y102.009 E41.14435
G1 X189.012 Y102.206 E41.24234
G1 X191.244 Y102.802 E41.34319
G1 X193.252 Y103.742 E41.43997
G1 X195.125 Y105.047 E41.53963
G1 X196.725 Y106.651 E41.63853
G1 X198.011 Y108.481 E41.73617
G1 X198.99 Y110.576 E41.83711
G1 X199.562 Y112.72 E41.93398
G1 X199.763 Y115 E42.0339
G1 X199.567 Y117.254 E42.13267
G1 X198.99 Y119.42 E42.23052
G1 X198.011 Y121.515 E42.33147
G1 X196.71 Y123.362 E42.43009
G1 X195.125 Y124.949 E42.528
G1 X193.272 Y126.243 E42.62667
G1 X191.2 Y127.21 E42.72648
G1 X189.034 Y127.787 E42.82433
G1 X186.752 Y127.986 E42.92433
G1 X184.54 Y127.79 E43.02127
G1 X182.356 Y127.21 E43.11992
G1 X180.28 Y126.243 E43.21989
G1 X178.41 Y124.934 E43.31954
G1 X176.842 Y123.362 E43.41646
G1 X175.541 Y121.515 E43.51508
G1 X174.562 Y119.42 E43.61603
G1 X173.99 Y117.276 E43.7129
G1 X173.786 Y114.976 E43.8137
G0 F3600 X173.804 Y114.777
G1 F2700 E43.3137
G0 F3600 X173.163 Y114.721
G0 X162.611 Y115.457
G0 X30.01 Y114.185
G0 X29.39 Y113.566
G1 F2700 E43.8137
G1 F1800 X29.39 Y116.291 E43.93266
G1 X38.701 Y119.203 E44.35853
G1 X37.159 Y116.798 E44.48325
G1 X37.118 Y116.663 E44.48941
G1 X37.135 Y116.561 E44.49392
G1 X37.328 Y116.265 E44.50934
G1 X37.426 Y116.225 E44.51397
G1 X39.352 Y116.222 E44.59804
G1 X48.881 Y119.203 E45.0339
G1 X47.339 Y116.798 E45.15862
G1 X47.298 Y116.663 E45.16477
G1 X47.315 Y116.561 E45.16929
G1 X47.514 Y116.263 E45.18493
G1 X47.61 Y116.225 E45.18944
G1 X49.532 Y116.222 E45.27334
G1 X59.061 Y119.203 E45.7092
G1 X57.519 Y116.798 E45.83391
G1 X57.478 Y116.663 E45.84007
G1 X57.495 Y116.561 E45.84459
G1 X57.694 Y116.263 E45.86023
G1 X57.79 Y116.225 E45.86474
G1 X59.712 Y116.222 E45.94864
G1 X69.241 Y119.203 E46.3845
G1 X67.699 Y116.798 E46.50921
G1 X67.658 Y116.663 E46.51537
G1 X67.675 Y116.561 E46.51989
G1 X67.874 Y116.263 E46.53553
G1 X67.97 Y116.225 E46.54004
G1 X69.892 Y116.222 E46.62394
G1 X79.421 Y119.203 E47.0598
G1 X77.879 Y116.798 E47.18451
G1 X77.838 Y116.663 E47.19067
G1 X77.855 Y116.561 E47.19518
G1 X78.054 Y116.263 E47.21083
G1 X78.15 Y116.225 E47.21533
G1 X80.076 Y116.222 E47.29941
G1 X89.601 Y119.203 E47.7351
G1 X88.059 Y116.798 E47.85982
G1 X88.018 Y116.663 E47.86598
G1 X88.035 Y116.561 E47.87049
G1 X88.234 Y116.263 E47.88613
G1 X88.33 Y116.225 E47.89064
G1 X90.256 Y116.222 E47.97472
G1 X99.781 Y119.203 E48.41041
G1 X98.239 Y116.798 E48.53512
G1 X98.198 Y116.663 E48.54128
G1 X98.215 Y116.561 E48.5458
G1 X98.414 Y116.263 E48.56144
G1 X98.51 Y116.225 E48.56595
G1 X100.436 Y116.222 E48.65002
G1 X109.964 Y119.203 E49.08584
G1 X108.423 Y116.798 E49.21053
G1 X108.382 Y116.663 E49.21669
G1 X108.399 Y116.561 E49.22121
G1 X108.592 Y116.265 E49.23663
G1 X108.69 Y116.225 E49.24125
G1 X110.616 Y116.222 E49.32533
G1 X120.144 Y119.203 E49.76115
G1 X118.603 Y116.798 E49.88584
G1 X118.562 Y116.663 E49.892
G1 X118.579 Y116.561 E49.89651
G1 X118.772 Y116.265 E49.91194
G1 X118.87 Y116.225 E49.91656
G1 X120.796 Y116.222 E50.00063
G1 X130.324 Y119.203 E50.43645
G1 X128.783 Y116.798 E50.56114
G1 X128.742 Y116.663 E50.5673
G1 X128.759 Y116.561 E50.57181
G1 X128.952 Y116.265 E50.58724
G1 X129.05 Y116.225 E50.59186
G1 X130.976 Y116.222 E50.67594
G1 X140.505 Y119.203 E51.1118
G1 X138.963 Y116.798 E51.23651
G1 X138.922 Y116.663 E51.24267
G1 X138.939 Y116.561 E51.24718
G1 X139.132 Y116.265 E51.26261
G1 X139.23 Y116.225 E51.26723
