;FLAVOR:Marlin
;TIME:3872
;Filament used: 4.1488m
;Layer height: 0.2
;MINX:41.206
;MINY:38.7
;MINZ:0.2
;MAXX:192.491
;MAXY:189.991
;MAXZ:8
;TARGET_MACHINE.NAME:ELEGOO NEPTUNE 4 Pro
;Generated with Cura_SteamEngine 5.7.2
M104 S220
M105
M109 S220
M82 ;absolute extrusion mode
;ELEGOO NEPTUNE 4 / 4 PRO
M220 S100 ;Set the feed speed to 100%
M221 S100 ;Set the flow rate to 100%
M104 S140 ;Start heating extruder
M190 S60 ;Wait for the bed to reach print temp
G90
G28 ;home
G1 Z10 F300
G1 X67.5 Y0 F6000
G1 Z0 F300
M109 S220.0 ;Wait for extruder to reach print temp
G92 E0 ;Reset Extruder
G1 X67.5 Y0 Z0.4 F300 ;Move to start position
G1 X167.5 E30 F400 ;Draw the first line
G1 Z0.6 F120.0 ;Move to side a little
G1 X162.5 F3000
G92 E0 ;Reset Extruder
G92 E0
G92 E0
G1 F2700 E-0.5
;LAYER_COUNT:40
;LAYER:0
M107
M204 S500
G0 F3600 X44.766 Y156.281 Z0.2
;TYPE:SKIRT
G1 F2700 E0
G1 F3600 X45.568 Y156.131 E0.03562
G1 X46.076 Y156.076 E0.05792
G1 X46.688 Y156.117 E0.0847
G1 X48.158 Y156.354 E0.1497
G1 X50.904 Y156.748 E0.2708
G1 X53.642 Y157.063 E0.39111
G1 X56.34 Y157.296 E0.50933
G1 X59.09 Y157.455 E0.62958
G1 X61.837 Y157.536 E0.74955
G1 X64.551 Y157.54 E0.86803
G1 X67.302 Y157.465 E0.98816
G1 X70.012 Y157.315 E1.10665
G1 X72.751 Y157.086 E1.22663
G1 X75.483 Y156.779 E1.34664
G1 X78.175 Y156.399 E1.46532
G1 X80.899 Y155.936 E1.58594
G1 X83.509 Y155.417 E1.70211
G1 X86.237 Y154.792 E1.82428
G1 X88.872 Y154.109 E1.94311
G1 X91.502 Y153.349 E2.06262
G1 X94.134 Y152.506 E2.18327
G1 X96.686 Y151.608 E2.30137
G1 X99.214 Y150.64 E2.41954
G1 X101.789 Y149.566 E2.54133
G1 X104.258 Y148.455 E2.65952
G1 X106.139 Y147.544 E2.75076
G1 X106.614 Y147.358 E2.77303
G1 X107.113 Y147.249 E2.79533
G1 X107.622 Y147.219 E2.81759
G1 X108.13 Y147.268 E2.83986
G1 X108.624 Y147.397 E2.86215
G1 X109.092 Y147.6 E2.88442
G1 X109.523 Y147.875 E2.90674
G1 X109.905 Y148.213 E2.92901
G1 X110.23 Y148.606 E2.95127
G1 X110.49 Y149.046 E2.97358
G1 X110.678 Y149.521 E2.99588
G1 X110.789 Y150.019 E3.01815
G1 X110.822 Y150.528 E3.04042
G1 X110.774 Y151.036 E3.0627
G1 X110.648 Y151.531 E3.08499
G1 X109.127 Y154.784 E3.24176
G1 X108.021 Y157.318 E3.36245
G1 X106.996 Y159.865 E3.4823
G1 X106.046 Y162.427 E3.60159
G1 X105.167 Y165.026 E3.72136
G1 X104.371 Y167.618 E3.83972
G1 X103.633 Y170.284 E3.96048
G1 X102.985 Y172.915 E4.07877
G1 X102.399 Y175.624 E4.19976
G1 X101.903 Y178.269 E4.31724
G1 X101.473 Y180.993 E4.43762
G1 X101.122 Y183.709 E4.55717
G1 X100.811 Y186.879 E4.69622
G1 X100.722 Y187.382 E4.71852
G1 X100.555 Y187.864 E4.74079
G1 X100.315 Y188.315 E4.76309
G1 X100.008 Y188.723 E4.78538
G1 X99.641 Y189.077 E4.80764
G1 X99.223 Y189.37 E4.82992
G1 X98.764 Y189.594 E4.85222
G1 X98.18 Y189.773 E4.87888
G1 X97.09 Y189.898 E4.92678
G1 X96.276 Y189.964 E4.96243
G1 X95.185 Y189.991 E5.01007
G1 X93.906 Y189.988 E5.0659
G1 X91.698 Y189.908 E5.16235
G1 X90.122 Y189.795 E5.23133
G1 X88.409 Y189.624 E5.30648
G1 X86.937 Y189.436 E5.37126
G1 X85.562 Y189.225 E5.43199
G1 X84.183 Y188.982 E5.49311
G1 X82.577 Y188.659 E5.56463
G1 X81.022 Y188.3 E5.63429
G1 X79.506 Y187.907 E5.70266
G1 X78.037 Y187.487 E5.76936
G1 X76.713 Y187.076 E5.82988
G1 X75.342 Y186.619 E5.89296
G1 X74.006 Y186.14 E5.95492
G1 X72.824 Y185.689 E6.01015
G1 X71.414 Y185.115 E6.0766
G1 X69.996 Y184.495 E6.14416
G1 X68.7 Y183.891 E6.20658
G1 X67.342 Y183.22 E6.27271
G1 X65.976 Y182.503 E6.34005
G1 X64.558 Y181.711 E6.41095
G1 X63.282 Y180.958 E6.47563
G1 X62.052 Y180.197 E6.53877
G1 X61.021 Y179.532 E6.59233
G1 X59.96 Y178.822 E6.64806
G1 X58.783 Y178.006 E6.71058
G1 X57.006 Y176.719 E6.80636
G1 X56.219 Y176.128 E6.84933
G1 X55.008 Y175.194 E6.91609
G1 X53.735 Y174.183 E6.98705
G1 X52.401 Y173.089 E7.06237
G1 X51.039 Y171.939 E7.14018
G1 X49.677 Y170.76 E7.21882
G1 X48.284 Y169.522 E7.30018
G1 X47.215 Y168.552 E7.36319
G1 X45.261 Y166.733 E7.47973
G1 X42.86 Y164.438 E7.62472
G1 X42.387 Y163.974 E7.65365
G1 X42.051 Y163.589 E7.67595
G1 X41.683 Y162.983 E7.7069
G1 X41.472 Y162.519 E7.72916
G1 X41.274 Y161.748 E7.76391
G1 X41.206 Y161.242 E7.78619
G1 X41.229 Y160.476 E7.81965
G1 X41.371 Y159.752 E7.85185
G1 X41.583 Y159.166 E7.87906
G1 X41.899 Y158.557 E7.90901
G1 X42.327 Y157.947 E7.94154
G1 X42.749 Y157.455 E7.96983
G1 X43.415 Y156.947 E8.0064
G1 X44.081 Y156.541 E8.04045
G1 X44.766 Y156.281 E8.07243
G1 F2700 E7.57243
G0 F3600 X150.053 Y106.504
G1 F2700 E8.07243
G1 F3600 X149.864 Y106.03 E8.09471
G1 X149.752 Y105.532 E8.11699
G1 X149.719 Y105.022 E8.1393
G1 X149.766 Y104.514 E8.16157
G1 X149.892 Y104.019 E8.18387
G1 X150.208 Y103.322 E8.21728
G1 X151.378 Y100.843 E8.33695
G1 X152.475 Y98.333 E8.45652
G1 X153.518 Y95.751 E8.57809
G1 X154.456 Y93.226 E8.69567
G1 X155.339 Y90.626 E8.81554
G1 X156.145 Y88.016 E8.93479
G1 X156.878 Y85.377 E9.05435
G1 X157.536 Y82.72 E9.17384
G1 X158.118 Y80.048 E9.29322
G1 X158.621 Y77.372 E9.41209
G1 X159.052 Y74.66 E9.53196
G1 X159.409 Y71.926 E9.65232
G1 X159.683 Y69.225 E9.77084
G1 X159.881 Y66.517 E9.88937
G1 X160.004 Y63.772 E10.00932
G1 X160.049 Y61.021 E10.12943
G1 X160.016 Y58.27 E10.24953
G1 X159.908 Y55.563 E10.36779
G1 X159.721 Y52.849 E10.48655
G1 X159.453 Y50.08 E10.60799
G1 X159.115 Y47.394 E10.72617
G1 X158.735 Y44.914 E10.8357
G1 X158.617 Y44.206 E10.86703
G1 X158.573 Y43.698 E10.88929
G1 X158.649 Y42.872 E10.9255
G1 X158.755 Y42.373 E10.94777
G1 X159.008 Y41.697 E10.97928
G1 X159.281 Y41.14 E11.00636
G1 X159.751 Y40.518 E11.04039
G1 X160.176 Y40.039 E11.06834
G1 X160.889 Y39.51 E11.1071
G1 X161.321 Y39.238 E11.12939
G1 X161.901 Y38.99 E11.15692
G1 X162.389 Y38.84 E11.17921
G1 X163.112 Y38.729 E11.21114
G1 X163.621 Y38.7 E11.2334
G1 X164.374 Y38.785 E11.26648
G1 X165.044 Y38.979 E11.29693
G1 X165.567 Y39.223 E11.32212
G1 X166.003 Y39.489 E11.34442
G1 X166.405 Y39.833 E11.36751
G1 X167.193 Y40.627 E11.41635
G1 X169.262 Y42.796 E11.5472
G1 X170.617 Y44.244 E11.63377
G1 X171.994 Y45.751 E11.72289
G1 X173.73 Y47.715 E11.83731
G1 X174.935 Y49.122 E11.91818
G1 X176.09 Y50.509 E11.99697
G1 X177.218 Y51.904 E12.07529
G1 X178.23 Y53.197 E12.14697
G1 X179.207 Y54.49 E12.21771
G1 X180.485 Y56.254 E12.3128
G1 X181.345 Y57.494 E12.37868
G1 X182.081 Y58.595 E12.43649
G1 X182.892 Y59.861 E12.50213
G1 X183.543 Y60.921 E12.55643
G1 X184.29 Y62.195 E12.6209
G1 X185.029 Y63.525 E12.68732
G1 X185.731 Y64.864 E12.75332
G1 X186.334 Y66.081 E12.81261
G1 X187.031 Y67.575 E12.88458
G1 X187.681 Y69.074 E12.9559
G1 X188.171 Y70.276 E13.01256
G1 X188.732 Y71.754 E13.08158
G1 X189.143 Y72.909 E13.13509
G1 X189.597 Y74.275 E13.19793
G1 X190.01 Y75.611 E13.25898
G1 X190.493 Y77.321 E13.33655
G1 X190.797 Y78.506 E13.38995
G1 X191.154 Y80.056 E13.45939
G1 X191.482 Y81.683 E13.53184
G1 X191.732 Y83.112 E13.59517
G1 X191.948 Y84.521 E13.6574
G1 X192.153 Y86.152 E13.72916
G1 X192.296 Y87.629 E13.79393
G1 X192.411 Y89.231 E13.86405
G1 X192.487 Y91.316 E13.95513
G1 X192.491 Y92.846 E14.02192
G1 X192.465 Y93.761 E14.06188
G1 X192.387 Y94.696 E14.10284
G1 X192.302 Y95.439 E14.13548
G1 X192.204 Y95.94 E14.15777
G1 X192.029 Y96.419 E14.18003
G1 X191.781 Y96.865 E14.20231
G1 X191.466 Y97.267 E14.2246
G1 X191.093 Y97.616 E14.2469
G1 X190.67 Y97.901 E14.26917
G1 X190.208 Y98.117 E14.29143
G1 X189.624 Y98.286 E14.31797
G1 X187.714 Y98.467 E14.40172
G1 X184.989 Y98.776 E14.52144
G1 X182.232 Y99.168 E14.643
G1 X179.584 Y99.621 E14.76028
G1 X176.894 Y100.159 E14.88003
G1 X174.214 Y100.776 E15.00009
G1 X171.573 Y101.464 E15.11923
G1 X168.933 Y102.23 E15.23922
G1 X166.31 Y103.073 E15.3595
G1 X163.76 Y103.972 E15.47753
G1 X161.215 Y104.95 E15.59655
G1 X158.69 Y106.007 E15.71604
G1 X156.178 Y107.141 E15.83636
G1 X154.405 Y108.002 E15.9224
G1 X153.93 Y108.188 E15.94467
G1 X153.432 Y108.298 E15.96693
G1 X152.922 Y108.328 E15.98924
G1 X152.414 Y108.279 E16.01151
G1 X151.92 Y108.152 E16.03378
G1 X151.452 Y107.948 E16.05607
G1 X151.021 Y107.674 E16.07836
G1 X150.638 Y107.337 E16.10063
G1 X150.313 Y106.943 E16.12293
G1 X150.053 Y106.504 E16.1452
G1 F2700 E15.6452
;MESH:160mm+basket+handle.stl
G0 F3600 X163.673 Y45.701
G0 X162.923 Y43.274
;TYPE:WALL-OUTER
G1 F2700 E16.1452
G1 F1423.2 X163.021 Y43.128 E16.15491
G1 X163.177 Y43.038 E16.16485
G1 F1434 X163.389 Y43.039 E16.17647
G1 F1451.6 X164.976 Y44.666 E16.2995
G1 F1490.5 X166.275 Y46.042 E16.39926
G1 F1551.7 X167.6 Y47.468 E16.49783
G1 F1620.9 X168.879 Y48.885 E16.59036
G1 F1705.8 X170.138 Y50.315 E16.67813
G1 F1813.8 X171.262 Y51.618 E16.75268
G1 F1968.8 X172.356 Y52.945 E16.82132
G1 F2123.6 X172.862 Y53.576 E16.85125
G1 F1485.8 X172.959 Y54.031 E16.87585
G1 X172.529 Y53.85 E16.90052
G1 F2023.6 X170.917 Y51.985 E16.99624
G1 F1813.8 X169.734 Y50.673 E17.07278
G1 F1705.8 X168.491 Y49.303 E17.15799
G1 F1618.2 X167.191 Y47.905 E17.25069
G1 F1551.7 X165.915 Y46.562 E17.3445
G1 F1492.9 X164.512 Y45.116 E17.45055
G1 F1442.7 X162.912 Y43.501 E17.57436
G1 F1423.2 X162.923 Y43.274 E17.58691
G0 F3600 X162.914 Y43.474
G0 X163.072 Y43.481
G0 X164.42 Y44.899
G0 X165.846 Y46.404
G0 X168.527 Y49.214
G0 X170.333 Y51.113
G0 X173.046 Y53.964
G0 X172.959 Y54.031
G1 F1142.7 X173.23 Y54.359 E17.61617
G1 F1236.9 X174.256 Y55.647 E17.72078
G1 F1393.8 X174.721 Y56.233 E17.76295
G1 F1556.8 X175.186 Y56.819 E17.80071
G1 F1779.7 X175.511 Y57.263 E17.825
G1 F2095.3 X175.836 Y57.707 E17.84564
G1 F2554.1 X176.162 Y58.152 E17.86261
G1 F2700 E17.36261
G0 F3600 X175.519 Y58.703
G0 X46.702 Y159.674
G0 X45.629 Y160.519
G1 F2700 E17.86261
G1 F1425.3 X45.772 Y160.419 E17.87223
G1 X46.003 Y160.412 E17.88497
G1 F1436.2 X47.486 Y161.885 E17.99933
G1 F1481.2 X48.941 Y163.298 E18.10693
G1 F1549.2 X50.377 Y164.663 E18.20742
G1 F1623.7 X51.807 Y165.995 E18.30199
G1 F1705.8 X53.175 Y167.239 E18.38717
G1 F1806.9 X54.427 Y168.365 E18.4604
G1 F2014.9 X56.351 Y170.029 E18.5596
G1 F1481.2 X56.531 Y170.459 E18.58433
G1 X56.075 Y170.362 E18.60906
G1 F2123.6 X55.491 Y169.893 E18.63677
G1 F1972.9 X54.127 Y168.77 E18.70714
G1 F1810.3 X52.818 Y167.643 E18.78212
G1 F1705.8 X51.425 Y166.415 E18.86766
G1 F1623.7 X50.005 Y165.131 E18.9603
G1 F1551.7 X48.544 Y163.779 E19.06111
G1 F1483.5 X47.168 Y162.486 E19.16112
G1 F1442.7 X45.538 Y160.886 E19.28551
G1 F1431.8 X45.537 Y160.68 E19.29682
G1 F1425.3 X45.629 Y160.519 E19.30704
G0 F3600 X45.537 Y160.68
G0 X45.537 Y160.695
G0 X45.693 Y160.722
G0 X56.463 Y170.544
G0 X56.531 Y170.459
G1 F1141.3 X56.859 Y170.73 E19.33633
G1 F1236.9 X58.147 Y171.756 E19.44094
G1 F1395.9 X58.746 Y172.232 E19.48401
G1 F1564.6 X59.346 Y172.708 E19.52248
G1 F1860.2 X59.998 Y173.184 E19.55658
G1 F2435.6 X60.65 Y173.661 E19.58264
G1 F2700 E19.08264
;MESH:160mm+basket+handle.stl(1)
G0 F3600 X60.101 Y174.324
G0 X59.371 Y173.868
G0 X56.659 Y171.943
G0 X45.623 Y160.513
G1 F2700 E19.58264
G1 F1381.6 X45.769 Y160.41 E19.5928
G1 X46.007 Y160.403 E19.60635
G1 F1393.8 X47.495 Y161.88 E19.72454
G1 F1436.2 X48.95 Y163.293 E19.83551
G1 F1500 X50.381 Y164.655 E19.939
G1 F1572.4 X51.971 Y166.133 E20.04748
G1 F1705.8 X54.435 Y168.359 E20.20045
G1 F1890 X55.745 Y169.502 E20.27273
G1 F2076.9 X56.894 Y170.477 E20.32974
G1 F1485.8 X57.078 Y170.903 E20.35428
G1 X56.618 Y170.81 E20.3791
G1 F2081.5 X55.484 Y169.902 E20.43394
G1 F1893.8 X54.119 Y168.777 E20.50733
G1 F1743.5 X52.812 Y167.652 E20.58505
G1 F1649.2 X51.584 Y166.57 E20.66303
G1 F1572.4 X49.996 Y165.139 E20.76986
G1 F1500 X48.534 Y163.783 E20.87431
G1 F1438.4 X47.162 Y162.494 E20.97716
G1 F1400 X45.529 Y160.893 E21.10551
G1 F1387.7 X45.528 Y160.678 E21.11769
G1 F1381.6 X45.623 Y160.513 E21.12851
G0 F3600 X45.528 Y160.678
G0 X45.528 Y160.688
G1 F2700 E20.62851
G0 F3600 X45.693 Y160.722
G0 X55.606 Y169.754
G0 X57.097 Y170.868
G0 X57.078 Y170.903
G1 F2700 E21.12851
G1 F1187.2 X58.147 Y171.755 E21.21899
G1 F1316.2 X58.732 Y172.219 E21.26357
G1 F1462.8 X59.318 Y172.684 E21.30375
G1 F1702.7 X59.932 Y173.137 E21.33897
G1 F2123.6 X60.546 Y173.59 E21.3672
G1 F2632.3 X60.843 Y173.803 E21.37811
G1 F2700 E20.87811
G0 F3600 X61.382 Y173.172
G0 X163.673 Y45.701
G0 X162.913 Y43.268
G1 F2700 E21.37811
G1 F1381.6 X163.013 Y43.12 E21.38827
G1 X163.175 Y43.028 E21.39886
G1 F1391.8 X163.393 Y43.029 E21.41117
G1 F1408.3 X164.985 Y44.661 E21.53838
G1 F1445 X166.283 Y46.033 E21.64108
G1 F1502.4 X167.605 Y47.462 E21.7429
G1 F1567.2 X168.888 Y48.876 E21.83863
G1 F1646.3 X170.147 Y50.309 E21.92968
G1 F1750 X171.305 Y51.652 E22.0093
G1 F1897.6 X172.401 Y52.982 E22.08066
G1 F2081.5 X173.311 Y54.12 E22.13567
G1 F1485.8 X173.404 Y54.579 E22.16044
G1 X172.977 Y54.394 E22.18505
G1 F2081.5 X172.036 Y53.286 E22.23992
G1 F1897.6 X170.911 Y51.993 E22.31089
G1 F1750 X169.729 Y50.68 E22.39022
G1 F1646.3 X168.485 Y49.307 E22.47865
G1 F1569.8 X167.183 Y47.913 E22.57413
G1 F1504.8 X165.907 Y46.566 E22.67101
G1 F1447.2 X164.507 Y45.125 E22.7801
G1 F1400 X162.902 Y43.505 E22.9081
G1 F1381.6 X162.913 Y43.268 E22.92159
G0 F3600 X162.904 Y43.468
G1 F2700 E22.42159
G0 F3600 X163.072 Y43.476
G0 X164.688 Y45.17
G0 X165.846 Y46.404
G0 X168.527 Y49.214
G0 X169.685 Y50.411
G0 X172.249 Y53.099
G0 X173.369 Y54.598
G0 X173.404 Y54.579
G1 F2700 E22.92159
G1 F1184.2 X174.255 Y55.647 E23.0122
G1 F1314.3 X174.729 Y56.244 E23.05778
G1 F1465.1 X175.204 Y56.842 E23.09873
G1 F1705.8 X175.644 Y57.442 E23.13301
G1 F2114.1 X176.085 Y58.043 E23.16072
G1 F2610.5 X176.304 Y58.346 E23.17197
G1 F2700 E22.67197
;MESH:NONMESH
G0 F600 X176.304 Y58.346 Z0.4
G0 F3600 X175.675 Y58.885
G0 X44.766 Y156.281
;TIME_ELAPSED:31.024870
;LAYER:1
M106 S51
;TYPE:SKIRT
G1 F2700 E23.17197
G1 F3600 X45.568 Y156.131 E23.20046
G1 X46.076 Y156.076 E23.21831
G1 X46.688 Y156.117 E23.23973
G1 X48.158 Y156.354 E23.29173
G1 X50.904 Y156.748 E23.38861
G1 X53.642 Y157.063 E23.48486
G1 X56.34 Y157.296 E23.57943
G1 X59.09 Y157.455 E23.67563
G1 X61.837 Y157.536 E23.77161
G1 X64.551 Y157.54 E23.86639
G1 X67.302 Y157.465 E23.9625
G1 X70.012 Y157.315 E24.05728
G1 X72.751 Y157.086 E24.15327
G1 X75.483 Y156.779 E24.24928
G1 X78.175 Y156.399 E24.34423
G1 X80.899 Y155.936 E24.44072
G1 X83.509 Y155.417 E24.53366
G1 X86.237 Y154.792 E24.6314
G1 X88.872 Y154.109 E24.72646
G1 X91.502 Y153.349 E24.82207
G1 X94.134 Y152.506 E24.91858
G1 X96.686 Y151.608 E25.01306
G1 X99.214 Y150.64 E25.1076
G1 X101.789 Y149.566 E25.20504
G1 X104.258 Y148.455 E25.29959
G1 X106.139 Y147.544 E25.37258
G1 X106.614 Y147.358 E25.39039
G1 X107.113 Y147.249 E25.40823
G1 X107.622 Y147.219 E25.42604
G1 X108.13 Y147.268 E25.44386
G1 X108.624 Y147.397 E25.46169
G1 X109.092 Y147.6 E25.47951
G1 X109.523 Y147.875 E25.49736
G1 X109.905 Y148.213 E25.51517
G1 X110.23 Y148.606 E25.53298
G1 X110.49 Y149.046 E25.55083
G1 X110.678 Y149.521 E25.56867
G1 X110.789 Y150.019 E25.58649
G1 X110.822 Y150.528 E25.6043
G1 X110.774 Y151.036 E25.62212
G1 X110.648 Y151.531 E25.63996
G1 X109.127 Y154.784 E25.76537
G1 X108.021 Y157.318 E25.86193
G1 X106.996 Y159.865 E25.95781
G1 X106.046 Y162.427 E26.05324
G1 X105.167 Y165.026 E26.14905
G1 X104.371 Y167.618 E26.24375
G1 X103.633 Y170.284 E26.34035
G1 X102.985 Y172.915 E26.43498
G1 X102.399 Y175.624 E26.53178
G1 X101.903 Y178.269 E26.62576
G1 X101.473 Y180.993 E26.72207
G1 X101.122 Y183.709 E26.81771
G1 X100.811 Y186.879 E26.92894
G1 X100.722 Y187.382 E26.94678
G1 X100.555 Y187.864 E26.9646
G1 X100.315 Y188.315 E26.98244
G1 X100.008 Y188.723 E27.00027
G1 X99.641 Y189.077 E27.01808
G1 X99.223 Y189.37 E27.03591
G1 X98.764 Y189.594 E27.05374
G1 X98.18 Y189.773 E27.07508
G1 X97.09 Y189.898 E27.11339
G1 X96.276 Y189.964 E27.14191
G1 X95.185 Y189.991 E27.18002
G1 X93.906 Y189.988 E27.22469
G1 X91.698 Y189.908 E27.30185
G1 X90.122 Y189.795 E27.35703
G1 X88.409 Y189.624 E27.41715
G1 X86.937 Y189.436 E27.46898
G1 X85.562 Y189.225 E27.51756
G1 X84.183 Y188.982 E27.56646
G1 X82.577 Y188.659 E27.62367
G1 X81.022 Y188.3 E27.6794
G1 X79.506 Y187.907 E27.7341
G1 X78.037 Y187.487 E27.78745
G1 X76.713 Y187.076 E27.83587
G1 X75.342 Y186.619 E27.88634
G1 X74.006 Y186.14 E27.9359
G1 X72.824 Y185.689 E27.98009
G1 X71.414 Y185.115 E28.03325
G1 X69.996 Y184.495 E28.0873
G1 X68.7 Y183.891 E28.13723
G1 X67.342 Y183.22 E28.19013
G1 X65.976 Y182.503 E28.24401
G1 X64.558 Y181.711 E28.30073
G1 X63.282 Y180.958 E28.35247
G1 X62.052 Y180.197 E28.40299
G1 X61.021 Y179.532 E28.44583
