;FLAVOR:Marlin
;TIME:9554
;Filament used: 11.1906m
;Layer height: 0.2
;MINX:44.795
;MINY:50.25
;MINZ:0.2
;MAXX:190.206
;MAXY:179.248
;MAXZ:112
;TARGET_MACHINE.NAME:ELEGOO NEPTUNE 4 Pro
;Generated with Cura_SteamEngine 5.7.2
M104 S250
M105
M109 S250
M82 ;absolute extrusion mode
;ELEGOO NEPTUNE 4 / 4 PRO
M220 S100 ;Set the feed speed to 100%
M221 S100 ;Set the flow rate to 100%
M104 S140 ;Start heating extruder
M190 S70 ;Wait for the bed to reach print temp
G90
G28 ;home
G1 Z10 F300
G1 X67.5 Y0 F6000
G1 Z0 F300
M109 S250 ;Wait for extruder to reach print temp
G92 E0 ;Reset Extruder
G1 X67.5 Y0 Z0.4 F300 ;Move to start position
G1 X167.5 E30 F400 ;Draw the first line
G1 Z0.6 F120.0 ;Move to side a little
G1 X162.5 F3000
G92 E0 ;Reset Extruder
G92 E0
G92 E0
G1 F2700 E-0.5
;LAYER_COUNT:560
;LAYER:0
M107
M204 S500
G0 F6000 X107.501 Y52.22 Z0.2
;TYPE:SKIRT
G1 F2700 E0
G1 F3600 X107.741 Y51.769 E0.0223
G1 X108.048 Y51.362 E0.04456
G1 X108.415 Y51.007 E0.06685
G1 X108.833 Y50.713 E0.08916
G1 X109.291 Y50.489 E0.11141
G1 X109.779 Y50.339 E0.1337
G1 X110.486 Y50.25 E0.16481
G1 X123.854 Y50.25 E0.74837
G1 X124.555 Y50.26 E0.77898
G1 X125.063 Y50.308 E0.80125
G1 X125.557 Y50.433 E0.8235
G1 X126.026 Y50.635 E0.84579
G1 X126.458 Y50.907 E0.86807
G1 X126.842 Y51.243 E0.89035
G1 X127.169 Y51.636 E0.91267
G1 X127.48 Y52.178 E0.93994
G1 X127.834 Y52.961 E0.97746
G1 X128.251 Y53.918 E1.02303
G1 X129.421 Y56.411 E1.14325
G1 X130.645 Y58.836 E1.26183
G1 X131.944 Y61.239 E1.38107
G1 X133.308 Y63.601 E1.50014
G1 X134.758 Y65.955 E1.62083
G1 X136.249 Y68.23 E1.73957
G1 X137.817 Y70.479 E1.85926
G1 X139.445 Y72.679 E1.97873
G1 X141.124 Y74.821 E2.09754
G1 X143.402 Y77.538 E2.25232
G1 X144.216 Y78.483 E2.30677
G1 X144.898 Y79.372 E2.35568
G1 X148.182 Y83.82 E2.59704
G1 X148.58 Y84.374 E2.62682
G1 X148.845 Y84.81 E2.64909
G1 X149.022 Y85.235 E2.66919
G1 X149.896 Y87.826 E2.78856
G1 X150.845 Y90.401 E2.90836
G1 X151.871 Y92.96 E3.02871
G1 X152.95 Y95.444 E3.14694
G1 X154.117 Y97.936 E3.26706
G1 X155.334 Y100.356 E3.38531
G1 X156.651 Y102.798 E3.50643
G1 X157.375 Y104.074 E3.57047
G1 X159.578 Y107.89 E3.76282
G1 X161.013 Y110.294 E3.88504
G1 X162.464 Y112.579 E4.0032
G1 X164.008 Y114.864 E4.12359
G1 X165.603 Y117.084 E4.24292
G1 X167.249 Y119.244 E4.36147
G1 X168.975 Y121.382 E4.48142
G1 X170.758 Y123.469 E4.60125
G1 X171.703 Y124.537 E4.6635
G1 X172.097 Y125.057 E4.69198
G1 X172.704 Y126.381 E4.75556
G1 X174.864 Y131.341 E4.99173
G1 X175.132 Y131.982 E5.02206
G1 X175.482 Y132.956 E5.06724
G1 X175.884 Y134.14 E5.12182
G1 X176.833 Y136.705 E5.24121
G1 X177.858 Y139.247 E5.36086
G1 X178.952 Y141.754 E5.48027
G1 X180.131 Y144.261 E5.60121
G1 X181.338 Y146.651 E5.71809
G1 X182.663 Y149.098 E5.83957
G1 X184.021 Y151.443 E5.95786
G1 X185.466 Y153.786 E6.07803
G1 X186.955 Y156.053 E6.19643
G1 X189.331 Y159.409 E6.37594
G1 X189.566 Y159.726 E6.39316
G1 X189.837 Y160.158 E6.41542
G1 X190.037 Y160.628 E6.43772
G1 X190.161 Y161.123 E6.46
G1 X190.206 Y161.632 E6.4823
G1 X190.171 Y162.141 E6.50458
G1 X190.058 Y162.639 E6.52687
G1 X189.779 Y163.3 E6.55819
G1 X183.111 Y174.85 E7.14038
G1 X182.74 Y175.473 E7.17204
G1 X182.445 Y175.89 E7.19434
G1 X182.089 Y176.256 E7.21662
G1 X181.68 Y176.561 E7.2389
G1 X181.229 Y176.799 E7.26116
G1 X180.746 Y176.964 E7.28344
G1 X180.243 Y177.052 E7.30573
G1 X179.616 Y177.05 E7.3331
G1 X178.665 Y176.956 E7.37482
G1 X177.636 Y176.841 E7.42002
G1 X174.888 Y176.61 E7.5404
G1 X172.177 Y176.459 E7.65893
G1 X169.43 Y176.384 E7.77889
G1 X166.716 Y176.388 E7.89737
G1 X163.965 Y176.469 E8.01751
G1 X161.221 Y176.627 E8.1375
G1 X158.512 Y176.861 E8.2562
G1 X155.786 Y177.173 E8.37598
G1 X153.095 Y177.559 E8.49465
G1 X149.659 Y178.164 E8.64695
G1 X148.452 Y178.393 E8.70058
G1 X147.439 Y178.527 E8.74519
G1 X141.848 Y179.159 E8.99081
G1 X141.168 Y179.226 E9.02064
G1 X140.658 Y179.236 E9.04291
G1 X140.206 Y179.178 E9.0628
G1 X137.497 Y178.634 E9.18342
G1 X134.78 Y178.166 E9.30378
G1 X132.105 Y177.784 E9.42174
G1 X129.369 Y177.472 E9.54195
G1 X126.667 Y177.24 E9.66033
G1 X123.917 Y177.083 E9.78058
G1 X121.161 Y177.004 E9.90094
G1 X119.737 Y176.993 E9.9631
G1 X115.321 Y176.993 E10.15588
G1 X112.525 Y177.033 E10.27795
G1 X109.815 Y177.148 E10.39636
G1 X107.067 Y177.342 E10.51661
G1 X104.369 Y177.61 E10.63497
G1 X101.61 Y177.963 E10.7564
G1 X98.953 Y178.381 E10.87381
G1 X96.201 Y178.892 E10.996
G1 X94.83 Y179.169 E11.05706
G1 X94.184 Y179.248 E11.08547
G1 X92.766 Y179.116 E11.14764
G1 X87.373 Y178.507 E11.38456
G1 X86.489 Y178.389 E11.42349
G1 X85.733 Y178.249 E11.45706
G1 X84.418 Y177.986 E11.5156
G1 X81.761 Y177.533 E11.63326
G1 X79.022 Y177.146 E11.75402
G1 X76.341 Y176.842 E11.8718
G1 X73.577 Y176.61 E11.99289
G1 X70.864 Y176.458 E12.1115
G1 X68.114 Y176.382 E12.2316
G1 X65.4 Y176.384 E12.35008
G1 X62.651 Y176.464 E12.47013
G1 X59.918 Y176.62 E12.58963
G1 X55.859 Y176.996 E12.76758
G1 X55.432 Y177.045 E12.78634
G1 X54.922 Y177.063 E12.80862
G1 X54.416 Y177.001 E12.83087
G1 X53.925 Y176.861 E12.85316
G1 X53.462 Y176.646 E12.87545
G1 X53.038 Y176.362 E12.89773
G1 X52.664 Y176.015 E12.92
G1 X52.235 Y175.451 E12.95093
G1 X45.533 Y163.842 E13.5361
G1 X45.208 Y163.262 E13.56512
G1 X44.994 Y162.798 E13.58743
G1 X44.855 Y162.307 E13.6097
G1 X44.795 Y161.8 E13.63199
G1 X44.814 Y161.29 E13.65427
G1 X44.912 Y160.789 E13.67655
G1 X45.088 Y160.31 E13.69883
G1 X45.403 Y159.766 E13.72627
G1 X45.944 Y159.013 E13.76675
G1 X46.586 Y158.143 E13.81395
G1 X48.14 Y155.907 E13.93282
G1 X49.64 Y153.611 E14.05254
G1 X51.075 Y151.274 E14.17226
G1 X52.443 Y148.9 E14.29187
G1 X53.733 Y146.504 E14.41066
G1 X54.978 Y144.027 E14.53168
G1 X56.124 Y141.579 E14.64967
G1 X57.209 Y139.074 E14.76884
G1 X58.236 Y136.513 E14.8893
G1 X59.404 Y133.306 E15.03829
G1 X59.827 Y132.092 E15.09441
G1 X60.234 Y131.113 E15.14069
G1 X62.439 Y126.051 E15.38173
G1 X62.741 Y125.384 E15.41369
G1 X62.987 Y124.937 E15.43596
G1 X63.265 Y124.572 E15.45599
G1 X65.12 Y122.467 E15.57847
G1 X66.844 Y120.392 E15.69624
G1 X68.538 Y118.233 E15.81604
G1 X70.182 Y116.012 E15.93666
G1 X71.733 Y113.788 E16.05503
G1 X73.226 Y111.512 E16.17385
G1 X74.696 Y109.125 E16.29623
G1 X75.391 Y107.941 E16.35616
G1 X77.6 Y104.116 E16.54898
G1 X78.95 Y101.699 E16.66984
G1 X80.225 Y99.257 E16.7901
G1 X81.424 Y96.795 E16.90964
G1 X82.537 Y94.332 E17.02763
G1 X83.62 Y91.74 E17.15026
G1 X84.588 Y89.232 E17.26761
G1 X85.497 Y86.663 E17.38657
G1 X85.959 Y85.283 E17.4501
G1 X86.213 Y84.684 E17.4785
G1 X87.032 Y83.527 E17.54039
G1 X90.273 Y79.14 E17.77849
G1 X90.8 Y78.455 E17.81622
G1 X91.354 Y77.806 E17.85347
G1 X92.217 Y76.823 E17.91057
G1 X93.959 Y74.721 E18.02975
G1 X95.63 Y72.586 E18.1481
G1 X97.276 Y70.352 E18.26923
G1 X98.82 Y68.13 E18.38735
G1 X100.326 Y65.828 E18.50744
G1 X101.765 Y63.484 E18.62751
G1 X103.114 Y61.139 E18.74561
G1 X104.422 Y58.713 E18.86592
G1 X105.637 Y56.294 E18.98409
G1 X107.336 Y52.6 E19.16159
G1 X107.501 Y52.22 E19.17967
G1 F2700 E18.67967
G0 F6000 X88.713 Y86.274
G0 X83.331 Y101.24
G1 F2700 E19.17967
G1 F3600 X85.248 Y101.399 E19.26365
G1 X85.272 Y101.473 E19.26704
G1 X85.364 Y101.552 E19.27234
G1 X85.398 Y101.659 E19.27724
G1 X85.497 Y101.742 E19.28288
G1 X85.529 Y101.843 E19.2875
G1 X85.625 Y101.926 E19.29304
G1 X85.658 Y102.029 E19.29776
G1 X85.756 Y102.113 E19.3034
G1 X85.788 Y102.214 E19.30802
G1 X85.833 Y102.253 E19.31062
G1 X85.616 Y102.631 E19.32965
G1 X84.447 Y102.536 E19.38085
G1 X84.306 Y102.564 E19.38712
G1 X84.198 Y102.667 E19.39364
G1 X77.469 Y114.326 E19.98129
G1 X77.434 Y114.465 E19.98754
G1 X77.481 Y114.607 E19.99407
G1 X78.144 Y115.563 E20.04486
G1 X77.928 Y115.941 E20.06386
G1 X77.817 Y115.926 E20.06875
G1 X77.761 Y115.951 E20.07143
G1 X77.734 Y115.929 E20.07295
G1 X77.591 Y115.91 E20.07925
G1 X77.539 Y115.933 E20.08173
G1 X77.511 Y115.909 E20.08334
G1 X77.368 Y115.89 E20.08964
G1 X77.313 Y115.915 E20.09228
G1 X77.285 Y115.892 E20.09386
G1 X77.142 Y115.873 E20.10016
G1 X77.091 Y115.896 E20.1026
G1 X77.063 Y115.873 E20.10418
G1 X76.921 Y115.854 E20.11043
G1 X76.893 Y115.866 E20.11176
G1 X75.799 Y114.285 E20.19569
G1 X83.331 Y101.24 E20.85326
G0 F6000 X83.618 Y101.79
G1 F3600 X84.939 Y101.9 E20.91113
G1 X85.045 Y102.055 E20.91933
G1 X85.05 Y102.059 E20.91961
G1 X84.49 Y102.013 E20.94414
G1 X84.241 Y102.032 E20.95504
G1 X84.01 Y102.129 E20.96597
G1 X83.821 Y102.293 E20.9769
G1 X83.744 Y102.404 E20.9828
G1 X77.015 Y114.063 E21.57044
G1 X76.925 Y114.297 E21.58139
G1 X76.914 Y114.547 E21.59231
G1 X76.982 Y114.788 E21.60324
G1 X77.049 Y114.906 E21.60917
G1 X77.37 Y115.368 E21.63372
G1 X77.347 Y115.372 E21.63474
G1 X77.185 Y115.345 E21.64191
G1 X77.172 Y115.347 E21.64249
G1 X76.42 Y114.259 E21.70022
G1 X83.618 Y101.79 E22.32873
G1 F2700 E21.82873
G0 F6000 X88.713 Y86.274
G0 X93.171 Y80.243
G0 X100.593 Y82.013
G0 X103.526 Y89.656
G0 X108.259 Y115.706
G1 F2700 E22.32873
G1 F3600 X108.478 Y115.33 E22.34772
G1 X108.588 Y115.345 E22.35257
G1 X108.641 Y115.322 E22.35509
G1 X108.67 Y115.346 E22.35674
G1 X108.813 Y115.365 E22.36303
G1 X108.868 Y115.341 E22.36565
G1 X108.895 Y115.363 E22.36717
G1 X109.038 Y115.382 E22.37347
G1 X109.09 Y115.359 E22.37595
G1 X109.118 Y115.383 E22.37756
G1 X109.261 Y115.402 E22.38386
G1 X109.316 Y115.377 E22.3865
G1 X109.344 Y115.4 E22.38808
G1 X109.487 Y115.419 E22.39438
G1 X109.512 Y115.408 E22.39557
G1 X110.605 Y116.988 E22.47944
G1 X103.073 Y130.032 E23.13697
G1 X101.154 Y129.873 E23.22103
G1 X101.131 Y129.801 E23.22433
G1 X101.036 Y129.719 E23.22981
G1 X101.002 Y129.614 E23.23463
G1 X100.906 Y129.531 E23.24017
G1 X100.873 Y129.429 E23.24485
G1 X100.779 Y129.348 E23.25026
G1 X100.745 Y129.242 E23.25512
G1 X100.653 Y129.164 E23.26039
G1 X100.621 Y129.061 E23.2651
G1 X100.576 Y129.022 E23.2677
G1 X100.796 Y128.641 E23.2869
G1 X101.956 Y128.737 E23.33771
G1 X102.097 Y128.709 E23.34399
G1 X102.206 Y128.606 E23.35054
G1 X108.936 Y116.947 E23.9382
G1 X108.971 Y116.808 E23.94446
G1 X108.924 Y116.666 E23.95099
G1 X108.259 Y115.706 E24.00197
G0 F6000 X109.035 Y115.904
G1 F3600 X109.049 Y115.902 E24.00259
G1 X109.216 Y115.93 E24.00998
G1 X109.233 Y115.927 E24.01074
G1 X109.985 Y117.014 E24.06844
G1 X102.786 Y129.482 E24.69693
G1 X101.461 Y129.372 E24.75497
G1 X101.357 Y129.219 E24.76304
G1 X101.35 Y129.213 E24.76344
G1 X101.913 Y129.26 E24.78811
G1 X102.162 Y129.241 E24.79901
G1 X102.393 Y129.145 E24.80993
G1 X102.582 Y128.981 E24.82085
G1 X102.66 Y128.869 E24.82681
G1 X109.39 Y117.21 E25.41448
G1 X109.48 Y116.976 E25.42542
G1 X109.491 Y116.726 E25.43635
G1 X109.423 Y116.485 E25.44728
G1 X109.356 Y116.367 E25.4532
G1 X109.035 Y115.904 E25.4778
G1 F2700 E24.9778
G0 F6000 X109.833 Y52.859
G0 X125.167 Y52.859
G0 X125.167 Y68.463
G0 X124.394 Y116.987
G1 F2700 E25.4778
G1 F3600 X125.488 Y115.406 E25.56173
G1 X125.568 Y115.423 E25.5653
G1 X125.69 Y115.38 E25.57094
G1 X125.79 Y115.403 E25.57542
G1 X125.91 Y115.36 E25.58099
G1 X126.014 Y115.384 E25.58565
G1 X126.134 Y115.342 E25.5912
G1 X126.239 Y115.366 E25.5959
G1 X126.355 Y115.325 E25.60127
G1 X126.465 Y115.349 E25.60618
G1 X126.521 Y115.329 E25.60878
G1 X126.739 Y115.709 E25.6279
G1 X126.076 Y116.665 E25.67869
G1 X126.029 Y116.801 E25.68497
G1 X126.064 Y116.946 E25.69148
G1 X132.793 Y128.606 E26.27917
G1 X132.896 Y128.707 E26.28547
G1 X133.043 Y128.737 E26.29202
G1 X134.208 Y128.641 E26.34305
G1 X134.423 Y129.016 E26.36192
G1 X134.353 Y129.106 E26.36689
G1 X134.347 Y129.165 E26.36948
G1 X134.317 Y129.176 E26.37088
G1 X134.229 Y129.29 E26.37716
G1 X134.223 Y129.348 E26.37971
G1 X134.185 Y129.362 E26.38148
G1 X134.097 Y129.476 E26.38776
G1 X134.091 Y129.535 E26.39035
G1 X134.061 Y129.546 E26.39175
G1 X133.973 Y129.66 E26.39803
G1 X133.967 Y129.72 E26.40067
G1 X133.932 Y129.733 E26.4023
G1 X133.844 Y129.846 E26.40855
G1 X133.841 Y129.874 E26.40978
G1 X131.926 Y130.032 E26.49366
G1 X124.394 Y116.987 E27.15123
G0 F6000 X125.014 Y117.013
G1 F3600 X125.77 Y115.92 E27.20925
G1 X125.953 Y115.908 E27.21725
G1 X125.964 Y115.903 E27.21778
G1 X125.644 Y116.366 E27.24235
G1 X125.536 Y116.592 E27.25328
G1 X125.504 Y116.84 E27.2642
G1 X125.552 Y117.086 E27.27514
G1 X125.609 Y117.209 E27.28106
G1 X132.338 Y128.869 E27.86874
G1 X132.496 Y129.063 E27.87967
G1 X132.707 Y129.198 E27.8906
G1 X132.95 Y129.26 E27.90155
G1 X133.086 Y129.26 E27.90749
G1 X133.647 Y129.214 E27.93206
G1 X133.637 Y129.238 E27.93319
G1 X133.538 Y129.358 E27.93998
G1 X133.532 Y129.373 E27.94069
G1 X132.213 Y129.482 E27.99846
G1 X125.014 Y117.013 E28.62699
G1 F2700 E28.12699
G0 F6000 X131.473 Y89.656
G0 X134.404 Y82.012
G0 X141.828 Y80.243
G0 X146.286 Y86.274
G0 X149.382 Y102.632
G1 F2700 E28.62699
G1 F3600 X149.166 Y102.257 E28.64588
G1 X149.235 Y102.169 E28.65077
G1 X149.241 Y102.11 E28.65335
G1 X149.277 Y102.097 E28.65503
G1 X149.365 Y101.984 E28.66128
G1 X149.371 Y101.923 E28.66395
G1 X149.406 Y101.91 E28.66558
G1 X149.493 Y101.796 E28.67184
G1 X149.499 Y101.738 E28.67439
G1 X149.532 Y101.726 E28.67592
G1 X149.62 Y101.613 E28.68217
G1 X149.626 Y101.554 E28.68476
G1 X149.66 Y101.541 E28.68635
G1 X149.748 Y101.428 E28.6926
G1 X149.751 Y101.398 E28.69392
G1 X151.667 Y101.241 E28.77784
G1 X159.2 Y114.285 E29.4354
G1 X158.104 Y115.869 E29.51948
G1 X158.025 Y115.852 E29.52301
G1 X157.908 Y115.894 E29.52844
G1 X157.805 Y115.87 E29.53306
G1 X157.686 Y115.911 E29.53855
G1 X157.578 Y115.888 E29.54337
G1 X157.457 Y115.93 E29.54896
G1 X157.356 Y115.907 E29.55348
G1 X157.235 Y115.949 E29.55907
G1 X157.128 Y115.926 E29.56385
G1 X157.074 Y115.945 E29.56635
G1 X156.855 Y115.563 E29.58557
G1 X157.518 Y114.607 E29.63636
G1 X157.565 Y114.471 E29.64264
G1 X157.53 Y114.326 E29.64915
G1 X150.8 Y102.668 E30.23678
G1 X150.697 Y102.567 E30.24308
G1 X150.551 Y102.537 E30.24959
G1 X149.382 Y102.632 E30.30079
G0 F6000 X149.943 Y102.06
G1 F3600 X149.953 Y102.037 E30.30188
G1 X150.054 Y101.915 E30.3088
G1 X150.06 Y101.899 E30.30954
G1 X151.379 Y101.791 E30.36732
G1 X158.579 Y114.259 E30.99583
G1 X157.822 Y115.353 E31.0539
G1 X157.645 Y115.364 E31.06164
G1 X157.638 Y115.367 E31.06198
G1 X157.63 Y115.367 E31.06233
G1 X157.95 Y114.906 E31.08682
G1 X158.058 Y114.68 E31.09776
G1 X158.09 Y114.432 E31.10867
G1 X158.042 Y114.186 E31.11962
G1 X157.984 Y114.063 E31.12555
G1 X151.254 Y102.405 E31.71318
G1 X151.096 Y102.211 E31.72411
G1 X150.886 Y102.076 E31.735
G1 X150.643 Y102.014 E31.74595
G1 X150.508 Y102.014 E31.75184
G1 X149.943 Y102.06 E31.77659
G1 F2700 E31.27659
G0 F6000 X146.286 Y86.274
G0 X141.828 Y80.243
G0 X134.404 Y82.012
G0 X131.473 Y89.656
G0 X126.318 Y116.817
G0 X130.496 Y133.22
G0 X172.832 Y152.758
G0 X187.848 Y161.427
G0 X180.181 Y174.707
G0 X165.165 Y166.038
G0 X125.033 Y141.972
G1 F2700 E31.77659
G1 F3600 X125.856 Y143.71 E31.86054
G1 X125.799 Y143.772 E31.86421
G1 X125.774 Y143.902 E31.86999
G1 X125.707 Y143.975 E31.87432
G1 X125.684 Y144.095 E31.87965
G1 X125.607 Y144.179 E31.88463
G1 X125.582 Y144.309 E31.89041
G1 X125.515 Y144.382 E31.89473
G1 X125.491 Y144.507 E31.90029
G1 X125.419 Y144.586 E31.90495
G1 X125.408 Y144.645 E31.90757
G1 X124.968 Y144.645 E31.92678
G1 X124.47 Y143.589 E31.97775
G1 X124.375 Y143.481 E31.98403
G1 X124.232 Y143.438 E31.99055
G1 X110.767 Y143.438 E32.57835
G1 X110.629 Y143.477 E32.58461
G1 X110.529 Y143.589 E32.59116
G1 X110.031 Y144.645 E32.64213
G1 X109.594 Y144.645 E32.66121
G1 X109.552 Y144.542 E32.66606
G1 X109.504 Y144.507 E32.66865
G1 X109.51 Y144.471 E32.67025
G1 X109.456 Y144.338 E32.67651
G1 X109.412 Y144.306 E32.67889
G1 X109.418 Y144.268 E32.68057
G1 X109.364 Y144.135 E32.68684
G1 X109.313 Y144.097 E32.68961
G1 X109.318 Y144.064 E32.69107
G1 X109.264 Y143.931 E32.69733
G1 X109.22 Y143.899 E32.69971
G1 X109.226 Y143.861 E32.70139
G1 X109.172 Y143.728 E32.70766
G1 X109.144 Y143.708 E32.70916
G1 X109.966 Y141.972 E32.79301
G1 X125.033 Y141.972 E33.45074
G0 F6000 X124.701 Y142.497
G1 F3600 X125.269 Y143.697 E33.5087
G1 X125.199 Y143.842 E33.51573
G1 X125.184 Y143.872 E33.51719
G1 X124.945 Y143.365 E33.54166
G1 X124.803 Y143.158 E33.55262
G1 X124.604 Y143.007 E33.56352
G1 X124.368 Y142.925 E33.57443
G1 X124.232 Y142.913 E33.58039
G1 X110.767 Y142.913 E34.16819
G1 X110.52 Y142.953 E34.17911
G1 X110.298 Y143.068 E34.19003
